/* XPM */
static char *_245112c49b04f7984bd72599f4e02f8BaQH8akAxo9Er6Zl[] = {
/* columns rows colors chars-per-pixel */
"735 413 226 2 ",
"   c #030101",
".  c #0A0102",
"X  c #050807",
"o  c #0C0906",
"O  c #050608",
"+  c #0B0608",
"@  c #060A09",
"#  c #090C0C",
"$  c #120605",
"%  c #110906",
"&  c #100708",
"*  c #140B0A",
"=  c #190C0C",
"-  c #180807",
";  c #07100E",
":  c #0B110F",
">  c #12110E",
",  c #1A100E",
"<  c #060F11",
"1  c #0B0F10",
"2  c #130E10",
"3  c #061312",
"4  c #0E1515",
"5  c #0D1313",
"6  c #0F1817",
"7  c #0E1718",
"8  c #0E1A1A",
"9  c #041E16",
"0  c #111717",
"q  c #121516",
"w  c #111515",
"e  c #1A1213",
"r  c #131917",
"t  c #111619",
"y  c #121919",
"u  c #15191A",
"i  c #131C1B",
"p  c #161A1D",
"a  c #151D1D",
"s  c #131C1C",
"d  c #191D1D",
"f  c #1A1818",
"g  c #211E1D",
"h  c #0D211F",
"j  c #15211F",
"k  c #1B211E",
"l  c #21211E",
"z  c #0D1E21",
"x  c #161F20",
"c  c #1A1E21",
"v  c #1A1E21",
"b  c #0E2322",
"n  c #0C2926",
"m  c #162423",
"M  c #1A2525",
"N  c #152926",
"B  c #1B2A26",
"V  c #152628",
"C  c #1D2728",
"Z  c #162B29",
"A  c #1D2C29",
"S  c #16312D",
"D  c #1D312E",
"F  c #163226",
"G  c #1D2E30",
"H  c #1E3231",
"J  c #1D3935",
"K  c #1A3936",
"L  c #0F322C",
"P  c #222524",
"I  c #212A26",
"U  c #212629",
"Y  c #212D2C",
"T  c #2A2D2C",
"R  c #292726",
"E  c #21312E",
"W  c #2A312E",
"Q  c #252E30",
"!  c #292E31",
"~  c #243433",
"^  c #2A3535",
"/  c #253936",
"(  c #293936",
")  c #253638",
"_  c #2C3738",
"`  c #263B39",
"'  c #2B3C3A",
"]  c #313C3D",
"[  c #353836",
"{  c #211F20",
"}  c #26413D",
"|  c #2D413E",
" . c #2E493F",
".. c #32423E",
"X. c #37473D",
"o. c #1E423E",
"O. c #2C3F41",
"+. c #343E40",
"@. c #2E4341",
"#. c #2D4945",
"$. c #2E4C4A",
"%. c #264644",
"&. c #324544",
"*. c #394545",
"=. c #344946",
"-. c #3A4A46",
";. c #344648",
":. c #3A4649",
">. c #354B49",
",. c #3A4C4B",
"<. c #34514D",
"1. c #3B514E",
"2. c #3B5449",
"3. c #3C4E51",
"4. c #344E51",
"5. c #355453",
"6. c #3C5452",
"7. c #365956",
"8. c #3B5A56",
"9. c #3A5759",
"0. c #375B59",
"q. c #3C5E5C",
"w. c #355758",
"e. c #2E524F",
"r. c #3C605D",
"t. c #3B6059",
"y. c #3D5E60",
"u. c #3E6160",
"i. c #414D4D",
"p. c #434A46",
"a. c #42524D",
"s. c #47574D",
"d. c #434F51",
"f. c #4E4F51",
"g. c #435454",
"h. c #4A5555",
"j. c #435A55",
"k. c #4B5B55",
"l. c #445659",
"z. c #4A5659",
"x. c #435C5B",
"c. c #4B5C5C",
"v. c #525C55",
"b. c #515D5D",
"n. c #555958",
"m. c #42615E",
"M. c #4B625D",
"N. c #4B6559",
"B. c #53635D",
"V. c #5A655D",
"C. c #5B6A5E",
"Z. c #53675C",
"A. c #445D61",
"S. c #4C5E61",
"D. c #4C5E68",
"F. c #525F62",
"G. c #595F63",
"H. c #446261",
"J. c #4D6263",
"K. c #4D6964",
"L. c #4D6669",
"P. c #4D6A6A",
"I. c #476568",
"U. c #536364",
"Y. c #5A6565",
"T. c #546A65",
"R. c #5C6B64",
"E. c #546669",
"W. c #59676A",
"Q. c #556A6B",
"!. c #5A6C6D",
"~. c #5D7165",
"^. c #5C716D",
"/. c #56716B",
"(. c #566E71",
"). c #5B6E72",
"_. c #567272",
"`. c #5E7173",
"'. c #5E7479",
"]. c #5D7877",
"[. c #646D65",
"{. c #686F66",
"}. c #636D6C",
"|. c #696E6A",
" X c #626668",
".X c #657165",
"XX c #697165",
"oX c #65736B",
"OX c #6B736B",
"+X c #64796D",
"@X c #6B796E",
"#X c #70766E",
"$X c #707A6E",
"%X c #606F73",
"&X c #6A6E71",
"*X c #627374",
"=X c #6C7573",
"-X c #657974",
";X c #6C7A73",
":X c #637579",
">X c #6A7779",
",X c #65797A",
"<X c #6B7B7B",
"1X c #727674",
"2X c #7A7676",
"3X c #747976",
"4X c #797976",
"5X c #747679",
"6X c #7B7778",
"7X c #747A79",
"8X c #7A7B7B",
"9X c #756F6F",
"0X c #606B5E",
"qX c #817E7E",
"wX c #6D817B",
"eX c #74817C",
"rX c #78817B",
"tX c #6C7D81",
"yX c #7B7E80",
"uX c #737E81",
"iX c #817F82",
"pX c #748382",
"aX c #7B8382",
"sX c #7B8986",
"dX c #6D8383",
"fX c #818686",
/* pixels */
"                                                                                                                                                                                                                                                                                                                                                                                                                                                                                                                                                                                                                                                                                                                                                                                                                                                                                                                                                                                                                                                                                                                                                                                                                                                                                                                                                                                                                                                                                                                              ",
"                                                                                                                                                                                                                                                                                                                                                                                                                                                                                                                                                                                                                                                                                                                                                                                                                                                                                                                                                                                                                                                                                                                                                                                                                                                                                                                                                                                                                                                                                                                              ",
"                                                                                                                                                                                                                                                                                                                                                                                                                                                                                                                                                                                                                                                                                                                                                                                                                                                                                                                                                                                                                                                                                                                                                                                                                                                                                                                                                                                                                                                                                                                              ",
"                                                                                                                                                                                                                                                                                                                                                                                                                                                                                                                                                                                                                                                                                                                                                                                                                                                                                                                                                                                                                                                                                                                                                                                                                                                                                                                                                                                                                                                                                                                              ",
"                                                                                                                                                                                                                                                                                                                                                                                                                                                                                                                                                                                                                                                                                                                                                                                                                                                                                                                                                                                                                                                                                                                                                                                                                                                                                                                                                                                                                                                                                                                              ",
"                                                                                                                                                                                                                                                                                                                                                                                                                                                                                                                                                                                                                                                                                                                                                                                                                                                                                                                                                                                                                                                                                                                                                                                                                                                                                                                                                                                                                                                                                                                              ",
"                                                                                                                                                                                                                                                                                                                                                                                                                                                                                                                                                                                                                                                                                                                                                                                                                                                                                                                                                                                                                                                                                                                                                                                                                                                                                                                                                                                                                                                                                                                              ",
"                                                                                                                                                                                                                                                                                                                                                                                                                                                                                                                                                                                                                                                                                                                                                                                                                                                                                                                                                                                                                                                                                                                                                                                                                                                                                                                                                                                                                                                                                                                              ",
"                                                                                                                                                                                                                                                                                                                                                                                                                                                                                                                                                                                                                          X                                                                                                                                                                                                                                                                                                                                                                                                                                                                                                                                                                                                                                                                                                                                                                                                                                                                                                   ",
"                                                                                                                                                                                                                                                                                                                                                                                                                                                                                                                                                                                                                          X                                                                                                                                                                                                                                                                                                                                                                                                                                                                                                                                                                                                                                                                                                                                                                                                                                                                                                   ",
"                                                                                                                                                                                                                                                                                                                                                                                                                                                                                                                                                                                                                          X                                                 X X X                                                                                                                                                                                                                                                                                                                                                                                                                                                                                                                                                                                                                                                                                                                                                                                                                                             ",
"                                                                                                                                                                                                                                                                                                                                                                                                                                                                                                                                                                                                                      X   X                             X     X           X X X X X X                                                                                                                                                                                                                                                                                                                                                                                                                                                                                                                                                                                                                                                                                                                                                                                                                                         ",
"                                                                                                                                                                                                                                                                                                                                                                                                                                                                                                                                                                                                                    X X X X                                             X X X X X X X X                                                                                                                                                                                                                                                                                                                                                                                                                                                                                                                                                                                                                   O X X                                                                                                                                                                                                               ",
"                                                                                                                                                                                                                                                                                                                                                                                                                                                                                                                X X                                                                                 X X X X       X X X X X         X X X X                         O X X X @ + @ X X X X X X X                                                                                                                                                                                                                                                                                                                                                                                                                                                               X                           O                                                                     X X           O X X X X X X O O X X X X X X X X X X X X X X X X X X X                                                                               O   X X                                                                                                   ",
"                                                                                                                                                                                                                                                                                                                                                                                                                                                                                                        X       X X X X         X X         X                       X X         X X                     X         X X X X X X X X X X X X X X X     X X X X X X O O X X X @ @ @ @ + @ @ X X X X X X                                                                                                                                                                                                                                                                                                                                                                                                                                                   X X X X X X X X X X X X X X X X X X X X X X X X X   O O X X X X X   O O X X X X X X X X X O O X X X X X X X X X X X X X X X X X X X X X X X X X X X + @ @ X X @ @ @ @ @ @ X X X X X X   X X X             X X X X X X X X X X X   O   O                           X                                                                                                     ",
"                                                                                                                                                                                                                                                                                                                                                                                                                                                                                                        X O     X X X X         X X       O X   X X X X X X X X   X X         X X X X                   X         X X X X X X X X X X X X X X X X X X X X X X X X X X X @ @ @ @ @ @ @ @ @ @ @ @ X X X X X X X X X X X X     O X                                                                                                                                                                                                                                                                                                                                                                                                 X X X X X X X O     X X X X X X X X X X X X X X X X X X X X X X X X X X X X X X X X X X X X X X X X X X X X X X X X X X X X X X X X X X X X X X X X X X X X X X X X X X + @ @ @ @ X @ @ @ @ @ @ X X X X X X X X X X             X X X X X X X X X X X X X X O   X X X X O X X X         X X                                                                                                   ",
"                                                                                                                                                                                                                                                                                                                                                                                                                                                                X X X O O O O   X X X X X X X O             X X X X X X X       X X                             X X X X   X     X X X       X X         X X X X X X @ @ X X X @ X X X X X                   X X X     X @ X X X @ @ @ @ @ @ @ @ # X O O X @ @ O X X O O O X X X X X X X   X X X     X X O                       X                                                                                                                                         X X X X X X X X             X         X O O O X O O   X O     O X O   X                                             X     X X X X     X X X X                           O O O X X O O X X X X O O X O O O O X X O O O O O O O # # X O X # # # X O O O O O O O O O X X X X X X X X X X X X X X X X X X X X X X X X X X O O X X X O O O O O O @ O @ O @ O O O X O O X X O X # # # # # @ @ X @ X @ X @ @ @ @ X X X X X X X X X X X X X X # @ X X X O O O X O X O O O X O X X X X X X X X X X X X X X X X X X X X X X                 X X                                                               ",
"                                                                                                                                                                                                                                                                                                                                                                                                                      X X       X X X X X X X X       X X X X X O O O O X X O O X X X X X X X X X X X X X X X   X X X X X X X X X X         X X X X X X     X X   X X           X X X       X X         X X X X   X X X     X # X # X X X             X X X X X X     @ # # @ # @ @ @ @ @ @ @ @ # # O O @ # @ # # @ X O O O O O X X X X   X X X     X X X X                             X     X   X   X X X X X                 X X X X X X X X X X   X X   X X                 X X X X X X X X X X X X X X X X     X X X X X X X X X   X X X X X X X X X X X X @ X O O O X X O O O   O O O O X                                 X         X X X X X X X X X X X X X X X                         O O O O X X X X O O O O O O O X X O O X O O O O X O O # # # @ O X # # # X O O O O O O O O O O O X X X X X X X X X X X X X X X X O O O O O O O O O O O O O O O O O O @ @ @ @ X X X @ @ @ X X X X @ @ @ # # # # # # # # # # # # # # # # # @ @ X @ X X X X X X X X # # @ @ # @ O O O O O O O O O O X X X X X X X X X X X X X X X X X X X X X X                                                                                   ",
"                                                                                                                                                                                                                                                                                                                                                                                                    X X X X X X   X X X X X X X X X X X X X X X X X X X X X X X O O O O O O O O O X X O X X X O X X X X X X X   X X X X X X X X X X X   X X X X X X X X X X X X X X X X X X X X X X X X X X X X X X X X X X X X X X X X   X @ # @ # @ X X X X X X X X X X X @ @ X     @ # # # # # # # # # # # # # # # @ # # # # # # # @ @ O O O X X X X X       X X X X X X X X         X X X X       X X     X X X X X X X X X X X X X X X X X X X X X X X X X X X X X X X X X X X X X X X X X X X X X X X X X X X X X X X X X X X X X X X X @ X X X   X X X # X X X X X X # # # X X O   O X X X O O O X X X X X X X X X X   X X X X X X X X X X X X X X X @ @ X X X X X X X X X X X X X X X   X X X X X X X X X X X X O O O X X @ @ @ @ @ @ @ X X X O O O O O O O X # # # @ X X @ # # @ X O O X X X X X X X X X X X X X X X X X X X X X X X X X X X X X X X X X X O O O O X X @ @ O O @ X X @ # 1 1 1 # # # # @ @ @ @ # # 1 1 1 1 5 5 5 5 5 5 # # # : # # X X X X X X X X X # # # # # # # @ X O X X @ @ X X O X X X X X X X X X X X X X X X X X X X       X X                                                                               ",
"                                                                                                                                                                      X X X                     X X X X X                                       X X X X X                       X X X X X X X X                                                                                         X X X X X X X X X X X X X X X X X X X X X X X X X X X @ X X X X X X X X X X X X @ O O O O O X X X X X X # # X X X X X X X X X X X X X X X X X X X X X X X X X X X X X X X X X X X X X X X X X X X X X X X X X X X X X X X X @ @ @ @ @ # # # # @ X X X X X X X @ @ # # # X     X @ X X @ # # # # # # # # 1 # # # # # # # # # # # # # # @ X @ X X X X X X @ X X X X X X O             X X     X X       X X X X X X X X X X X X X X X X X X X X X X X X X X X X X X X X X X X X X X X X X X X X X X X X X X X X X X X X X X X X X X X @ @ X X X X X X X # X X X X X X # # # # O X O X X O O # # # O O O @ X X X X X X X X X X X X X X X X X X X X X @ @ # @ @ X X X X X @ @ X X X X X X X X X X X X X X X O X X X O X X X @ @ @ @ # # # # # @ X X O O O X X X X X # # # X X @ # # # X X X X X X X X X X X X X X X X X X X X X X X X X X X X X X X X X @ @ X X X X X X X X @ X @ X X @ # # 5 5 5 5 5 5 1 1 @ X X X X # # 1 5 5 5 5 5 5 5 5 : # # # # X X X # # X X X # # : 5 1 # # # # @ O X X # # # @ X O X X X X X X X X X X X X X X X X X X X     X X X X X                                                                           ",
"                                                                                                                                                                      X X X X                   X X X X X X X                           X X X X X X X X X X X X   O O   X X X X X X X X X X X X X X X X X X             X                                                       X X X X X X X X X X X X X X @ X @ X X X X @ @ # X X X X X X @ @ X X X X @ @ @ @ @ @ X X X O O X X X X O O X @ # : # X X X X X X X X X X X X X X X X X X X X X X X X X X X X X X X X X X X X X X X X X X X X X X X X X X X X X X X @ # # # # @ X # # # # @ @ @ @ # # # # # # # # @ X X @ @ X X @ w w w w : 5 : : 1 1 # # 1 1 1 1 1 1 1 1 # # # # # # # X @ @ X X X X X X X @ @ X X X X           X X X X         X X X X X X X X X X X X X X X X X X X X X X X X X X X X X X X X @ @ @ @ X X X X X X X X X X X X X X X X X X X X X X X X X X X X X X X X X X X X X X # # # # # # # # # # O O O O # # 1 # @ O O X X X X X X X X X X X X X X X X X X X X X @ @ # # # @ @ X X X @ # @ @ X X X X X X X X X X X X X X O O X X X X # # # # # # # # # # # # # @ X X X X X X X X X # # # X @ # # # X X X @ @ @ @ X X X X X X X X X X X X X X X X X X X X X X @ @ @ @ @ @ @ @ @ @ X X X @ # X X X # # 5 5 5 5 5 5 5 5 5 5 # # # # # # 5 5 5 5 5 5 5 5 5 5 w 5 # X X X X X # # X X X # : 5 5 5 1 # # @ X X X @ # # # # X X X X X X @ @ @ @ X X X X X X X X X X X X X X X X X X X X                                                                       ",
"                                                                                                                                                                X X X X X X X X X X     X X X X X X X X X X X X X X X X X X     X X X X X X X X @ @ @ X X X X X X X X X X X X X X X X X @ @ @ @ X X X X X X X X         X X           X X X X X X O     X X X X       X X X X X X X X X X X X X X X @ X @ @ @ @ # @ X X X # # # @ @ @ @ @ @ @ @ @ @ @ @ @ @ @ # @ @ @ X X X X X @ @ @ @ @ # 1 1 5 # # X X X X X X X X X X X X X X X X X X X X X X X X X X X X X X X X X X X X X X X X X X X X X X X X X X X X X X X # : 5 # @ X # : w : # # # # w w 5 w : # # # # # # # # @ @ # w w w w w w w w 5 5 1 1 1 5 1 1 5 5 5 5 5 5 5 5 5 : # # # # # # X X X @ # 5 5 : # # X X X X X X X X X X X X X   X X X X X X X X X X X X X X X X X X X X X X X X X X X X X X X X @ @ @ @ X X X X X X X X X X X X X X X X X X X X X X X X X X X X X X X X X X X X # # : 5 5 5 # # # # 1 # # @ O @ # # 1 # # X O O X @ @ @ X X X X @ # # @ X X @ @ X X X @ @ @ # # @ @ @ @ X @ @ @ @ @ @ X X @ @ @ X X X X X X X X O X X X @ # # # # # # # # # # 1 1 1 # # @ X X X # X X X # # # # @ # # # @ @ @ # # # # # @ @ @ @ X X X X X X X X X X X X X X X X @ @ @ @ @ @ @ @ # # # # # # # # # # # # # 5 4 4 4 4 4 4 4 4 5 5 5 5 5 5 5 5 4 4 5 5 5 5 5 5 5 5 0 5 # X X X # 5 # # X X # # : : 5 5 1 1 # # @ X # # 5 5 5 # # @ @ @ @ @ @ @ @ @ X X X X X X X X X X X X X X X X X X X X                                                                       ",
"                                                                                                                X                     X X X X X X X         X X X X X X X X X X X X X X X X X X X X X X X X X X X X X X X X X X X X X X X @ @ @ # # @ @ X X X X X X X X X X X X X X X X @ @ @ @ X X X X X X X X X X X X X X X X X X X X X X X X X X X X X X X X X X X X X X X X X X X X X X X X # # # # # # # # # # # 1 1 5 5 5 # # # # # # # # # # # # # # # # @ @ X @ @ # # # # # 1 1 5 5 5 5 5 : # # # X X X X X X X X X X X X X X X X X X X X X X X X X X X X X X X X X X X X X X X X X X X X X X X X X X X X X # 5 w w # # 1 w w w 1 1 w w w w w w w w w w w w w w w 1 1 w w w w w w w w w 5 5 1 1 5 5 5 5 5 5 5 5 5 5 5 5 5 5 5 5 5 5 5 5 # # # 1 0 0 0 5 # # @ X X X X @ @ @ X X # 5 # X X X X X X @ X X X X X X X X X X X @ @ @ @ @ @ @ @ @ @ @ @ @ @ @ @ @ @ @ @ @ @ @ @ @ @ @ @ @ @ @ @ @ @ @ @ @ @ @ @ @ @ @ @ @ @ @ @ @ X X @ # # # 5 5 5 5 5 5 1 1 # 1 1 # @ X # # # # # 1 5 1 # X # X # # X X # # # # # # X X X X @ @ @ @ @ @ # # @ @ @ @ @ @ @ @ @ @ @ @ @ @ @ @ # @ @ @ X X X X @ X X @ # # 1 1 1 5 5 5 5 5 5 5 5 5 1 # @ @ X X # # # 1 5 5 5 # # # # @ @ @ # 1 # # # # # # # # # # # # # # # # # # # # # # @ @ # # # # # # # # # # # # # # # # # # # 5 5 4 0 0 0 0 0 0 0 0 4 4 0 0 0 t 0 0 0 4 4 4 4 4 4 4 4 4 5 1 # # # 1 5 4 1 # # # 5 5 5 5 1 1 1 5 5 5 1 # 5 5 5 5 5 5 5 1 @ @ @ @ @ @ @ @ @ @ @ @ @ @ @ @ X X X @ @ @ @ @ X X X                                                                         ",
"                                                                                                                X X X X X X X X X X X X X X X X X X X     X X X @ @ X X   X X X X X X X X X X X X X X X @ @ @ X # # # X X X X X X X X # # # # # # # # @ X X X X X X X X X X X X X X X @ @ @ # # @ X X X X X X X X X X X X X X X X X X X X X X X X X X X X X X X X X X X X X X X X X X X X X X X # # # # # # # # # # w w 0 0 w 5 1 1 1 1 1 1 1 1 # 1 1 1 1 1 5 5 X X X # # 1 5 5 1 1 5 5 5 5 5 5 # : 5 5 : # X X # # # X # X X X X X X X X X X X X X X X X X X X X X X X X X X X X X X X X X X X X X X X X X X X X @ # 5 0 w 0 w 5 w w w w w w w w w w w w w 0 0 w w w u w w w u w w w w q q q 0 5 5 5 5 5 5 5 5 5 5 5 5 5 5 5 5 4 4 4 4 4 4 4 4 4 5 5 0 t u 5 1 @ @ X X X X X @ # @ X X # w w @ @ @ @ @ @ @ @ @ @ @ @ @ @ @ @ @ # @ # # # # # # # # # # # # # # @ @ @ @ @ @ # @ # @ # # # # # # # # @ # # # # # # # # # # # # # # # @ X @ 1 5 0 0 5 5 1 # # # # 1 1 # @ X X # 5 5 5 5 5 0 0 5 # # # # # # # # # # # # # X X X X @ @ @ @ @ @ @ # @ @ @ @ @ @ @ X @ @ @ @ @ @ @ @ # # # # @ X X X @ X @ # 1 1 1 1 5 5 5 5 5 5 5 5 5 5 1 # # @ @ @ @ # 5 0 0 0 5 # # # # @ @ @ # 5 # # # # # # # # # # # # # # # # 1 1 1 # # # # # # 1 1 1 1 1 1 1 # # # # # # # # # # 5 5 4 0 0 y y y y t y 0 0 0 0 t t y 0 0 4 4 0 0 0 0 0 0 0 0 @ @ @ # # 5 5 0 5 5 5 5 0 0 0 0 1 # 1 5 5 0 5 5 t t 0 0 0 5 5 5 @ @ @ @ @ @ @ @ @ @ @ @ @ @ @ # X X @ @ # # @ @ X X X                                                                         ",
"                                                                                          X X X X X X X X X X X @ X   X X     X X X X X X X X X X X X X X X X # # # X X X X X X X X X X X X X X X X X X X # : # X # # # # X X X # # # # # # # # # # # X X X X # X X X X X X X X X X X @ # 5 # # # X X X X X X X X X X X X X X X X X X X X X X X X X X X X X X X X X X X X X X X X X X # X X # # 5 1 5 5 5 # # 1 1 5 5 0 u 0 5 5 w 5 5 5 5 5 5 4 5 5 5 5 5 5 5 5 @ X # # # 5 5 5 5 4 0 0 0 0 4 5 : 5 0 5 : # X X : 5 : X X : : X X X X X X X X X X X X X X X X X X X X X X X X X X X X X X X X X X X X X X X X X X # 5 0 0 0 w 0 0 w 0 0 0 0 0 0 0 0 0 0 0 0 t t 0 0 0 0 0 0 0 0 u u u u u u u u t s y 4 5 4 7 4 4 4 4 4 4 4 4 4 4 4 4 4 4 4 4 4 6 4 4 4 0 0 y y X X X X X X X X X # # # 5 0 5 X X X X X X X X X # # # # # # # # # # # # # # # # # # # # # # # # # # # # # # # # # # # # # # # # # # # # # # # # # # # # # # # # # # # 5 5 4 0 0 4 0 y 4 # X 5 4 0 5 # # 5 4 5 5 5 5 4 0 y 4 5 # # : : # X # # # # # # # # # # # # # # # # # # # X # # X X # # X X # # X X X X # : 5 : X X X # # # 5 5 5 # # 5 4 5 5 5 4 4 4 4 4 4 1 # # # # # # # 5 5 5 4 y 4 # # # 1 1 # # # 5 # 5 5 5 5 5 5 : 5 5 1 1 1 1 1 1 5 1 1 1 1 1 1 5 # # # # 5 5 5 5 5 5 5 5 1 5 5 5 : ; 5 5 4 8 y y y y y y y y y y y y y y y y y y y y y y y y 4 4 @ 5 4 5 5 4 y y 0 5 # 4 u u 0 0 5 # # 5 y a y 5 4 0 y y y 0 4 4 # # # # # # # # # X X X X X X X # X X # # X X X X   X X X X X   X                                                             ",
"                                                                                        X X X X X X X X X X X X @ X   X X X   X X X X X X X X X X X X X X X @ # X X X X X X X X # # X X X X X X X X X X X # : # 5 : # # X X X X # # # # # # # # # # # X X X X X X X X X X X X @ # # X @ # # # # # # X X X X X X X X X X X X X X X X X X X X X X X X X X X X X X X X X X X X X X X X X # X # # # 5 5 5 5 5 # 1 5 0 0 u u d p u t 0 4 5 5 5 5 4 0 5 5 5 5 5 5 5 5 5 5 5 5 4 4 4 0 5 4 0 0 0 0 4 5 : : : : # # # # 5 5 : # # # # X X X X X X X X # X X # # X X X # X X X X X X X X X X X X X X X X X X X X X X X X X # : 0 0 0 0 0 t t 0 0 0 t t u u u u u u u u u u u u u u u u u p p p p p p p p s a s 7 4 7 y 4 7 7 7 7 7 7 7 7 4 4 4 4 4 4 4 4 6 4 4 y a d y 4 X @ # # X X X X X X # 5 w : @ X # # X X # # # X # # # # # # # # # # # # # # # # # # # # # # # # # # # # # # # # # # # # # # # # # # # # # # # # # # # : : # # # 5 5 4 y 0 0 0 0 0 y 0 4 5 5 4 y t 5 5 5 0 y 4 5 4 4 0 y 0 4 5 : # : : # # # : # # # # # # # # # # # # # # # # # @ # # @ # 5 5 # X X # X X X # 5 5 5 5 # # # : # 5 5 5 # # # 5 4 0 0 4 4 4 4 4 5 t 5 # 5 5 # # # # # 5 5 5 0 4 5 1 1 1 1 # 5 5 5 # # 5 5 5 5 5 5 5 5 5 5 1 1 1 1 5 5 5 5 5 5 5 5 5 5 5 5 5 5 5 5 5 5 5 5 5 5 5 5 3 3 5 4 6 y y y y y y y y y y y y y y y y y y y y y y y y y 6 6 5 0 y 0 0 y u u 0 5 5 0 u u y y y y y y y y y y u y 0 y y 4 5 # # # # # # # # # # # # X X X # # # X X # # X X X X X X X X X X X X O                                                           ",
"                                                                              X         X X X X X X X X X X X X @ X X X X X X X X X X X X X X X @ X X X @ @ # : X X X X X X X X 5 # X X X X # X X X X X X # # # 5 : # X X # # # : : : : : : : : : : : # X X X X X X X X X # # # 0 5 # X X # # # 5 # # X X X # X X X X X X X X X X X X X X X X X X X X X X X X X X X X X X X X X X X # # # # # : 5 5 5 5 5 1 5 t p p p v v v d p t 7 4 4 4 7 y s 4 4 4 4 4 7 7 7 0 0 4 4 4 4 4 4 4 4 0 0 0 0 4 4 5 : # X # : 5 5 0 5 5 0 5 # # # # # # # # # # # # # # # # # # # X X X X X X X X # # # # X X X X X X X X X X X X X # # 5 0 r u u p p p p p p p p p p p p d d d d v v v v v v v v v v v v v v v v x x x 8 8 y s 8 s s s y 8 8 8 8 8 8 8 8 8 8 y y 8 4 7 s M M y 5 X # # # @ @ # 5 5 5 t v d 5 5 0 5 # # # # # # # # # # # # # # # # # # # # # # # # # # # # # # # # # # # # # # # # # # # # # # # # # # # # # # # # : 5 5 5 # # # # 5 p v p p t t y t t 5 1 5 7 t y 6 8 y a i 4 5 4 y i y 4 5 5 5 5 5 5 # 5 4 5 # 5 5 5 5 5 5 5 5 # # # # # # # # # # # # 5 0 0 5 # # # # # : 5 0 5 5 5 # 5 w 5 # 5 5 1 # # 5 4 0 u 0 4 4 0 y 0 4 4 5 # # # # # # @ # # # 5 4 5 5 # 1 5 5 5 5 5 5 5 5 5 5 5 5 5 5 5 5 5 5 5 5 1 1 5 5 5 5 5 5 5 5 5 5 5 5 5 5 5 5 5 5 5 5 5 5 5 5 3 5 5 4 y i i s i i i i i i i i i i i i i i i i y i i y i y y y t p p p p v p t t 4 t p p p p p u a a y 4 5 0 a d u 0 y y 0 5 @ # # # # # # # # # # # # # # X # # # # 5 : # X X X X X X X X X X O O                                                           ",
"                                                                          X   X X X   X X X X X X X X X X X @ @ X X X X X X X X X X X X X @ @ @ @ X X @ # # : w X X X # # # : : 5 # X X X X X X X # # # # # # # # X X X # # 5 5 5 5 5 5 5 5 5 5 w w w : # # # X # # # # # # : 5 w 5 # X X X # # 5 : # # # # # # # # # # X # X X X X X X # # # X X X X X X X X X X X X X X X X X X # # # # # 5 5 t 5 5 5 5 5 t p v v v v v v d t 7 7 7 7 7 8 s s y y y y t 7 7 7 y 0 0 4 4 4 4 0 4 0 0 0 0 0 0 4 0 : # X # 5 0 r u 0 r k d : # 5 # # # # # # # # # # # # # # # # # # # # # # # # # # # # # # # # X X X X X X X X X # # : 0 u d d v v d d d d p v v v v v v v v v v v M M M v M M v v v v v v v v x M m s s s s y s s s s s s s s s s s s s s s s s y s x v a 5 # # # # # X # 5 u M M M M M v v M w 5 # # # : : : # # # # # # # # # # # # # # # # # # # # # # # # # # # # # # # # # # # # # # # # # # # # # # # # # 5 0 w # # # : 1 5 p v v p p p p t 5 1 1 5 5 7 a i i a j a y 4 r i a i 4 3 3 5 5 5 5 5 0 u 0 5 5 5 5 5 5 5 5 5 # # : : : # # # : # # w r u 0 : : : # # : 5 0 r 5 5 # # 5 0 w # 5 5 1 5 5 4 y y y 0 4 y u u 0 4 5 # # # # # # 5 # # 5 1 # 5 5 5 5 5 5 5 5 5 5 5 5 5 5 5 5 5 5 5 5 5 5 5 5 5 5 5 5 5 5 5 5 5 5 5 5 5 5 5 5 5 5 5 5 5 5 5 5 5 5 5 3 5 5 6 i a a a a a a a a a a a a a a a a a a a a a a a a a i i p p p p p v t 5 4 t p v p p p a y u a y 4 5 0 a u u y u y y 5 # # : 5 : # # # # # # # # # # # # # # 5 5 : # X X X X X X X X X X X O                                                           ",
"                                                                            X X X X X X X X X @ X X X X X @ @ @ @ X X X X @ @ X X X X @ @ @ @ @ @ @ @ @ # w w w X # # : 5 5 5 5 5 : # X X # # # X : 5 : : 5 5 : # # # : 5 5 5 5 5 5 5 5 5 5 5 5 5 0 5 5 : # # # # # # # # # : 5 # # # X X X # # 5 5 # # # # # X # # # # # # # # # # # # # # # # # # # # # # # # # # # # # # # # # # : 5 5 5 5 w t 5 5 t t t s v M U M v v M a t 7 7 7 7 8 y y s x x x s s 8 8 8 y y y y y y y y y y y y y r y y r 5 5 5 5 r r r r 4 i M M 5 ; 5 : : # # # # # # : : # # # # # # # # # # # # # # # # # # # # # # # # # # # # # # # # : : 0 d M k M v v v v v v v v v v v M M M M M M M M M M M M M M M M M M M M M M m x s s s 8 s s s s x x x x s 8 s 8 s s s s x m M x s 4 < # 5 # # # # 5 u M M Y P M M Y P u 5 5 # # # : : # : : : : : : : : : : : : : : : : : : : : : : : : : : : : : : : : : : : : : : : : : : : : : : : : : 5 5 5 # # # 5 4 y x x a a a x y 4 5 3 5 4 7 s M a a a a a s y y a M j y 5 5 5 5 5 5 5 y a y 5 5 5 5 5 5 5 5 5 : : : : : : : : : : 5 r i u 5 # : : : 5 5 r u u 5 : # # : 5 5 # # ; 5 4 y i i y y y y y a i 4 5 5 # # 5 5 5 5 4 4 4 5 ; ; # ; 3 5 5 5 5 5 5 5 5 5 5 5 5 5 5 5 5 5 5 5 5 5 5 5 5 4 4 4 4 4 4 4 4 4 4 4 4 4 4 4 4 5 5 5 5 5 5 5 5 5 5 4 8 i a a a j j j j j a j j j j j j j j j j a j j a j j j a a a s s a x t 1 4 s x x a s a a a a a a i y y y y a a a y 4 5 5 # 5 0 5 : : : # : : # # # # # # # 5 4 5 : # # X # # # # X @ X X X X X         X                                               ",
"                                                                            X X X X X X X @ @ @ @ @ @ @ X X @ @ X @ X X X # # @ @ X @ @ @ @ @ @ @ @ @ @ : w w : # # : 5 5 5 5 0 5 5 # # # # : # X : 0 5 5 5 5 5 5 5 0 0 0 0 5 5 5 5 5 5 5 5 5 5 5 0 0 5 : # # # # X X X X # # # X X # # X # # # 0 5 : # # # # # # # # # # # # # # # # # # # # # # # # # # # # # : : # : # # : # # : 5 5 5 5 0 r t t t t s t p v M U U M M M v y y 8 8 y y s s s m m x a s s y 8 y y y y i i y y y y y y i i y y i r r r i i y r y r j I M 4 ; 5 : : : : : : : : : : : : : : : : : : : : : : : : : : : : : : : : # # # # : : : : # : : : r M P M M M M M M v v v M M M M M M M M M M M M M M M M M M M M M M M M M M M x s x x s x x x x x x m x m m m m m m m m m M M s 4 3 < 3 5 # # 1 4 u M P M Y Y M M T M 1 5 : # # # : : # : : : : : : : : : : : : : : : : : : : : : : : : : : : : : : : : 5 5 5 5 5 5 : : 5 5 5 5 5 5 5 5 : 5 5 5 : : 5 w x x x x x x x x 5 5 5 5 4 y x M M M j a j j j a m M M M i 4 4 5 5 5 5 4 y a 6 ; 5 5 5 5 5 5 5 5 5 5 5 5 5 5 5 5 : : 5 r u 0 5 : : : 5 0 u i i i 5 5 : # # 5 : # # 5 4 i a a a a a a a a y 4 5 5 5 ; 5 5 5 5 4 y a 6 5 3 5 5 3 5 5 5 5 5 5 5 4 4 5 5 4 4 4 4 4 4 4 4 4 4 4 4 4 4 4 4 4 4 4 4 4 4 4 4 4 4 4 4 4 4 5 5 5 5 5 5 5 5 5 4 6 i j j j a M M M M M M M M M M M M M M M M m j M M M M m m M M x a x v s 4 7 a M x a x x a j a a a a a 4 5 y a M a 4 5 5 4 # r u 0 : 5 5 : : : : : : : # # # 5 0 5 : # # # # # # # X @ X X X X         X X                                               ",
"                                                                          X X X X X X X @ @ @ @ @ @ @ @ @ X X X X @ @ X X # # # @ @ @ @ @ # # # @ # @ @ : w w # # 5 5 5 0 0 0 0 5 5 : # # # : # X 5 r 0 0 0 r 0 r r r r 0 0 0 0 0 0 0 0 0 0 0 0 0 r r 0 5 : : # # # # # # # # # X # # # # # # 5 r 5 5 : : : # # # # # # # # # # # # # # # # # # # # # # # # # # : : : : : : : : : 5 5 5 5 0 r u y t y p p y p v M U Y U U Y M s s s s s s s s s m m x a a s s s y y a a a a i y a a a a a a a a i i i i i i i i a k I T M r : : 5 : : : : : : : : : : : : : : : 5 : : : : : : : : : : : : : : : : : : : : : : : # : : 5 u I Y P U U M M M M M M M U U U U U U U U U U U U U U U U U U U U U U C C C B m x m m x m m m m m m m m m m m m m m m m s s y 7 5 3 3 3 # 1 5 t M M Y Y P T Y M d M u # 5 : : : : 5 : : : : : : : : : : : : : : : : : : : : 5 5 5 5 5 5 5 5 5 5 : : : 5 5 5 5 5 5 5 5 5 5 5 5 5 5 5 5 5 : 5 0 r r r 0 5 a a s x M M M a 5 5 4 4 4 8 x M M M M M M M M M M M j s 8 4 4 4 y y i i a a y 5 4 4 4 4 4 4 4 4 5 5 5 5 5 5 5 5 : : 5 0 0 5 5 r 5 0 r u d d i r 0 r w : # : : # 5 6 a a a a a a a j a i 4 4 6 y 8 8 8 y y 6 y j M y 3 3 4 4 5 5 5 5 5 4 4 4 4 4 5 5 4 4 4 4 4 4 4 4 4 4 4 5 4 5 4 4 4 4 4 4 4 4 4 4 4 4 4 4 4 4 4 4 4 4 4 4 4 4 4 6 y a M M M m M M M M M M M M M M M M M M M M M M M M M M M M M M M M M M v s a M M x x M M x M j j M k a y 4 y i i y 4 5 5 4 : u d r 5 5 5 : : : : : : : : : : 5 0 5 # : 5 : : : # # # X X X X X       X X X                                               ",
"                                                                X         X X X X X X X @ @ @ @ # @ @ @ @ X X X X @ @ X @ # : # @ X @ X # # # # @ # # @ : 0 w # 5 0 0 r u u y r 5 # # # # # # # X 5 u r 0 r y r u r 0 5 4 0 u u u r u r y r y r u i a u y 0 4 5 5 : 5 : 5 : 1 : # : 1 # @ # 5 5 u 0 5 5 : : : # # # # : : : # # # # : : : # # # # # : : : : # # : : 5 : 5 : 5 : 5 5 4 6 0 r u a s y s a a s s x x C Y Y Y Y C a a a a a a a s s a x a a a a a a j M M M M M j a a a a a a a j j i i a i i y i j M I W W I i 5 : 5 5 5 5 5 5 5 5 5 5 5 5 5 5 5 5 5 5 : : : : : : : : : : : : : : : : : : : 5 5 5 # 5 5 5 a Y T P U Y U C U C U C U Y U U U Y U U U U U U U U U U U U Y Y U Y U Y C C C m m m m m m m m M M M M M m m m m m m m m 4 3 3 3 3 3 3 < # # 4 d Y T T Y T Y M u 5 # 5 5 5 : : 5 5 5 5 : 5 5 5 5 : 5 5 5 5 5 5 5 5 5 5 5 5 5 5 5 5 5 5 5 5 5 5 5 5 5 5 5 5 5 5 5 5 5 5 5 5 5 5 5 5 5 5 5 : 5 r d k d r 5 7 4 7 s M C M x 5 4 y 7 5 5 y x M M M M M M M M M M y 4 5 5 5 4 j M M M M M i 5 4 4 4 4 4 4 4 4 4 5 5 5 5 5 5 5 5 : 5 5 5 : 0 k d i d k k a r 5 u i r 5 # : 5 5 y s j j a y a j a a a 8 4 4 j B M M M M M M M C B y ; 3 4 6 4 4 5 4 4 4 4 4 4 4 4 4 4 4 4 4 4 4 4 4 7 7 7 4 4 4 7 7 7 7 7 7 7 7 4 4 4 4 4 4 4 6 6 6 4 4 4 4 4 4 y y a M M M M M M M M M M M M M M M M M M M M M M M M M M M M M M M M M M M M x x M M x v M M M M M M M M M M M 6 4 4 5 4 4 4 4 5 i M y 5 5 4 : 5 5 5 : 5 : 5 : : 0 r 5 # : 5 5 : : # # X X X X X X O   O O X X                                               ",
"                                                                X X O O X O O O O O X X X X X X 1 1 # # @ @ X X @ O X 1 5 1 # # X # X X # 5 : # # # # # : u u 5 y y s y s y s i 4 y s 6 5 # < 4 5 # < 6 s i y y s y s i s i s i s i s i s i s i s a a i 7 5 5 5 5 3 1 3 5 4 5 ; @ 4 p 4 1 5 t d a y 4 5 5 5 5 5 5 5 5 5 5 5 # # 5 # # # 5 5 5 5 5 5 5 5 5 5 5 5 5 5 5 5 5 5 5 5 7 4 7 4 y y a a x a a a x x x x M C Y C M M M M x x x x x M m m M m x x m m M B M B C M m a m M j j M M M M M M a M M j a a a a a B Y ^ T y y 4 5 5 4 4 4 4 5 5 4 4 4 4 4 4 4 4 4 4 4 5 5 5 5 5 5 5 5 5 5 5 5 5 5 5 5 5 5 5 5 5 5 5 7 5 a Q Y Y Y Y Y Y Y C C C C C Y Y Y Y Y Y Y Y Y Y Y Y Y Y Y Y Y Y Y Y Y Y T Y Y Y C M m M M M M M M M M M M m B B B m 8 3 3 8 m m m m B B C U U U Y Y T T Q Y Q Q M # @ 0 4 5 ; 5 4 5 5 4 5 5 5 5 5 5 5 5 4 4 4 4 4 4 4 4 4 4 4 4 4 4 4 4 4 4 4 4 4 4 4 4 4 4 4 4 4 4 4 4 4 4 4 4 4 4 4 4 4 4 a 6 M M ~ ~ y 8 8 8 y a M C M s 8 7 8 8 s a C C C M M C C C C M x 7 y M C M M C 8 8 m 8 7 5 4 7 7 7 7 7 4 4 4 8 M m ; 5 i 5 4 5 5 6 4 5 6 M j M M m j j i 4 4 6 4 5 4 y a a m m m m m m m m M m m M C C C C M B B C C C C A B 8 4 6 6 4 4 4 4 4 4 4 4 4 4 4 4 4 4 4 4 6 6 6 4 4 8 8 6 6 y y 6 6 6 6 6 6 6 6 6 6 6 6 6 6 6 6 8 6 6 6 6 4 4 4 y a M M C C C C C C C C C C C C M M M M C C B B B C C C M M M M C C M M M M M M M M M M M M M M Y C x s x M C M s 8 4 4 4 8 8 y M j 7 5 4 4 7 4 5 6 M 4 1 4 1 5 5 4 y y 0 4 4 0 5 5 5 # # @ # X X X X         X                                               ",
"                                                                X O X X X X O O O O X @ X X X X # # # @ @ @ @ @ # X X 1 5 1 # # # # # # : 5 5 # # : # : 5 u u 0 s s s s s p p a s s s y 5 5 < 5 5 # < 4 y s s a s s s s s s s s a a a a a a a a a a s y 4 5 5 5 3 5 5 5 5 5 5 5 3 7 s y 5 4 s x p y 4 5 5 5 5 5 5 5 5 5 5 5 5 5 5 5 5 5 5 5 5 5 5 5 5 5 5 5 5 5 5 5 5 5 5 5 4 4 y 7 8 8 y s x m m m m m m m m m M C Y M m m m m M M M M v M M m m m x m m M C C A C C B M M M M M M M M M M M M M M M M M M M M a B Y ^ ~ i 6 5 5 4 4 4 4 4 4 5 4 4 4 4 4 4 4 4 4 4 4 4 4 5 5 5 5 5 5 5 5 5 5 5 4 4 4 4 4 4 4 4 5 5 y 7 x ~ Q Q Q Q Q Q Y Y Y Y Y Y Y Q Q Q Q Q Q Q Q Q Q Q Q Q Q Q Q Q Q Q Q Q Q T T E Y B m B B B B B B B M B C B B B B m 8 3 3 j B B A E ( ( ~ ! _ _ _ _ ^ _ ^ Q ! ~ Y s 5 5 5 4 4 4 5 5 4 4 4 4 4 4 4 4 4 4 4 4 4 4 4 4 4 4 4 4 4 4 4 4 4 4 4 4 4 4 4 4 4 4 4 4 4 4 4 4 4 4 4 4 4 4 4 4 4 4 4 4 a y Y Y ] ] 4 4 5 4 s M C Y Y 4 < s y @ 5 Y C C C C Y Y Y Y C C M s a C Y M M C 8 8 s 8 8 8 4 7 4 4 4 4 4 4 y i M M 4 4 y 5 4 5 4 8 4 3 8 M M M m M M M i 4 5 4 4 4 8 a M M m m m m m m m m m m M C Y Y Y C C A A A A A A A C j 6 3 4 4 4 y 4 4 4 4 4 4 4 4 4 4 4 6 6 6 6 y 8 8 8 8 y y y y y y y y y y y y 8 8 8 8 8 8 8 8 y 8 8 8 8 8 6 6 s x M C C C C C C C C C C C C C C C C C C C C C C C C C C C C C C C C M M M M M C C C C C C C C C M m s s M C C 8 8 7 4 4 4 4 7 M x 8 4 5 4 5 5 4 s M 5 1 5 1 5 4 t u u y 0 0 0 5 5 5 # # # # # X X X         X                                               ",
"                                                            X X O O X X O X X X O O @ # @ @ @ @ # @ X X @ @ # 1 1 # 1 5 0 5 # 1 # # : 5 0 r w : : 5 5 5 r i i u a a a a a a a a x x a s 7 5 5 < 5 < < 5 7 y s m a a x x x x a a x x x x x x x x x x s 7 5 5 5 5 < 5 4 5 5 5 4 y y a x s s s a x y y y 0 5 5 5 5 5 5 5 5 5 5 5 5 5 5 5 5 5 5 5 5 4 4 4 4 4 4 4 4 5 5 5 5 4 4 4 4 s y 8 8 s a m M m m m M M M M M M C C M m M M M M M M M M M M M m m m m B C A A ~ A C C C C M m C M M M M M M M M M M M M M M M M C B ^ T y 8 5 4 4 4 6 6 4 4 4 4 4 4 4 4 4 4 4 4 4 4 4 4 4 4 4 4 4 4 4 4 4 4 4 4 4 4 4 4 4 4 4 4 5 s 7 M ^ ^ ^ ^ ^ ^ ^ Q Q Q Y Q Q ~ ^ ^ ^ ^ ^ ^ ^ ^ ^ ^ ^ ^ ^ ^ ^ ^ ^ ^ ^ ^ ^ ^ ! ~ ^ ~ C C A A A A A A C C C A C C A C C m s m C A A C Y ~ ( _ _ _ ^ ^ _ ^ _ ^ _ ^ ^ ^ Y v 7 5 y y 4 5 4 4 4 4 4 4 4 4 4 4 4 4 4 4 4 4 4 4 4 4 4 4 4 4 4 4 4 4 4 4 4 4 4 4 4 6 6 6 4 6 6 4 4 4 4 4 4 4 6 6 6 6 5 i y Y Y ^ ^ Y M a a M M M x Y ^ ~ x 8 M Q Q C C C C C C C C Y Y C m M Y Y C C Y 8 8 8 8 a M m x s y 7 7 8 y m M C M y 6 8 5 4 4 6 8 4 5 y M B M m M Y M s 4 4 y i i a M M M M M M M M M M M m M C ~ ~ ~ Y C Y Y ~ ~ A A A A D m 8 7 4 4 7 y 4 4 4 6 4 6 6 6 6 6 6 y y y y y y y 8 8 y y y y y y y y y y y y y y y y y y y y y y y y i y y y s m M C Y Y C Y Y Y A A A A A A C C C C C C C C C C C C C C C C C C C C C C C C C C C C C C C C M C M m s s m M 8 s m m m s s m C M m s 7 7 7 7 s a M 7 1 5 1 t y y a u y 0 0 0 0 5 5 1 # # # # X X X X X         X                                           ",
"                                                            X X O O O O X X X O @ @ # # # # # # @ X X X @ # 5 5 0 5 5 t t 5 5 5 # : 5 0 u i r : : 5 5 0 i d d i a a a a x x x x M x x x a s 7 5 4 5 5 7 7 7 s x x x x x x x x x x x x x x m x x M M a y 4 5 5 4 5 5 4 4 4 7 p x x m m x x M m a y y u y 5 5 5 4 4 4 4 4 4 5 5 5 4 4 4 4 4 4 4 4 4 4 4 4 4 4 4 4 5 5 5 7 4 4 4 4 s s y y s x M M M M M M M M M M M M C M M M M C B M M B C M M B B B B C A A Q ~ E A C C C C C B M M M M M M C C B M M M B B M M Y C M T Y y s i 6 6 6 y y 6 6 6 6 6 6 6 6 6 6 6 0 0 0 0 0 0 4 4 0 0 0 0 0 0 0 4 4 4 4 4 4 4 4 4 4 4 s y M _ ( ^ ( ( ( ^ ^ ^ ~ Q ^ ^ ^ ( ( _ _ _ _ _ ^ ^ _ _ _ _ _ _ _ _ _ ^ _ _ ^ ^ ^ ( ~ A C A A A A A A A A A A A A A Y Y A A A Y Y A C C C A _ _ _ ^ ^ _ ^ _ ^ ] ] _ _ _ T v 6 4 6 y 4 4 4 y 4 4 4 4 4 4 4 4 4 4 4 4 4 4 4 4 4 4 4 6 4 4 4 4 4 4 4 4 4 4 4 4 6 6 6 6 6 6 6 6 y y y y y y 8 y y 4 a a Y M T Y *.+.^ T C M a y a :.i.M y ] *.Y ~ E Y Y Y C C Y Y Y Y C C Y T Y C Y s 8 8 8 M Y Y C M a s y s a Y M M M y 6 8 8 i 6 4 6 6 4 y m M M M M M B M y M M M M M M M M M M M M M M M M M C Y ~ ( ~ Y C Y E ~ H D D D D ~ D C m s 8 8 8 6 6 6 6 y y y y y y y y y y y y y y y y y i y i a a a a a a a a s s s s s s s s s s s s i i i i a M C Y Y Y Y Y Y Y Y Y Y Y Y Y Y Y Y Y Y Y Y Y Y Y Y Y Y Y Y Y Y Y C C C C C C Y Y Y Y Y Y Y Y C Y C M m s s 8 s m C Y A C C Y Y Y M x 8 8 y a M M C 7 1 5 5 t a a a a u y y 0 0 0 5 5 1 # # # X X X X X X                                                   ",
"                                                                O O O O O X X O @ # # # 1 1 1 1 # # # # # 5 4 0 0 4 0 y y 5 5 5 # : 5 r i a 6 : : 5 4 i a j a a x x x x m m m m M m m m M M s 8 4 5 4 y s s a m M M M M M M M M M M M M M M M M M M m s 8 4 4 4 4 4 4 7 s m M M M M M m M M M s y y y y 4 5 5 4 4 4 4 4 4 4 4 4 4 4 4 4 4 4 4 4 4 4 4 4 4 4 4 4 4 4 7 7 7 7 7 7 s s s s x m M B M M M B B C B C M M M C M M M M C m M C C C C A Y A G G ~ H ~ H A A A Z C C A A m M C A Y Y Y C Y M M B C B M C C C B ^ ~ j j j y y 8 8 y y y y 8 8 8 8 8 8 8 8 y y y y 6 6 6 6 4 4 4 4 6 6 6 4 6 6 6 6 6 6 8 8 4 4 s y C ] _ _ _ _ _ _ ( ( ^ ^ ^ ( ( _ _ _ _ _ _ _ _ _ _ _ _ _ _ _ _ _ _ _ _ _ _ ^ ^ ( ~ Y A A D D D A A A A A A A A E ~ ~ ~ ~ A A E E A A ~ ~ ] ] ] ] ] ] ] ] ^ ] ] ' _ ] ] ~ M 4 5 8 y 4 5 y 6 6 6 6 6 6 6 6 6 6 6 6 6 6 6 6 6 6 6 6 6 6 6 6 6 6 4 4 4 4 6 4 8 8 8 8 8 8 8 8 y y y y y y y y a y M M E M T Y i.,.*.' ~ C C C Y &.i.*.] &.*.&.;...] ' ( Y T ( Y ~ Y Y Y ~ ~ Y A ~ s 8 s s C ~ M M a y 7 y s a E C j s i 6 8 m M i 4 4 8 i i i s C C s s B C j B C Y C B B B M B B B B M M M M C C Y Y Y Y C C A A E H D D H H H / ~ C M M m 8 8 8 y y y y y y y y i i i i i i y y i i i s s s a a a a a a a a a a a a a a a a a a a a a a s s m M Y Q ~ ~ ~ ~ ~ ~ ~ ~ ~ ~ ~ ~ ~ ~ ~ ~ ~ ~ ~ ~ ~ ~ ~ ~ ~ ~ ~ ~ ~ Y Y Y Y Y Y Y Y Y Y Y Y Y Y Y ~ ~ Y C C M s 3 s M Y ~ Y Y Y Y C B m 8 4 4 8 s C M C s 5 4 5 p M j a a i i y y 0 0 5 5 5 1 # 1 X X X X X X     X X                                           ",
"                                                                O O O O X O O O # # # # 1 1 1 1 5 5 # 5 5 5 0 y 0 4 0 y 0 5 # 5 : 5 6 i j j r 5 : 5 r a k k j M m m m m M M M M M M M M M M M m 7 4 4 s M M M M M M M M M M M M M M M M M M M M M M M m s 7 7 4 y 8 4 y m M M M M M M M M C M a y y y 6 4 4 4 4 4 4 4 4 4 4 4 4 4 4 4 4 4 4 4 4 4 4 4 4 4 4 4 4 t t 7 7 7 7 7 7 s s a x m M B C C C C C C C C C C C C Y Y C C C Q C B A A Z A ~ ~ ~ ~ ~ / / ~ ~ A A A A A D H / C A ~ ~ ~ ~ A C Y C B Y Y M C E Y E ^ *.] M j j i i y y y y i i y y y y y y y y y y y y y y y y 6 6 6 6 6 6 6 6 6 6 6 4 6 6 8 8 4 4 a s C ] ] ] ] ] ] ' ' _ _ ^ ( _ _ ' ' ' ] ' ' ' ' ' ] ] ] ] ] ] ' ' ' ' ] ] ] ' ' ' ( E D D D D D D D D D D ~ H ~ H D D D D ~ D ~ ~ ~ H ~ ( ] ] ] ] ] ] ] ] ' ] +.] ] +.+.] ~ m 4 8 y 4 4 8 6 6 6 6 6 6 6 6 8 8 8 8 8 8 8 8 8 8 8 8 8 8 8 8 8 8 8 8 8 8 8 8 y y y y y y y y y y y y y y y y y 4 M M ~ C ^ ' g.i.,.&.( Y ~ ( ' &.,.h.g.,.p.g.i.,.*.*.] ~ ~ ( ~ ~ ~ ~ ~ ~ ~ ~ ~ ~ s s m s C ~ s s y 8 y s a m Y B i i j i 8 B Y M 8 6 8 i i 8 8 B Y s s C Y B B C Y C C C C M C C C C C C C C C C C C C C C A A D ~ ~ H H H / D / / ~ ~ ( Y s y y y y y i i i i i i s i i s s s s s s a a a a j j j j a a a a a a a a a a a a a a a a a a a a m M Y ~ ( ( ^ ~ ~ ~ ~ ~ ~ ~ ~ ~ ~ ~ ~ ~ ~ ~ ~ ~ ~ ~ ~ ~ ~ ~ ~ ~ ~ ~ ~ ~ ~ ~ ~ ~ ~ ~ ~ ~ ~ ~ ~ ~ ~ ~ ~ ~ ~ ~ M 8 C Y ~ ~ ~ Y Y Y C M s 8 4 7 s a C M C s 5 4 5 a M j a a a a u y t 0 w 5 5 1 1 # X X X X X X                                                   ",
"                                                                O O O X O O @ @ # # # 1 5 5 5 5 4 5 5 4 4 0 y y y y u u 0 5 5 5 4 8 s a M M i 4 5 5 y M M M M M M M M M M M M M M M M M M M M M m 8 4 s M C C M M M M M M M M M M M M M M M M M C M m s 8 7 7 8 m m m m M B M M M C C C C C M m a i 6 4 4 4 4 4 4 4 4 4 4 4 4 4 4 4 4 4 4 4 4 4 6 6 6 6 6 6 6 6 7 7 7 7 y y 8 8 x x m M B C C C C C C C A A A A A C ~ ( ' ( ( ' ( G Z A A A H ` ) ` ` ) ` ~ / / / H D H ~ ` ` ` ~ / ` ` ` ~ D A ~ A A ~ Y C ~ ' ] &.&.i.&.M M M a s i i i i s a y y y y y y y y y y y y y y y y y y y y y y y y 8 8 8 8 8 8 8 8 7 7 m a Y +.] +.+.] ] ] ] ' ' _ _ _ ' ' ] ] ] ] ] ] ] ] ] ] ] ] ] ] ] ] ] ] ] ] ] ] ] ] ( ~ H H ~ ~ ~ ~ ~ ~ ~ ~ ~ / / ~ ~ H ~ H ~ ~ ~ / ~ H H / ] ] ] ] ] ] ] ] +.*.+.+.&.&.*.&.] ^ M 8 4 y i 6 8 8 8 8 8 8 8 8 y y y y y y y y 8 y y y y y y y 8 8 y y y y y y i y y y y y y y i i i i i i i i y 4 m M E Y ..i.h.l.,.&.( ~ ~ ~ Y ( ' ' ] >.i.,.i.,.i.i.;.( ~ ~ ~ ~ ~ ~ ~ ~ ~ ~ ~ ~ m 8 m s M M s s s a x x m m M m 8 m A m 8 C ~ Y M m 8 8 8 s 8 m m M C A Y Y C A Y A A Y Y A A A A A A A A A C A A C C A E ~ ~ / ` ` / / / / H ` ` / ( ' ~ m y i i i i s s s s s s a a a a a a a a a a a a a j a a a a a a a j j j j j j j j j j j j j s s s m C ~ ( ( ( ( ~ ( ( ( ( ( ( ` ` ( ( ( ( ( ( ( ( ` ( ( ( ( ( ( ( ( ( ( ( ( ( ~ ~ ~ ~ ~ ~ ~ ~ ~ ~ ~ ~ ~ ~ ~ ( ~ C ~ ~ ~ ~ ~ ~ Y Y ~ C s 8 8 s M M C M C a 5 4 5 x M j a a a a u y y t 0 4 5 5 1 1 X X X X X X X                                                 ",
"                                                                O O X X O @ @ @ # # # 5 5 5 5 5 0 0 0 0 0 y y y a a a d u 4 5 4 8 i a m M M a 4 4 4 s M B M M B M M C C C C C C M C C C M M M B Y m 8 s M C M M M M M B B B M M C C C C C C C C C C m 8 7 4 7 8 M C Y Y C C C C C C Y C C C C M a i 4 4 4 y 6 4 6 6 6 6 6 6 6 6 6 6 6 6 6 6 6 6 y y y y y y y y 7 7 7 t y y 8 s m m M C C Y Y Y A A A A A Y Y Y A A ~ &.>.>.,.,.' ~ G ~ H A H ( ` ` ` ` ` ` ` ` | ` H H ` | ` / ' ' ' ' ` / H D ~ E ~ ~ ~ A ( *.i.i.,.g.&.m M Y a a s i i s a a i i i i i i i i i i i y y y y y y y y y y y y y y y y y y y 8 8 8 8 m x T &.+.&.+.+.+.+.+.+.] ' ' ' ] ] ] ] ] ] +.+.+.+.+.+.+.+.+.+.+.+.+.+.+.+.&.] ] ] ' / ~ / / / / / / / / / / / ` ` / / / ` ` ~ / ` ` / / ' ;.;.*.&.&.&.&.&.:.*.+.*.*.*.&.&.*.:.^ 8 ; a M 4 y y y y y 8 8 8 y y y y y y y y 8 y y y y y y y y y y y y y y y y y y y y y y y s s s s s s s s m i M M ~ ~ i.V.b.l.>.] ( ~ ( ( ( ( ~ Y ( >.g.l.g.g.l.h.i.' ~ ~ ( ~ ( ( ~ ~ ~ ( ~ ~ m 8 m 8 s s s s x x x a s s s s 8 C ( C 8 C ~ ~ Y m 8 7 8 m m 8 s Y ~ Y A ~ ~ ~ ~ ~ Y ~ ~ Y Y Q E ~ Y Y Y Y Y ~ ~ ~ ~ ~ ( ' ` ` ' ` ` ` ` ` ` | ' / ' &.~ 8 i i i s s s s s a a a a a a a a a a a a a a j j a a j a a a a a j j j j j j j j j j j j j s s s M C ~ ( ( ( ( ~ ( ( ( ( ( ` ` ` ( ( ( ( ( ( ( ( ( ( ( ( ( ( ( ( ( ( ( ( ( ( ( ( ( ( ( ( ( ( ( ( ~ ( ( ~ ~ ( ( ( ( ~ ~ ~ ~ ~ ~ Y ~ C s 8 8 m C C C M C a 4 4 5 x M j a a a a a u y y 0 5 5 5 5 5 X X # X X X X                                                 ",
"                                                                X O O X @ # # # 1 1 5 5 5 4 4 4 4 4 6 y y y i i y a a i 4 5 4 y m m M M M M M M s 8 8 M Y C B C C C C C C C C C C C C C C C C C B B C C C C C C C C C C A C A C A A A A A A C A A C m 8 m C C M C C C C C C A A C C C A A A C M M a 8 y y y 8 y y y y y y y y y 8 8 y y y y y y y y y y y y y y s s s s s s s s m M m C A A ~ Y ~ C Y Y ~ C C *.*.;.&.' ~ ~ &.g.>.;.( H ' ;.&.&.' | @.@.@.' ` / @.` / } } ` ` @.@.@.| } | } ` J D ~ ~ C ~ >.>.g.g.,.g.g.,.M C C M j a a j j j a a a a a a a j j a a a a s s s s s s s s s s s s i i i i i i s s s 8 m m Q *.&.*.*.*.*.*.*.&.+.] ] ] ] +.&.*.*.&.*.*.*.*.&.*.&.&.&.&.&.&.*.*.*.*.*.*.*.;.O.` / / ` ` ` ` ` ` ` ` ` ` / / / ` ` ` ` ` ` / / / ` ` ' ;.,.-.;.;.*.*.&.T M M T C M :.-.-.^ i 4 y y i i i i i i i i i i i i i i i i i s s s s i i i i i i i i i i i i a a a a a a a a i i a a a a a a M y M T i.h.b.h.*.' ' ] ( ( ' ( ( Y C m m &.c.z.g.,.&.( ( ( ~ ~ ~ ~ ( ( ( ( ' ' ~ m m m 8 m ~ ~ M m m m x m m m m m ~ ( ~ m m M ~ ( ~ Q Y A A ~ C A C ~ ~ A ~ ~ ~ ~ ~ ~ ~ ~ ~ ~ ~ ~ ~ ~ ~ Y Y ~ Y ~ ] ;.] &.*.;.@.| ` ` } } } } ' ` | @.| @.~ m s a j m j a j j j j j j j j j j j j j j j j m m m m j j j j j j m m m m j j j m j j j j m m m m C C Y ( ' ( ( ( ( ' ' ' ' ' ' ' ' ' ' | | ' ' ' ' ' ' ' ' ' ' ' ' ' ( ( ( ' ' ' ( ( ( ( ( ( ( ( ( ( ( ( ( ( ( ( ( ( ( ( ( ~ ~ ~ m s 8 m C Y Y C C M C C x 5 5 a M M m j j j a a i y y 4 5 5 5 5 # # # X X X X X X X                                           ",
"                                                                O O O X # # # # 1 5 5 5 4 4 4 0 4 6 6 y y i i a i a a y 4 4 y M M M M M B B B B M s j B Y C B C C C C C C C A A A A A A A A A A C C C C C C C C C C A A A A A A A A A A A A A A Y A B m M A Y C A A A A A A A A A A A Y Q Y A C M a y y y y y y y y y y y y y y y y y y y i i i i i i i i i i i s s s s s s s x M C M Y ~ ~ ~ A ~ ~ ~ Y ~ ] ' &.,.;.' ( ~ ~ ' ;.>.;.' ~ &.,.=.&.' ' ' ' ' ` / / @.@.@.#.@.@.@.#.` ` } } | @.@.@.` ` ` ~ ' ;.=.j.l.g.l.l.i.M Y Y M m a a j j j a a a a a a a j j a a a a a s s s s s s s s s s s i i i i i i s s s y M M ~ *.*.*.:.*.*.*.*.*.&.+.+.+.+.&.*.*.*.*.*.*.*.*.*.*.*.*.*.*.*.*.*.*.*.*.*.*.:.*.&.' ` ` ` ` ` ` ` ` ` ` ` ` ` ` ` ` ` ` ` ` ` ` ` ` ` ' ( &.>.>.-.-.*.*.,.C 8 8 x y x ,...*.^ M a j a a i i i i i i i i i i i i i i i i s s s s i i i s a a a a a a a a a a a a a a a a a a a a a a a a j a Y ~ i.h.b.g.' ( ( ~ Y ~ ' ( ( A M m A ,.U.l.z.&.~ ( ' ' ' &.' ( ( ( ' ( ~ A D m m m m C ~ ( m m m m x m m m m C ( ' ( A C C ~ ~ ~ ( ' ' ( ' ( ' ( ' ' ( ( Y ( ~ ~ ~ ~ ~ ~ ~ ~ ~ ~ ~ ~ ~ ~ ( ( ' >.g.g.i.,.;.@.@.| | } @.@.@.@.} @.@.@.&.` m m j m m j j j j j j j j m m m m M M M M M M M M M M M M M M M m m m m m m m m m m m m m m m m m C A ~ ( ' ' ( ( ' ' ' ' ' ' ' ' ' ' ' ' ' ' ' ' ' ' ' ' ' ' ' ' ' ' ' ' ' ' ' ' ( ( ( ( ( ( ( ( ( ( ( ( ( ( ( ( ( ( ( ( ( ~ ~ ~ 8 s m M C Y Y C Y M C C M y s M M M m m k j a a i y y 0 4 5 5 5 # # # X X X X X X X                                           ",
"                                                              X O O O # @ # # 1 5 5 5 5 4 4 4 6 6 y y y i a a a a a a y 4 y M B M M C C C C C C A M M A ~ C C C C C C A A A A A Y Y Y Y Y Y Y Y Y Y A A Y Y Y Y A A A A Y Y Y Y Y Y Y Y Y Y Y Y ~ ~ A A A ~ ~ Y ~ ~ ~ ~ ~ ~ ~ ~ Y Y ~ ~ ~ ~ Y A M j y y i y y i i i i i i i i i s s s s s s s s s s i i s s s s s s s s s s s m C Y M ~ ( ~ ( Y A &.g.' ~ ,.a.g.,.&.( ~ ~ ~ ~ ( ( ' ~ ( >.l.,.&.` ( ` ` ` ` ` / J ' @.@.@.@.@.@.>.>.>.>.#.@.@.#.@.` ` / ' ' | j.z.l.z.h.g.C Q Y M m j j j m j j j j j j j j j j a a a a a a a a a a a a a a a a s s s s s s s s s s M M ^ ,.:.*.,.,.,.,.,.>.;.&.&.&.&.&.:.,.,.>.:.:.,.,.:.:.:.:.,.,.:.:.:.:.,.:.p.p.:.,.>.;.@.` ' ' ' ' ' ' ' ' ` ` ` ` } ' ' ' } } ' ' } } | | ' ;.,.1.1.1.,.,.,.,.*.C m m 4 8 s M j 4 8 i 8 8 s s s s s s s s s s i i s s s s s s j j s s s s j j j j j j j j j j j j j j j j j j j j j j j j s i B C ] ' ..] ' ] ] ~ C ( &.' m Y ( ~ ( l.R.R.!.,.~ ( | ' ` | ' ' ' | &.' ~ A m m m m ~ ( ' &.m m m m m m M M m Y ' ' ( ~ ~ ~ m E ' ..( ~ ' ,.l.z.,.a.g.a.,.( ( ( ( ( ~ ~ ~ ~ ~ ~ ( ~ ~ ~ ~ ~ l.a.g.l.g.g.g.,.@.@.@.@.@.@.#.#.#.@.#.#.&.&.` m m m m m m m j j m m m m m M M m m m m m m m m m m m m m m m m m m m m m m m m m m m m m m m m m C A ~ ' ..' ' ' ' ' ' ' ' ' ' ' ' ' ' ' ' ' ' ' ' ' ' ' ' ' ' ' ' ' ' ' ' ' ' ' ' ' ' ' ' ' ' ' ' ' ' ' ' ' ' ' ' ' ' ' ` ` / ~ 7 m A ~ Y A Y Y Y C M Y C M M C M M M m M m a a i y y 0 4 5 5 5 # # # X X X X X X X                                           ",
"                                                            X X O O X # # # 1 5 5 5 5 4 4 0 6 6 y y y i a a a a M M j i i a M Y C C C C C C C A ~ C C Y ~ A C A A A Y Y Y Y ~ ~ Y E E Y ~ ~ ~ ~ ~ ~ ~ ~ ~ ~ ~ ~ ~ ~ ~ ~ ~ ~ ~ ~ ~ ~ ~ ~ ~ ~ ~ ~ ~ ~ ~ ~ ~ ~ ~ ~ ~ ~ ~ ~ ~ ~ ~ ~ ~ ~ ~ ~ ~ ~ Y A B m i s a i i s s s s s s s s s a a a a a a a a a a a a a a a a x a x x x x m m C A m ~ ( ~ ] ' ( >.k.&.( g.z.l.;.' ~ ~ ( ~ ~ ~ ~ ( ~ ~ >.g.>.@.` ` ` ` ` ` ` ` H ` @.@.#.>.>.@.#.@.#.>.>.#.#.#.@.| ' ` ` ' ' j.b.z.c.c.g.Y ~ Q M m j j m m m j j j j j j j j j j j j j a a a a a a a a a a a a s s s s s s s s s s M M ( i.,.:.i.,.,.,.,.,.>.*.:.*.*.:.,.,.,.,.i.i.i.i.i.i.i.i.i.i.i.i.i.i.i.i.i.i.,.,.,.,.=.| } } } } } | | } } } } } %.} } } | | | @.@.@.@.@.| ;.,.6.g.g.g.i.,.l.g.C 8 M x s 6 j s 8 j m j m j j j j j j j j j j j j j j j j j j j j j j j j m j m m m m j j m m m m m m m m m m m m m m m m M M T B ^ E ' ' ' ' ' ~ C ~ ( ( m ( ;.&.&.g.Y.W.!.g.@.&.=.&.| &.| | @.&.@.' H Z 8 A C C ' &.' ' M M M M M M M M 8 ~ ..' ' ' ( ~ m A ( ' ~ ~ ;.z.z.c.g.g.k.k.g.( ( ( ( ( ( ( ( ( ( ( ( ( ' ' ' ' z.,.,.,.a.l.l.,.@.#.=.#.#.#.#.#.#.#.#.>.=.=.| Z m M m m m M m m m m m m M M m m M M M M M M M M M M M M M M M M m m m m m m m m m m m m m m m m C A ~ ' | | ' ' ' ' ' ' ' ' | | | | | | | | | | | | | ' ' ' | | ' ' ' ' | ' ' | | | | | | | | | | ' | | | | | | ' ' ' ' ' ` / / m M ~ ~ ~ Y Y Y Y C M Y Y C C C M M M M M M j a a i y 0 4 5 5 5 # # # # # X X X X X                                           ",
"                                                          X X X X X @ # # 1 5 5 5 5 4 4 4 6 y y y y i s a a j j M M M M m M M C C C C A A A A A Q A A ~ ~ Y A Y ~ ~ ~ ~ ~ ~ ~ ~ ~ ~ ~ ~ ~ ~ ~ ~ ~ ~ ~ ~ ~ ~ ~ ~ ~ ~ ~ ~ ~ ~ ~ ~ ~ ~ ~ ~ ~ ~ ~ ~ ~ ~ ~ ~ ~ ~ ~ ~ ~ ~ ~ ~ ~ ~ ~ ~ ~ ~ ~ ~ ~ ~ A C C M s a a a s a a a a a a a a a j j a j j j j j a a a a a a a a m m x x m m m m C C M ~ ( ' ,.g.g.&.' ~ ' k.g.&.' ( ( ( ( ( ( ' ' &.' ( &.;.O.' ( ( ( ` ( ' ' ' ' &.=.>.=.3.>.#.Z b Z ` $.>.$.#.@.=.=.' | =.=.c.U.c.b.c.l.A Q Y M m j j m m m m j j j j j j j j j j j j j j j j a a a a a a a a j j j j j j m m s s M M ( g.d.,.i.i.,.i.i.,.,.>.,.,.,.,.,.d.d.d.d.d.d.d.d.d.d.d.d.d.d.d.d.d.d.d.d.d.d.d.g.g.>.@.%.%.%.%.%.%.#.%.@.@.@.@.%.%.%.%.%.%.%.%.#.#.#.#.@.&.=.,.6.g.g.g.c.,.g.,.( M a ~ B Y B m M m s j j j j j j j j j j j j j j j j j m m m m m m m m m m m m j j j j m m m m m m m m m M M M M M M M m j B M E Y ] ..E A D A m m A D | &.| ' ;.1.,.;.;.@.' | &.&.&.&.&.&.&.| ` A m m ~ ..' ( &.' Y C M M B B B B B M m / &.@.O.&.@.( ' A C / @.g.c.l.l.J.l.l.z.z.g.( ' ( ( ( ( ( ( ( ( ~ ( ' >.g.g.,.' ( &.,.l.c.z.1.>.>.>.$.$.$.$.$.$.#.$.>.>.,.#.A B M m m M M M m M M M M M M M M M M M M M M M M M M M M M M M M m m m m m m m m m m m m m m m m C H ` ' | @.@.@.| | | | | | | | @.| | | | | | @.| | | | | | | | | | | | @.| | | | | | | | | | | | | | | @.@.@.@.| | | ' ' ` ` / A Y ~ ~ ~ ~ Y A ~ C C C Y Y C C M M M M M M m j a i y 6 4 5 5 5 # # # # X X X X X X                                           ",
"                                                          X X X X X @ # # 5 5 5 4 4 4 0 6 y y y i s s a j m m M M M M M M M M B C C A A Y Y Y A Y Y Y ~ ~ ~ ~ ~ ~ ~ ~ ~ ~ ~ ~ ~ ~ ~ ~ ~ ~ ~ ~ ~ ~ ~ ~ ~ ~ ~ ~ ~ ~ ~ ~ ~ ~ ~ ~ ~ ~ ~ ~ ~ ~ ~ ~ ~ ( ~ ~ ( ( ~ ~ ( ` ` ` ~ ~ ~ ~ ~ ( ( ( ( ~ ~ A N C M a a j a a j j j j j j j j j j j j j m m m m j j j j a a a a m m m m m m m M A Y C ' *.>.z.b.B.' ~ ~ ' ,.>.' ( ( ( ' ' ' ' ..' &.( ~ ( ' ' ' ' ' ' ' ' ' ' ' @.#.&.@.O.' ' / S Z S } >.>.#.%.@.=.,.@.&.1.1.J.J.c.U.b.z.A Y C M M m j m M m m m m m m m m m m M M M M m m m m a a a a a a a a j j j j j j m m m s m m ^ g.g.i.g.d.d.g.g.d.i.,.i.,.,.,.i.g.g.g.g.g.g.g.g.g.g.g.g.g.g.g.g.g.g.g.d.h.g.g.g.l.,.@.#.#.#.#.#.#.#.#.#.#.#.#.#.#.$.$.#.#.$.$.$.#.#.#.>.=.=.1.j.l.l.l.z.-.l.z.*.Y s C Y Y M s j s 8 s j j j j m m m m j m j j j j j j m m m m m m m m m m m m m m m m M M M M M M M M M M M M M M M M m j M j Y A ^ ~ C m N A m m D ~ ;.=.&.| &.&.&.>.,.1.6.1.>.;.@.| &.=.=.@.` H H ~ ' ;.;.&...~ C m m M M B B M M m m ) &.&.&.&.&.@.&.~ A ~ &.c.Y.l.l.U.U.U.c.g.,.O.' ' ' ' ' ' ' ' ' ( ( ' ,.g.g.,.~ ~ ( ;.,.l.c.l.5.<.$.$.$.$.$.$.$.#.$.$.,.6.;.H C M M M M M M M M M M M M M M M M M M M M M M M M M M M M M M M M M m m m m m M M M M M M M M m A / ' | | &.&.@.@.@.@.@.@.@.@.@.| | | | | | | | @.@.@.@.@.@.@.@.@.@.@.@.@.@.@.@.@.@.@.@.@.@.@.@.@.@.@.@.@.@.@.@.| | | | ' ' ` ` ~ ~ ~ ~ ~ ~ Y A ~ Y C C Y Y C M B M M M M M M j a a y y 4 4 4 4 : # # # X X X X X X                                           ",
"                                                          X X X @ @ # # 1 5 5 5 4 4 4 6 y y y y s a a a j M M M M M M M M B C C A A A E ~ ~ ~ ~ ~ ~ ~ ~ ~ ~ ~ ~ ~ / / / ~ ~ ~ ~ ` ` ` ` ` ` ` ` / ~ ` ` ` ` ` ` ` ` ` ` ` ` ` ` ` ` ` ` ` ` ` ` ( ` ` ' ' ` ` ' ' ' ' ' ( ( ( ( ` ` ` ` ` ~ A C Y M j j m j j m m m m m j j j m j j j m m m m m m m m m m m m m M M M m m m M M Y Y A ;.h.h.c.c.c.' &.&.~ ' &.&.' ' ( ' ' ' ' ' ( ' Q B ~ ' ' ' ' ' ' ' ' ' ' ' ` O.@.` H Z Z J 6.>.#.,.5.$.%.} | | =.=.>.1.,.J.J.J.Y.U.z.A A C M M m m M M M m m m m M m m m m M M M m m m m m j j j j j j m m m m m m j j m m m s m s ~ h.h.i.l.g.g.g.h.g.g.g.d.i.,.,.d.g.g.g.h.h.h.h.h.h.h.h.h.h.h.h.h.h.h.h.h.z.z.l.z.l.6.#.>.$.$.$.$.$.$.$.$.$.$.$.$.$.$.$.$.$.$.$.$.$.#.#.>.=.>.g.c.c.c.c.>.A C C M Y Q ~ Y Y B M M M m B m m m m m m m m m m m m m m m m M M M M m m m m M M M M M M M M M M M M M M M M M M M M M M B B Y Y ( ^ &.( ( A C N A A A ` &.&.@.=.=.=.=.| ,.!.-X*X*X^.J.1.=.=.&.&.=.=.&.@.&.;.&.@.;.;.( A A C M C C C C C C B C ~ &.&.&.&.&.&.' ( &.@.' l.U.,.=.z.c.c.6.' @.' @.@.O.O.' ' ' ' ..' ' ' &.&.&.] &.' ' ' ' >.z.c.9.5.>.$.>.<.e.$.e.$.>.>.,.6.>.~ A B M M M B M M M M M M M M M M M M M M M M B B B B M M M M M M B B B B B B B B B B B B B B B N ~ ' &.@.| &.&.&.@.@.@.@.@.@.@.@.@.@.@.&.&.@.@.@.@.@.@.@.@.@.@.@.&.&.&.&.&.&.&.&.@.@.@.@.@.@.@.@.@.@.@.@.@.@.@.@.@.@.@.| ' ' ` ` ( ~ ~ ~ ~ ~ ~ Y Y Y Y C Y Y C C C B M M M M M M a a i y 6 4 4 4 : # # # X X @ X X X                                           ",
"                                                          X X X @ @ # # 1 5 5 4 4 4 4 6 y y y i a a a a j M M M M M M M M C Y Y Y E ~ ~ ~ ~ ~ ~ ~ ~ ~ ~ ~ ~ ~ ~ / ~ ~ ~ / ` ` ` ` ` ` ` ` ` ` ` ` ` ` ` ` ` ` ` ` ` ` ` ( ( ( ( ( ( ( ( ( ( ( ( ( ` ` ' ' ` ` ' ' ' ' ' ' ' ' ' ` ` ( ( ` / D A A M j m m m j m m m m m j j m m m m j m m m m m m m m m m m m m M m m m m m M m Y A A ,.U.b.c.g.c.( ( ' ~ &.&.( &.' ( ' ..' ( ( ' ' Q B ~ +.+.' ' ' ' O.' | | | ' @.#.O.S b S @.9.,.>.5.<.#.@.%.%.` #.,.6.1.,.U.J.J.U.Y.c.Y A M M M m m M M M m m m m m m m m m M M M M m m m m j j j j j j m m m m m m j j m m m m m s ~ h.h.g.h.h.h.h.z.h.g.g.g.i.,.,.g.g.l.h.z.z.z.z.z.z.z.z.z.z.z.z.z.z.z.z.h.c.c.z.z.c.6.;.>.$.$.$.$.$.$.$.$.$.$.$.$.$.$.>.$.$.$.>.>.#.#.@.@.@.&.g.c.c.j.l.z.m 8 ~ ~ Y M Y Y Y M j m j i m M M M M M M M M M M M M M M M M M M M M m m m m M M M M M M M M M M M M M M M M M M M M B B B B M M ~ ( -.] ~ j C A A N Z | ,.=.,.=.@.=.6.=.g.*X,X^.!.!.M.=.@.=.=.=.=.=.=.=.=.=.,.@.&.&.E m C C C A A A A A A C Z ~ ' &.@.' @.&.=.&.=.;.&.c.J.` &.l.J.U.g.' @.&.&.&.@.@.@.@.@.@.' ' &.' ' ' ' ' ' ' &.&.&.>.k.c.c.9.>.$.<.5.<.$.5.e.<.<.,.6.>.~ A B M M M B M M M M M M M M B B M M M M M M M B B B M M M M M M B B B B B B B B B B B B B B B N ' &.=.&.@.&.&.&.&.&.&.&.&.&.&.&.=.=.=.=.=.=.=.=.&.&.&.&.@.@.@.@.&.&.&.&.&.&.&.&.@.@.@.@.@.@.@.@.@.@.@.@.@.@.@.@.@.@.@.| | ' ` ` ` ~ ~ ~ ~ ~ ~ ~ A Y Y Y A C Y C C B M M M M M M a a i y 6 4 4 4 : # # # # X @ X X X                                           ",
"                                                        X X X X # 1 1 5 5 5 4 0 4 6 y y y i s a x m m M M M M M C C C C Y A Y Y ~ ~ ~ ~ ~ ~ ~ ~ ~ ~ ~ ( ( ~ ~ ~ ` ` ` ` ` ` ` ` ` ` ` ` ` ` ` ` ` ` ` ` ' ' ' ' ` ` ` ` ' ' ' ' ' ' ' ' ' ' ' ' ' ' ' ' ' ' ' ' ' ' ' ' ' ( ' ( ' ' ' ' ' ` H A A B m j j m m m m m m m m m m m m m m m m m m m m m m m m m m m m m m m m B A ~ ~ A m g.Y.l.c.,.' ( | | &.&.' =...' ( ' ' ' | ..~ m A &.&.( ( ' ' =.=.=.=.} ` @.n K $.9.9.9.5.9.5.5.5.5.5.5.>.>.%.>.7.9.4.5.9.J.L.U.J.U.z.A Y x M M m m m M M m m m M M M m m m m m m m m m m m m m m m m m m m m m m m m m m m m 8 M 8 ~ c.g.z.z.z.z.z.z.z.z.l.g.g.g.6.6.l.l.c.z.z.z.z.z.z.z.z.c.c.c.c.c.c.c.c.b.c.z.z.S.c.6.>.>.%.$.4.$.$.$.$.>.>.$.$.$.$.$.<.5.$.>.1.>.~ m b m 8 m i.U.U.h.Y s M m C ~ Y C ~ C M m m m m m m m m m m m M M M C C M M M B B B C C C C C C C C B B C C C C C C C C C C C C C C C C C C A C C C m Y ' ( Y C C A A Z A / &.,.>.&.=.>.,.,.&.c.pX-X>Xl.@.&.,.=.=.,.=.=.=.=.=.=.=.=.1.@.H Z Z A A A m ~ @.,.,.@.D m D N Z A Z m N D &.=.=.=.&.| @.&.&.&.&.&.&.&.&.&.' ;.=.@.( ' &.&.' ;.' ( &.&.' &.' ' ( ,.R.l.( ` / @.>.5.9.5.e.$.e.e.5.5.<.5.>.H D C m M C M m M C C C C C C C C B C C C C C C C C C C C C C C C C C C C C C C C C m m C C C A ~ '  .&.&.&.&.&.@.&.@.&.=.&.&.&.@.@.,.J.U.!.U.=.| &.&.&.&.&.&.&.&.&.&.&.&.&.&.&.&.&.&.&.&.&.&.&.&.&.&.&.&.&.@.&.&.@.@.@.| ' ' ` ` ` ` / / ~ ~ ~ ~ ~ Q Y A A A C C C C M M M M M M M x s y t 7 4 4 5 : : # # X X X X X X                                         ",
"                                                        X X X X # 1 5 5 5 5 5 0 4 6 y y y s a a m m m M M M M M C C C A A Y Q Q ~ ~ ~ ~ ~ ~ ~ ~ ~ ~ ~ ~ ( ~ ( ` ` ` ` ` ` ` ` ` ` ` ` ` ` ` ` ` ` ` ` ` ' ' ' ' ' ' ' ' ' ' ' ' ' ' ' ' ' ' ' ' ' ' ' ' ' ' ' ' ' ' ' ' ' ' ' ' ' ' ' ' ' ` H A A B m j m m m m m m m m m m m m m m m m m m m m m m m m m m m m m m m m m B D ~ m ( ' >.c.U.c.;.| ' ..| ' ` A ' ' ' | &.&.| ` ~ ` D E ( ~ ( &.&.' @.@.@.#.#.} %.K %.>.7.5.5.5.5.5.5.5.5.7.5.4.>.$.4.7.7.5.5.9.x.J.E.E.W.c.C Q C B M m m m m m m m m M m M M m m m m m m m m m m m m m m m m m m m m m m m m m m C m M 7 ( U.l.z.g.l.z.z.c.c.c.c.g.g.g.g.g.x.c.c.c.c.c.c.c.c.c.c.c.c.c.c.c.c.c.c.b.c.c.c.F.c.l.6.5.>.$.5.$.$.4.$.$.>.>.>.>.<.<.<.#.>.<.>.@./ A m C M B ,.c.h.,.m 8 C C Y ( ~ C ~ A C M m m m m m m m m m M M M M M B M B M M M B C C C C C C C C C C C C C C C C C C C C C C C C C C C C A A C C C A Y A C C C A C A ~ ' ;.,.,.>.,.&.&.,.l.^.pXT.T.g.&.=.=.=.=.,.=.=.=.=.=.=.=.=.=.| / D D H H D D ` @.=.=.@./ A N N N N A D / ' =.' ` &.=.&.&.=.&.&.&.&.&.&.&.&.&.&.@.&.=.,.=.&.&.;.;.&.;.&.&.;.>.>.;.,.U.z.>.,.6.1.1.<.<.5.5.5.e.e.5.5.<.5.>./ D C m m C C m C C C C C C C C C C C C C C C C C C C C C C C C C C C C C C C C C C M B C C C A ~ '  .&.&.&.&.&.@.&.@.&.=.&.;.3.6.=.6.W.U.l.g.=.=.&.&.&.&.&.&.&.&.&.&.&.&.&.&.&.&.&.&.&.&.&.&.&.&.&.&.&.&.@.@.@.@.&.@.@.| ' ' ` ` ` ` ` ~ ~ ~ ~ ~ ~ ~ Q Y A A A C C C C M M M M M M m s s y 7 7 4 5 5 : # # X X X X X X X                                       ",
"                                                        X X X X # 1 5 5 5 5 4 0 6 6 y y i s a a m m M M M M C C C C A A A Y E ~ ~ ~ ~ ~ ~ ~ ~ ~ ` ~ ~ ( ( ( ( ` ` ` ` ` ` ` ' ' ' ' ' ' ' ' ' ' ' ' ` ` ' ' ' ' ' ' ' ' ' ' ' ' ' ' ' ' ' ' ' ' ' ' ' ' ' ' ' ' ' | ' ' ' | ' ' ' ' ' ' ' ` H A B m m m m m m m m m m m m m m m m m m m m m m m m m m m m m m m m m m m m B D ~ A >.c.l.Y.!.z.,.| ' &.' ` D N ' ' | | ..| ' ~ B E ( &.&.&.*.>.| b m m S @.<.5.5.$.5.5.5.5.5.5.5.5.5.5.7.7.7.5.5.5.5.7.7.5.5.7.9.9.L.E.W.l.m Q ~ C C M m m m m m m m m m m m m m m m m m m m m m m m m m m m m m m m m m m m m m m m C 8 ~ c.l.z.z.c.c.S.S.S.c.c.z.g.g.l.l.l.c.S.S.S.S.S.S.S.S.S.S.S.S.S.S.S.S.S.b.b.c.c.U.J.S.c.9.>.4.5.4.4.5.4.>.>.<.<.5.5.<.<.<.5.<.} A m m j m m M ~ Y A ~ m C ~ ~ Y Y Y Y ~ ~ A C m m M M M m m m m M M C C C C C C C C C C C C C C C C C C C C C C C C C C C C C C C C C C C C C C C C C C A C C C C A C C A / | =.=.>.,.,.>.;.1.^.<XpX-X1.6.,.=.>.=.=.=.=.=.=.=.=.=.=.=.=.,.,.=.=.=.=.&.&.@.&.=.=.=.&.&.| Z A Z Z D ' &.=.=./ H @.,.=.&.=.;.;.&.&.&.&.&.&.=.&.@.&.&.@.' ' =.' ( &.&.&.&.@.U.U.U.U.U.U.U.U.M.j.6.>.>.5.5.5.5.e.5.5.<.5.>.J D C m B C C M C C C C C C C C C C C C C C C C C C C C C C C C C C C C C C C C C C C C C C C A ~ '  .&.&.&.&.&.&.&.&.&.&.;.3.l.J.U.S.!.S.=.=.=.&.&.&.&.&.&.&.&.&.&.&.&.&.&.&.&.&.&.&.&.&.&.&.&.&.&.&.&.&.&.&.&.&.&.&.@.@.| ' ' ` ` ` ~ / / ~ ~ ~ ~ ~ Q Y A A A A A C C B C B M M M m s s y y 7 4 5 5 : : # X X X X X X X                                       ",
"                                                      X X X X # # 1 5 5 5 5 4 0 6 y y y s a a a m M M M M C C C C A A A ~ ~ ~ ~ ~ ~ ~ ~ ~ ~ ~ ~ ( ( ( ( ( ( ( ` ' ` ' ' ' ' ' ' ' ' ' ' ' ' ' ' ' ' ' ' ' ' ' ' ' ' ' ' ' ' ' ' | ' | | ' ' ' ' | | | | | | | | | | | ' | | | | ' ' | | | ( ~ C m m m m m m m m m m m m m m M m m m m m m m m m m m m m m m m m m m m m N B D ~ A &.B.c.Y.z.~ -.' ' &.` D N m ' &.&.' ~ A D ~ ~ ( ' &.' ~ ~ ~ D &.&.| } ,.8.5.5.7.7.5.5.5.7.7.7.5.5.5.7.7.7.7.7.9.7.7.7.7.7.7.5.6.J.E.!.l.m Y ~ C C M M m m m m m m m m m m m m m m m m m m m m m m m m m m m m m m m m m m m m s m M s ' b.z.l.c.c.c.S.S.c.c.c.z.z.l.l.l.c.S.J.S.F.S.S.F.F.F.F.F.F.F.F.F.F.F.F.b.b.U.U.U.J.J.J.x.5.5.5.>.5.7.5.5.5.<.<.5.<.<.>.$.<.<.&.` A A A A Y Y C m m C M m Y ~ ~ Y Y ~ ~ ~ ~ C M M M B C m m m B C C C C C C C C C C C C C C C C C C C C C C C C C C C C C C C C C C C C C C C C C C C C C C C C Y Y C B ( @.=.,.>.=.=.>.,.=.=.z.c.z.c.,.&.=.,.=.=.=.=.=.=.=.=.=.=.=.=.=.=.=.=.=.=.=.=.=.>.>.=.=.=.=.=.=.` ' ' H A ~ ` ' ` ~ / &.=.=.&.&.;.;.;.;.;.&.&.&.@.&.;.>.;.&.6.U.g.' @.>.&.;.g.l.Y.W.R.J.g.g.g.3.6.1.>.>.5.7.7.5.7.5.7.5.<.5.>.J D C m B C M B C C C C C C C C C C C C C C C C C C C C C C C C C C C C C C C C C C M C C C B A ~ ' &.&.&.&.=.=.&.&.=.&.&.3.c.U.!.`.J.W.l.| &.=.@.&.&.&.&.&.&.&.&.&.&.&.&.&.&.&.&.&.&.&.&.&.&.&.&.&.&.&.&.&.&.&.&.&.&.&.@.| ' ' ` ` ` ` ~ ~ ~ ~ ~ ~ ~ ~ Q Y A A A Y C C C C C M M M m a s s y 7 4 5 5 : : # # X X X X X                                         ",
"                                                      X X X # # # 5 5 5 5 4 0 y y y y i i a a a M M M M M C C C A A A Y ~ ~ ~ ~ ~ ~ ~ ~ ~ ( ( ( ( ( ( ( ( ( ( ( ' ' ' ' ' ' ' ' ' ' ' ' ' ' ' ' ' ' ' ' ' ' ' ' | | | | ' ' ' ' | | | | | | | | | | | | | | | | ' ' ' ' ' ' ' ' | ' | | | ( ~ C m m m M m m m m m m m m m m m m m m m m m m m m m m m m m m m m N N m m m B E ~ ~ ' U.U.U.,.8 ' | | ..D m m j / &.&.` N h N ` ....' ;.;.~ m m m Y.T.c.5.5.5.5.5.7.5.5.5.7.7.9.7.5.7.7.7.7.7.7.7.w.7.5.5.9.9.9.7.x.L.W.).c.B ~ ~ C C C C C C m m M M M m M M M M M m m m m m m m m m m m m m m m m m m m m m m m C M s 8 &.Y.U.h.z.z.c.c.c.c.S.S.c.l.z.z.l.c.c.S.F.F.F.F.F.F.F.F.F.F.U.U.U.F.F.F.U.U.U.U.F.S.J.U.c.6.5.5.5.5.7.5.7.5.5.5.5.5.5.5.5.6.x.M.g.' A C ( ~ Q A ~ A m 8 s M ~ ( ~ ~ ~ Y ~ ~ A B M B C C B B B B C C C C C C C C C C C C C C C C C C C C C C C C C C C C C C C C C C C C C A C C C A A A C C A A C C A A =.=.,.,.=.=.=.=.=.=.&.=.&.' =.=.&.=.>.=.=.,.,.;.=.=.=.=.=.=.=.=.&.&.=.=.&.&.&.=.=.=.=.&.;.;.=.=.=.,.,.( A N N N C ( ;.=.&.=.,.>.=.=.=.&.&.&.&.&.&.&.=.=.@.&.l.`.,.&.=.,.' @.c.`.U.Y.Y.l.&.@.&.' &.@.#.>.5.9.7.5.7.5.7.7.5.8.>./ ~ C m B C C C C C C C C C C C C C C C C C C C C C C C C C C C C C C C C C C C C B B C C M M A ~ | &.&.&.&.=.=.&.&.=.@.&.l.E.E.W.!.c.!.c.@.&.=.&.&.&.&.&.&.&.&.&.&.&.&.&.&.&.&.&.&.&.&.&.&.&.&.&.&.&.&.&.&.&.&.&.&.&.&.@.| ' ' ' ( ` ` ~ ~ / ~ ~ ~ ~ ~ Y Y A A A Y A C C C C M M M m a s s y 7 4 4 5 5 : # # X X X X X                                         ",
"                                                      X X X # # 1 5 5 5 4 4 0 y y y y a a a a j M M M C C C C C A Y Y ~ ~ ~ ~ ~ ~ ~ ~ ( ( ( ( ( ( ( ( ' ( ' ( ' ' ' ' ' ' ' ' ' ' ' | | | | ' ' ' ' ' ' | | | | | | | | | | | | | | | | | | | | | | | | | | | | ' ' ' ' | | | | | | | &.| ( ~ A m m M M m m m M m m m m m m m m m m m m m m m m m m m m m m m m N N N m m C E ~ ~ &.R.c.l.>.m ~ ` | | A N D D | | ' ~ B m m ~ =.' ~ ( ' ~ m ~ @.z.J.x.,.<.5.5.7.5.5.5.7.7.9.7.5.7.7.7.7.7.9.9.9.w.7.5.7.9.9.9.7.x.H.J.!.J.Z Q Q A C C B C C B m M M M m M M M M M M m m m m m m M M M M m m M M m m m m m m m m m A M m ~ *.h.U.F.F.U.U.F.U.S.S.c.c.c.l.l.c.c.S.U.F.U.F.U.U.U.U.U.U.U.U.U.U.U.U.U.Y.U.U.U.U.U.U.S.6.5.5.5.5.5.e.7.5.5.5.9.9.5.6.>.@.' ;.&.~ C C Q Y ~ A M m m &.;.( ~ ~ ~ ~ ~ ~ ~ Y C B B C C C B B C C C C C C C C C C C C C C C C C C C C C C C A A C C C C C C C C C C C C C C A A C C C C A C A C C m C ~ ' ,.=.=.=.=.=.=.=.&.,.=.6.6.=.=.&.>.=.=.=.>.,.,.=.=.=.=.=.=.=.=.=.,.,.,.,.,.,.,.,.=.=.=.=.=.=.=.=.;.,.,.&.` ~ ~ / ~ ,.j.,.&.=.>.&.=.=.=.=.=.=.&.&.>.&.@.&.=.6.J.!.c.>.@.&.=.g.U.R.!.!.J.,.&.&.;.;.&.@.@.#.<.5.7.7.7.5.7.9.8.8.1.` ~ C m C C C C C C C C C C C C C C C C C C C C C C C A A C A A C C A A C C C C C B B C C m M Y ' ..&.=.&.&.=.=.&.&.,.@.&.J.!.E.E.U.U.*XJ.@.| &.=.&.&.&.&.&.&.&.&.&.&.&.&.&.&.&.&.&.&.&.&.&.&.&.&.&.&.&.&.&.&.&.&.&.&.&.&.@.' ' ' ' ( ` ` ~ / ~ ~ ~ ~ ~ ~ Q Y A A Y Y C C C C M M M M x s s s y 4 4 5 5 : # # X # X X X                                         ",
"                                                    X X X # # # 1 5 5 5 4 4 0 y y y i a a j j j M M C C C C C A Y Y Y ~ ~ ~ ~ ~ ( ( ( ( ( ( ( ' ( ( ( ' ' ' ' ' ' ' ' | ' ' ' ' ' ' ' | ' ' ' ' | | | | | | | | | | | | | | | | @.@.@.@.@.@.@.@.@.@.@.@.@.@.@.@.&.&.&.&.@.@.| @.@.| | &...( ~ A m B B M m m m B B B B B m m m m M M M M M M M M M M M M M M M M N N m m m C E ~ C ' z.,.&.( m m C ( ' B A &.&.&.( D C C C m ~ &.( m j m 8 C ,.!.U.Q.J.6.6.5.5.5.7.7.7.9.9.7.7.7.9.7.7.7.7.9.9.9.9.7.7.7.9.9.9.9.9.9.c.W.J.C Y A C C C C C C C M M M m m M M M M C C B B M M B B M M M M m M M M m m m m m m m m 8 A C M m M &.b.c.c.U.W.W.U.J.S.J.J.c.c.c.c.c.c.U.U.U.U.U.U.U.U.U.U.U.U.U.U.U.U.Y.Y.Y.Y.U.U.U.U.S.6.5.7.5.7.w.5.7.5.5.7.9.7.>.#.Z b 8 b C A ~ ' ~ ~ ' ~ E B D U.U.&.~ ~ A Q ( ~ Y A C M B C C C C C C C C C C C C C C C C C C C C C C C C C C C C C C C C C C C C C C C C C C C C C C C C C C C A A A C A ~ ..>.=.=.=.=.=.=.,.,.,.1.@.| &.&.,.,.=.=.=.=.>.=.=.>.=.=.=.=.=.=.=.=.=.=.=.=.=.=.=.=.,.,.,.=.>.>.=.=.&.&.=.=.=.&.=.,.=.g.l.,.&.&.&.@.=.=.=.=.=.=.=.=.&.@.@.=.l.!.*X*X`.J.>.>.c.R.Y.U.U.J.,.O.&.&.@.=.=.&.#.#.$.<.7.9.0.7.9.9.8.9.<./ ~ C m C C C C C C C C C C C C C C C C C C C C C C C C C C C C C C C C C C C C C C C C C M C ~ &.&.=.=.&.&.&.=.&.&.,.@.@.J.`.U.E.W.W.`.c.,.=.| &.&.&.&.&.&.&.&.&.&.&.&.&.&.&.&.&.&.&.&.&.&.&.&.&.&.&.&.&.&.&.&.&.&.&.&.@.@.| ' ' ' ' ( ` ~ / ~ ~ ~ ~ ~ ~ Y Y Y A Y Y C C C C C M M M m a a s y 6 4 5 5 : # # # # X X X                                         ",
"                                                    X X X # # # 1 5 5 0 4 0 0 y y y i a a j j j M M C C C C A A Y Y ~ ~ ~ ~ ~ ~ ( ( ( ( ( ( ( ( ( ( ' ' ' ' ' ' ' | | | ' ' | | | | | | | | | | | | | | | | | | | | | | | | | | @.@.@.@.@.@.@.@.@.@.@.@.@.@.@.@.&.&.&.&.&.@.@.@.@.@.&.&...( ~ A m B B M m m m B B B B B m m m M M M M M M M M M M M M M M M M M m m m m B C E ~ ~ ( g.,.' ~ C C m ~ ( m A ;...( ` m 8 m C m C ( A C ( ,.>.>.z.U.U.T.c.6.5.9.9.5.5.7.9.9.9.7.9.9.9.9.9.7.7.9.9.9.9.9.9.9.9.9.9.9.5.6.c.!.U.A ~ Y A C C C C C C C M M m m M M M M C C C B B M N N M M M M M M M M M M M M m m m M m C x M Y A ( &.+.;.g.c.U.U.U.U.E.U.J.c.c.c.c.c.W.W.W.W.W.W.W.W.W.W.W.W.W.W.W.W.R.Y.Y.Y.W.W.W.E.S.6.5.9.7.9.0.5.5.7.7.7.7.>.@./ Z Z A C C Q A C ~ B A ( -.( m ' ,.C m ~ ( ( ~ Y A C M M M C C C C C C C C C C C C C C C C C C C C C C C C C C C C C C C C C C C C C C C C C A A C C C C C C C C C A ~ ~ ( ' -.1.&.=.=.=.=.=.=.,.| 6.,.=.,.=.>.=.=.&.=.,.,.;.=.,.=.=.=.=.=.=.=.=.=.=.=.=.,.,.=.=.=.=.=.=.=.=.=.=.,.&.@.=.,.=.&.=.,.,.=.=.=.=.,.=.=.=.=.=.=.=.=.=.;.=.=.=.1.l.g.,.z.U.z.,.g.g.6.z.z.l.&.( ,.>.' =.&.&.=.#.$.$.5.7.0.7.9.9.<.<.@.D ~ C m C C C C C C C C C C C C C C C C C C C C C C C C C C C C C C C C C C C C C A C C C M C ( ;.&.=.=.&.&.&.&.&.@.1.&.@.J.!.U.W.!.J.c.6.j.l.=.&.&.&.&.&.&.&.&.&.&.&.&.&.&.&.&.&.&.&.&.&.&.&.&.&.&.&.&.&.&.&.&.&.&.&.&.&.@.| ' ' ' ' ( ` ~ / ~ ~ ~ ~ ~ ~ ~ Y Y A Y Y C C C C C C M M m a a s y 6 4 5 5 : # # # # X X X                                         ",
"                                                    X X X X # # 5 5 5 w 0 y y y i i a a m M M M M C C C C A Y ~ ~ ~ ~ ~ ~ ` ~ ( ` ` ( ( ' ' ' ' ' ' ' ' | ' ' ' | | | | | | | | | | | | | | | | @.@.@.@.@.@.@.@.@.@.@.@.@.@.@.@.@.@.@.@.@.@.@.@.&.&.| | | @.@.@.&.&.&.&.&.@.| @.@.@.@.&.&.' ~ C m m m m m m m m m m m m m m m m m M M M m m m m M M m m m m m m m N B B B A ~ ( A ' ' ' ;.( C Z m A A m B &.;.C m C C C A C m 8 8 C &.U.%X!.W.W.U.J.c.9.9.7.9.9.7.7.7.7.7.7.7.7.7.7.7.7.7.0.0.0.0.0.0.9.9.9.9.9.9.5.J.!.c.m C ( A A C B B C C C C C C C C C C C C C C C C C C C B M M M B B B B B B B M M M M M m C C M C ~ C m 8 m ,.*XW.S.U.U.E.W.J.c.J.S.c.J.W.W.Y.U.U.U.W.W.W.!.W.W.R.!.W.S.W.W.W.W.W.W.E.W.c.c.6.5.9.9.7.q.5.5.7.9.9.$.K n b b V V V m m m h A m =.c.( A C m B C Y ( ' ~ C C C C C C C C C C C C C A C C C C C C C C C C C C C C C C C C C C C C C C C C C C C A A C C C A C C C C C C C A C H H ` =.,.=.=.=.>.=.>.=.>.>.=.=.=.=.>.>.>.>.>.=.=.=.=.=.=.=.=.=.=.=.=.=.=.=.=.=.=.=.=.=.=.=.=.>.>.=.=.=.=.=.=.>.>.>.>.>.=.=.=.=.=.=.=.>.=.>.,.@.,.=.=.,.&.@.1.=.=.=.=.=.&.&.&.J.U.W.J.=.| &.&.&.@.&.=.=.&.@.&.' &.=.@.%.%.$.5.q.0.9.9.x./ H Z A C m C A C C C C C C C C C C C C C C C C C C C C C C C C C C C C C C C C C C C C C A A C C ~ ;.=.=.=.=.=.=.=.=.,.| &.&.l.`.W.W.).E.&.=.`.T.&.=.&.&.&.&.&.=.=.=.,.&.&.=.,.=.&.&.&.@.&.=.&.=.=.&.=.=.=.=.=.=.=.=.=.&.&.&.@.| ' ' ' ' ' ( ` ` ~ ~ ~ ~ ~ ~ ~ Y Y Y Y Y Y A C C C C M M m x p y t 4 4 5 : : # # # X X X X X                                       ",
"                                                    X X X X # # 5 5 5 w 0 y y y i a a a M M M M M C C C A A Y ~ ~ ~ ~ ~ ~ ~ ( ( ` ( ( ' ' ' ' ' ' ' ' | | ' ' ' | | | | | | @.@.@.@.@.@.@.@.@.@.@.@.@.@.@.@.@.@.@.@.@.@.@.@.@.@.@.@.@.@.@.@.@.@.' @.&.&.&.&.&.&.;.;.&.&.&.@.| | | @.&.| ( ( ~ A B B M M m m B M m m M M M M B B m M M M m m m m M M m m m m m m B B B m m B E ~ &.' &.>.>.~ m Z C m m A ~ ~ ~ C m m m m 8 m ' c.g.g.c.R.!.W.Y.W.!.W.E.H.x.9.9.9.7.7.7.7.7.7.7.7.7.7.7.7.9.9.0.0.0.0.9.9.9.9.0.0.8.8.L.`.J.A ~ ( A A C B C C C C C C C C C C C C C C C C C C C C C M M M M B B B B B B B M M M M m M M m C ~ ~ C ' ~ ~ ' z.U.!.).E.U.c.l.c.S.c.J.U.W.R.!.).).).).Y.W.W.U.Y.R.!.R.W.W.R.R.!.!.!.!.W.L.x.9.9.0.5.0.q.0.0.0.9.7.>.%.>.>.>.>.=.=.=.&.&.1.@.@.| A m A ~ ~ ~ C C C C m C C C C C C C C C C C C A A C C C C C C C C C C C C A A C C C C C C C C C C C C C C C A C C C A C C C C C C C C D / / ' =.,.=.=.>.>.>.>.=.>.>.=.=.=.=.=.>.>.>.>.=.=.=.=.=.=.=.=.=.=.=.=.=.=.=.=.=.=.=.=.=.=.=.=.>.>.=.=.=.=.=.=.>.>.=.#.#.=.>.>.>.>.>.>.>.>.>.>.=.,.&.@.>.>.&.,.=.=.=.=.=.=.&.&.,.g.T.U.6.&.&.&.=.&.&.&.&.&.=.6.!.g.' >.x.9.7.q.9.9.9.9.x.` / H D C M C A C C C C C C C C C C C C C C C A A C C C C C C C C C C C C C C C C C C C C C A C C ~ ;.=.=.=.=.=.=.=.=.&.=.c.M.J.E.l.l.6.l.c.J.l.6.=.=.=.=.=.=.=.=.=.=.@.&.&.&.@.@.&.,.=.&.=.=.&.=.=.&.=.=.=.=.=.=.=.=.=.&.&.&.@.| ' ' ' ' ' ( ` ` ~ ~ ~ ~ ~ ~ ~ Y Y Y Y Y Y A C C C C M M m x p s t 4 4 5 : : # # # X X X X X                                       ",
"                                                    X X X X # # 1 5 5 0 0 y u u i a a j M M M M C C C A A Y ~ ~ ~ ~ ~ ~ ` ` ` ` ' ' ' ' ' ' ' ' ' | | | | | | | | | | @.@.@.@.@.@.@.@.@.@.@.@.@.@.@.@.@.@.@.@.@.&.&.&.&.&.&.&.&.@.@.&.&.&.&.&.&.| @.&.&.&.@.@.&.&.&.&.&.&.&.@.@.@.@.&.' ~ ~ Y Y B m m M B B B M m m M m M B B B B M C C M C M M C C C C C C C C B B N N B A ~ ( >.&.&.>.@.~ C m C m s m M m m m ~ C C ~ M m &.*X).R.Y.R.R.Y.W.!.W.!.!.L.x.9.7.9.7.7.7.7.7.7.7.7.7.7.0.0.9.9.9.9.9.9.9.9.9.0.9.9.9.x.L.W.J.~ ( ~ A A C C C C C C C C C C C C C C C C C C C C C C C B M M M M B B B B B B B B M B C C M m C ~ ( ~ G ~ Q A U.W.U.S.!.W.U.U.U.U.J.S.).!.W.U.J.J.U.U.!.!.!.!.W.W.W.!.R.W.R.R.!.!.!.!.).!.J.9.9.0.5.w.q.0.w.w.9.9.9.9.x.x.x.x.x.x.x.x.6.x.6.~ m N A ( ( ( ~ A B C Y Y C C C C C C C C C C C C C A C C A A C C C C A C C C A C C C C C C C C A C C A A C C C C C C C C C A C C C C A A / ` ` ' =.>.=.=.>.>.>.>.=.=.>.=.=.=.=.=.=.=.>.>.=.=.=.=.=.=.=.=.=.=.=.=.=.=.=.=.=.=.=.=.=.=.=.=.>.=.=.=.=.=.=.>.>.>.>.>.>.>.>.>.>.>.>.>.>.>.>.>.@.>.>.@.=.=.&.=.=.=.=.=.=.=.=.=.@.,.J.J.6.&.=.&.=.&.&.&.@.&.,.g.^.g.@.>.c.9.5.9.0.0.9.9.q.` / ` ~ A C C A C C C C C C C C A C C C C C C C A C C C A C C C C A A C A C A C C A A C C C A C C ~ &.=.=.=.=.=.=.=.=.` ,.!.*X`.L.=.' @.=.E.E.@.` ,.&.=.=.=.=.=.=.=.=.&.=.,.=.=.=.,.,.=.&.=.,.&.&.=.&.=.=.=.=.=.=.=.=.=.=.&.&.@.| ' ' ' ' ' ( ` ` ~ ` ~ ~ ~ ~ ~ Y Y Y Y Y Y Y C C C C M M m x a s t 6 4 5 5 : # # # X X X X X                                       ",
"                                                  X X X X # # : 1 5 0 0 y y u u a a a j M M M M C C A A A Y ~ ~ ~ ~ ~ ~ ` ` ( ' ' ' ' ' ' ' ' ' | | | | | @.| | @.@.@.@.@.@.@.@.@.@.@.@.@.@.@.@.&.&.&.&.&.&.&.&.&.&.&.&.&.&.&.&.&.@.&.&.&.&.&.&.&.&.&.@.| @.@.&.' ] &.&.&.&.&.=.@.#.&.' ~ Y Y C B B B B B B B B B B B B B B B B B M C C C C M M C C C C C C C C N N B A A ~ ' ..&.,.z.z.g.z.g./ M Y A C C C C C m 8 C *.g.,.h.}.R.W.Y.R.R.Y.W.!.U.E.!.L.x.9.9.9.0.0.0.0.9.9.0.0.0.0.0.9.9.9.9.9.9.9.9.9.9.9.9.9.9.q.m.J.l.` ~ A A C C C C C C C C C C C C C C C C C C C C C C C C C C C C C C C C C C C C C C C C C C M C ~ ~ ~ G G ~ z ;.:.U.).W.E.W.J.c.S.J.c.W.E.E.W.W.!.!.).!.!.!.`.`.!.W.W.R.R.R.!.!.!.!.!.!.!.A.9.9.0.w.w.0.0.9.0.0.0.9.9.9.9.9.9.9.9.9.8.m.x.x.H h Z m ~ ~ ~ ~ C M m B C C C C C C C C C C C C C C C C C A A A C A A A C C C C C C C C C C A A A C C A A C C C C C C C C C A A A C C A A ` ' ` ' =.>.=.>.>.>.=.=.=.=.>.>.=.=.=.=.=.=.>.>.=.=.=.=.=.=.=.=.=.=.=.=.=.=.=.=.=.=.=.=.=.=.=.=.=.=.=.=.=.=.>.>.=.<.5.8.8.9.5.<.#.#.#.$.>.<.5.5.6.J.M.1.=.=.>.>.>.>.>.=.=.=.=.=.=.=.6.g.=.&.=.=.=.=.=.=.&.&.=.=.g.J.U.K.J.q.9.q.9.q.q.9.x.J ` ` ~ A C C C C C A C C C A A A C C C C C C C C C C C A A A C A A C C A A A C C A A C C C C C C ~ &.=.=.=.=.=.=.=.=.c.c.l.6.6.l.c.S.S.J.`.W.&.&.g.=.=.=.=.=.=.=.=.=.&.&.=.=.=.>.&.| =.@.&.=.&.&.=.=.=.=.=.=.=.=.=.=.=.=.=.&.@.| | ' ' ' ' ( ` ` ` ` ~ ~ ~ ~ ~ ~ Y Y Y Y Y Y A C C C M M m x a s y y 0 5 5 : # # # X X X X X                                       ",
"                                                  X X X X # # 5 1 5 t u u u u a a a a M M M M M C A A Y Q ~ ~ ~ ~ ~ ` ` ( ' ' ' ' ' ' ' ' ' | | | | | | @.@.@.@.@.@.@.&.&.&.&.&.&.&.&.&.&.&.&.&.&.&.&.@.&.&.&.&.&.&.&.&.&.&.&.&.&.&.&.&.&.&.&.&.&.&.@.@.&.=.=.&.*.,.,.,.=.@.@.#.#.=.&.' ~ ~ C M B B B B B B B B B B B B B B B B B C C C M N B B B B B M C C C B B B B A E ( ' &.&.g.Y.W.W.!.Y.;.8 C C B C m m G A ~ +.c.!.!.R.W.!.R.!.).!.R.W.W.!.(.(.P.A.9.9.q.9.0.0.0.0.0.0.0.0.0.0.0.0.0.0.0.9.9.0.0.0.0.0.q.9.9.x.g.g./ / Z C C C C C C C C C C C C C C C C C C C C C C C C C C C C C C C C C C C C C C C C C C C C Y ~ ~ ~ ) m ~ m Z m z.!.U.W.).!.c.J.!.W.S.U.W.).`.!.W.W.!.W.W.!.).!.!.!.!.!.!.!.W.W.W.W.!.!.A.9.9.q.0.0.0.0.q.q.9.0.9.q.9.9.9.9.9.9.0.9.c.>.>.~ Z H Z H ( ( ~ ~ Y C M M C C C C C C C C A A C C C C C C C C C C A A C C C C C C C C A A C C A A C C C C C C C C C C C C C C A A A C A A ` ` / ` =.>.=.>.>.>.>.>.>.>.>.>.>.>.>.>.>.>.>.=.=.=.=.=.=.=.=.=.=.=.=.=.=.=.=.=.=.=.=.=.=.=.=.=.=.=.=.=.=.=.=.>.<.5.9.m.m.q.8.9.<.$.$.$.<.9.q.q.J.K.J.6.>.<.<.#.>.>.>.>.>.>.>.=.6.>.>.=.@.=.>.>.>.>.=.=.>.>.=.&.&.c.!.^.!.H.q.m.q.r.q.q.x.` ` ` ~ Y C C A C C A C A C C C C C C A A C C C C C C C C A A A C C C C C A A C C C C C C C C C A ( &.=.=.=.=.=.=.=.=.W.J.,.@.@.6.!.,X!.).W.l.,.=.=.&.=.=.=.=.=.=.=.=.=.=.=.=.=.=.=.,.,.&.&.=.&.&.=.=.=.=.=.=.=.=.=.=.=.=.&.&.@.| | ' ' ' ' ' ( ` ( ~ ~ ~ ~ ~ ~ ~ Y Y Y Y Y Y C C C C M M M m a s y y 0 5 5 : : # # X X X X X                                       ",
"                                                  X X X # # : 5 5 0 u p u u u a a a j M M M M B C A Y E Q ~ ~ ~ ( ( ` ( ' ' ' ' ' ' ' | | | | | @.| @.@.@.&.@.@.&.&.&.&.&.&.&.&.&.&.&.&.&.&.&.&.&.&.&.&.&.&.&.&.&.&.&.&.&.&.&.&.&.&.&.&.&.&.&.&.&.&.&.&.&.&.@.' Y.W.W.U.6.=.@.#.#.=.@.' ( ~ Y M B B B B B B B B B B B B B B B B C C C C C C C C C C C C C C C C B B B A E ~ ~ ~ ] ~ A ~ A C C m Q A m m C m Q z.U.Y.Y.Y.W.R.W.Y.!.!.!.!.!.!.!.!.).).(.L.A.9.9.0.9.0.0.0.0.0.0.0.0.0.0.0.0.0.0.0.0.0.0.0.0.q.0.0.x.q.x.6.6./ ~ m C C C C C C C C C C C C C C C C C C C C C C C C C C C C C C C C C C C C C C C C m C A ~ ~ ~ ( ~ G 8 ~ ) G z O.O.) ;.U.!.c.c.L.l.W.W.W.!.!.!.!.!.).`.).!.!.!.).!.!.!.!.!.W.W.W.W.).`.J.9.9.q.0.0.0.0.0.0.9.9.q.A.q.q.q.q.0.0.0.8.x.| / A N A A A A C C C C C A Y C C C C C C C C A A C C C C C C C C C C C C C C C C C A C C A C C C A C C C C C C C C C C C A A C C C C C C A A / ` / ` =.>.=.>.>.>.>.>.>.>.>.>.>.>.>.>.>.>.>.>.=.=.=.=.=.=.=.=.=.=.=.=.=.=.=.=.=.=.=.=.=.=.=.=.=.=.=.=.=.=.=.>.9.0.q.0.q.q.q.r.9.5.<.5.7.0.r.m.8.5.x.L.Q.^.M.@.>.>.>.>.>.>.>.>.,.&.&.>.=.>.,.=.=.=.=.@.&.=.=.=.,.&.=.J.`.I.9.9.9.q.q.q.x.` ` ` ~ Y C A A C C A A A C C C C C C C A C C A C C C C C C C C C C C C C C C C C C C C C C C C ~ ' ;.=.=.=.=.=.=.=.=.&.6.,.,.>.3.U.!.=.g.6.;.,.=.| =.=.=.=.=.=.=.,.,.=.=.,.,.&.&.g.W.c.,.=.>.=.=.>.=.=.=.=.=.=.=.=.=.=.=.&.&.&.@.| | ' ' ' ' ( ` ( ( ~ ~ ~ ~ ~ ~ ~ Y Y Y Y Y C C C C M M M m a s y y 0 5 5 : : # # X X X X X                                       ",
"                                                  X X X # # 5 5 w u d d a u a a a a M M M M M B A A ~ ~ ~ ~ ~ ~ ( ( ( ' ' ' | ' | ' ' | | | | @.@.@.@.@.@.&.&.&.&.&.&.&.&.&.&.&.&.&.&.&.&.&.&.&.&.&.&.&.&.&.&.&.&.&.&.&.&.&.&.&.&.&.&.&.&.&.&.&.&.&.=.&.@.@.&.,.=X<X7X!.j.=.@.>.@.=.&.' ~ Y C M B B B B B B B B B B B B B B B B C C C C C C C C C C C C C C C C C B B C A A A C g.' C m Z m m H m C m m C m ~ c.*X%X!.W.U.Y.!.*X!.!.!.R.!.W.W.).!.(.(.P.H.9.9.w.9.0.0.0.0.0.0.0.0.0.0.0.0.0.0.0.0.0.0.0.q.q.0.0.q.8.x.l.g./ ~ C C C C C C A C C C C C C C C C C C C C C C C C C C C C C C C C C C C C C C C C C C C ~ ~ ( ( ~ ~ ~ A ~ Q G C H ~ ~ &.U.`.L.!.*XE.W.W.W.!.).`.`.`.J.`.:X).!.).`.!.!.!.!.!.%X%X).).).`.L.9.9.u.q.0.0.0.0.0.9.0.q.q.q.q.0.0.0.0.7.7.q.@.D Z b m H m m B A ~ A M M C C C C C C C C C C C C C A C C C C C C C C C C C C C C A C C C C C C C C C C C C C A A C C C C A C C C C C C A A ~ ` / ` =.>.=.>.>.>.>.>.>.>.>.>.>.>.>.>.>.>.>.>.=.=.=.=.=.=.=.=.=.=.=.=.=.=.=.=.=.=.=.=.=.=.=.=.=.=.=.=.=.=.,.>.m.r.0.0.0.0.q.r.7.7.7.7.q.r.r.0.6.>.x.`.,XwXQ.<.>.>.>.>.>.>.>.>.=.&.=.,.=.=.,.=.#.,.1.>.&.&.=.=.g.&.@.j.!.I.9.q.q.q.9.q.m.` ` ~ ~ A C A A C C C C C C C C C C C C C C C A C C C C C C C C C C C C C C C C C C C C C C C A ~ ' =.=.=.=.=.=.=.=.=.&.1.&.&.=.3.W.!.@.=.=.>.6.,.=.g.=.=.=.=.=.>.,.2.,.@.@.,.,.&.g.!.W.6.;.=.=.=.=.&.>.>.>.>.>.>.=.=.=.=.=.&.&.@.| | ' ' ' ' ( ` ( ( ~ ~ ~ ~ ~ ~ ~ Y Q Q Y Y Y C C C M M M m a s s y 0 5 5 5 : # # X X X X X                                       ",
"                                                  X X X # # 5 w 0 u v M d u a a a j M M M M M M A A ~ ~ ~ ~ ~ ~ ( ( ( ' ' | ' | | ' | | | | @.@.@.@.@.@.&.&.&.&.&.&.&.&.&.&.&.&.&.&.&.&.&.&.&.&.&.&.&.&.&.&.&.&.&.&.&.&.&.&.&.&.&.&.&.&.&.&.&.&.@.=.=.&.@.>.c.!.W.-X>X!.g.@.@.=.@.=.=.' A C C C B B B B B B B B B B B B B B B B C C C C C C C C C C C C C C C C C B C A A A C m C E m m ~ ~ N C m g.F.S.Y.c.z.!.!.R.R.R.R.Y.Y.R.!.).).).).).W.!.).).`.(.Q.I.A.q.9.0.0.0.0.0.0.0.0.0.0.0.0.0.0.0.0.0.0.0.q.q.0.0.9.5.9.x.l./ ~ B C C C C A A C C C C C C C C C C C C C C C C C C C C C C C C C C C C C C C C C C Y ~ ~ ( ( ~ ~ ~ C ' ) ~ ' ~ Z H H A ' ' H >.E.U.J.W.`.`.W.g.O.H O.c.`.).!.`.*X).).!.`.%X%X%X%X).).`.I.9.9.u.u.u.u.y.y.u.H.H.q.9.q.q.q.q.0.0.7.7.K S n S S } x.>.g.c.Y.U.,.( C C C C C C C C C C C C C C A A C C C C C C C C C C C C A A C C C C C C C C C C C C C C A A C C C C C C C C C C A A ` ' ` ' =.>.=.=.=.=.=.>.>.>.>.>.>.>.>.>.>.>.>.>.=.=.=.=.=.=.=.=.=.=.=.=.=.=.=.=.=.=.=.=.=.=.=.=.=.=.=.=.=.>.,.<.q.r.r.r.r.0.0.0.5.5.5.0.r.m.9.5.6.#.=.1.>.<.5.=.>.>.>.>.>.>.>.>.>.>.1.1.&.&.>.=.&.g.J.c.6.=.=.=.@.=.>.,.6.8.9.q.H.m.q.8.m.` ~ A ~ A C A A C C C C C C C C C C C C C C C A A C C C C C C C C C C C C C C C C C C C C C C A ~ &.=.=.=.=.=.=.=.=.=.=.,.@.,.c.U.*XW.6.=.&.>.=.&.&.=.=.=.=.;.=.>.,.1.W.6.=.J.!.U.U.`.W.6.&.;.=.>.,.;.>.>.>.>.>.>.>.>.=.=.=.&.&.@.| | | ' ' ' ( ` ( ( ~ ~ ~ ~ ~ ~ ~ ~ Q Q Y Y Y C C C M M M m x s s y 0 5 5 5 5 # # # X X X X                                       ",
"                                                X X X # # # w r u v v v v a a x x m M M M C C A C A ~ ~ ~ ~ ~ ( ' ( ' ' ' ' ' | @.@.@.@.@.@.@.@.&.&.&.&.&.&.&.&.&.&.&.&.&.&.&.&.=.=.=.=.;.;.&.&.&.&.&.&.&.&.&.&.;.;.;.&.&.&.&.&.&.&.&.&.@.| @.>.#.,.=.=.&.;.F.}.W.oX*XT.g.=.&.=.&.=.&.( A m M Y C C C C C C C C C C C C C C C C C C C C C C C C C C C C C C C C C C C C C C C C m A D m C A b D / l.*X`.!.`.*XW.!.!.!.W.R.W.R.R.!.W.).).W.W.W.!.!.W.`.!.'._.9.9.0.0.q.q.0.0.0.0.0.0.q.q.0.0.0.0.q.q.q.q.q.q.q.q.0.r.0.m.5.( ~ C C C C C C C C C C C C C C C C C A A A A C C A A B B B B B B B B C C C C C C C C A ~ ~ ( ( ( ( ( ( ( ~ ( ' ( ~ C m N C N C | z.U.U.!.>XR.*Xl.7 ~ b z.R.!.!.Y.!.*X!.%X!.).).!.*X*X!.T.J.H.x.9.9.q.q.q.q.q.q.q.q.q.r.q.q.q.u.q.7.e.L S S S J <.m.m.J.`.!.`.g.C Y Y A m A Q C C A A M ~ C s ~ B Y M C A A A C C C C A A A A C C C C A A A A A A A A A A A A A A A A A A A A A A A A ~ ~ ( ( -.g...1.1.,.=.>.,.,.=.=.@.>.>.>.#.#.=.>.>.>.=.=.=.=.=.;.&.&.&.=.=.=.>.>.&.=.=.=.=.=.=.=.=.>.=.>.>.>.,.<.q.0.r.r.0.9.5.5.<.<.9.m.H.9.5.<.>.>.=.=.=.=.=.=.&.=.,.,.>.=.=.>.&.>.=.=.,.&.&.6.,.x.W.T.l.,.,.6.g.,.,.>.>.q.m.9.q.q.x.1.g.' ~ A A A A A A A A A A A A A A A A A A A A A A A A A A A A A A A A A A A A A A A A A C C A A N ' ` =.=.=.=.=.=.=.=.=.6.| 1.,.c.*XJ.W.,.=.=.,.,.=.=.=.,.=.,.,.=.,.g.g.`.g.=.M.`.`.Q.!.U.1.&.=.,.=.=.,.>.=.=.=.=.=.>.>.>.>.#.#.=.@.| ' ' ' ' ' ' ` ` ` ~ / ~ ~ ~ ~ E A Y A A A A A C C M M M m x s s y t 4 5 5 5 # # # X X X X                                       ",
"                                                  X X # # 5 0 u t t p p s s s a m m M M C C C A A D ~ ~ ~ ~ ~ ( ( ( ' ' ' | @.&.@.@.@.@.@.@.&.&.&.&.&.&.&.&.&.&.&.&.&.&.&.&.&.&.=.=.=.=.;.;.&.&.&.&.&.&.&.&.&.&.;.;.&.&.&.&.&.&.,.;.&.&.=.=.#.@.=.=.| &.;.&.,.,.,.,.1.=.&.' | &.=.&.' ~ C M C Y C C C C C C C C C C C C C C C C C C C C C C C C C C C C C C C C C C C C C C C C A C A Z A A A ,.c.R.*X!.Y.R.!.R.!.!.!.!.W.R.R.R.!.!.).).W.W.W.!.).).`.!.`./.9.9.0.0.0.q.0.0.0.0.0.0.0.q.0.0.0.0.q.q.q.q.q.q.q.q.0.r.0.m.5.` ~ C C C C C C C C C C C C C C C C C A A A A C C A A B B B B B B B B C C C C C C C C A ~ ~ ( ( ( ( ( ( ( ~ ~ ( ( ~ ~ ~ ~ D N m C ~ ( !.U.!.!.>Xl.8 G m ~ ~ c.<X>X!.).).).*X*X*X!.R.!.-X*X`./.I.q.0.q.q.q.q.q.q.q.q.q.q.q.0.q.u.q.9.7.7.0.5.e.<.8.m.q.m.8.5.@.H m m Y A A A B m A ~ C A C C C Y j Y M C A A A A C C C C A A A C C C C A A A A A A A A A A A A A A A A A A A A A A A A ( ( ' ( *.-.&.,.>XT.6.&.@.=.,.1.,.>.=.>.>.<.>.>.>.#.#.>.=.@.=.g.' ~ A D | ,.1.>.=.=.=.=.=.>.=.>.>.>.>.>.=.=.>.<.r.r.m.q.8.5.<.<.>.<.6.9.x.9.3.,.<.>.>.>.>.=.=.=.>.,.,.=.=.>.>.>.,.1.,.,.,.=.&.,.M.T.`.`.!.U.T.W.).).!.c.>.5.q.r.m.q.5.} @.` ~ A A A A A A A A A A A A A A A A A A A A A A A A A A A A A A A A A A A A A A A A A C C C D Z | ' =.=.=.=.=.=.=.=.=.=.=.T.!.`.`.6.,.>.=.=.-.=.=.=.=.| 6.W.`.!.).).J.,.l.`.,X!.6.&.=.6.=.&.=.,.=.=.=.>.>.=.=.=.=.>.>.>.>.>.#.@.| | | ' ' ' ' ( ` ` ` ~ ~ ~ ~ ~ ~ E A Y A A A A A C C M M M m x s s y t 4 5 5 5 1 # # X X X X X                                     ",
"                                                  X # # : 5 0 u t t t t s a x x m M M M C C C A A D ~ ~ ~ ( ( ' ~ ' | | ' ' | @.@.@.@.@.@.&.&.&.&.&.&.&.&.&.&.&.&.&.;.;.&.&.&.&.=.=.=.=.=.=.=.=.=.=.=.=.=.=.=.=.=.=.=.=.=.=.=.=.=.&.&.&.=.,.;.| ;.1.1.g.;.' *.i.-.;.&.;.=.=.=.=.=.@.` D C C C A C C C C C C C C C C C C C C C C C C C C C C C C C C C C C C C C C C C C C C C C A m Z D A m A j.*X*X!.R.W.!.`.`.!.!.!.!.R.R.R.R.W.W.).).!.W.!.).*X).`.!.`.!.q.q.q.q.q.q.q.q.q.q.q.q.q.q.q.q.q.q.q.q.q.q.q.q.q.q.0.r.0.m.5.` ~ C C C C C C C C C C C C C C C C C A A A A C C C C A A A C C C C C C C C C C C C C C A ~ ~ ~ ~ ~ ~ ~ ~ ~ ~ ( ( ( ( C C B m A A A ~ *XR.*XR.U.,.C ~ ~ ~ A l.*XU.U.:X*X*X>XU.U.>X*X*XU.T./.Q.J.q.r.I.q.q.q.q.q.q.q.q.q.0.9.q.r.u.q.0.r.m.m.r.r.r.r.9.m.8.j.H m ( C A G A B B C A C B C m C ~ E j Y B C C A A A A C C C C A A A A C C A A A A A A A A A A A A A A A A A A A A A A A A ( ( ] ( -...c.c.*XU.1.&.&.=.=.=.1.=.#.>.>.>.>.<.>.>.>.>.>.>.=.&.( D N A ' =.=.@.,.,.,.=.>.>.=.,.>.>.>.>.=.>.,.<.8.8.8.9.8.<.>.$.>.>.<.5.6.4.>.>.>.>.>.>.>.>.>.>.=.,.=.&.=.1.>.#.&.&.@.&.,.,.,.1.Q.!.^.`.*X*X*X*X).*X*XJ.6.5.m.m.m.m.5.H ` ` ( C A A A A A A A A A A A A A A A A A A A A A A A A A A A A A A A A A A A A A A A A A A C A A &.| =.=.=.=.=.=.=.=.=.&.=.U.U.U.J.&.&.=.=.=.-.=.&.=.1.,.c.!.!.S.J.L.l.,.l.W.!.U.g.,.,.=.=.=.=.=.=.=.=.>.>.=.=.>.>.>.>.=.>.>.=.@.| | @.| ' ' ' ( ` ` ` ~ ~ ~ ~ ~ ~ ~ ~ ~ Y A A A A C C B M M m x s s y t 4 5 5 5 1 # # @ X X X X                                     ",
"                                                X X # : # : 5 w t 4 4 t a M v x m M M M C C C A A D ~ ~ ( ' ' ( ' ] &.| ' ' | ' @.@.@.@.&.&.&.&.&.&.&.&.&.&.&.&.&.&.;.;.&.&.&.&.=.=.=.=.=.=.=.=.=.=.=.=.=.=.=.=.=.=.=.=.=.=.=.=.@.=.>.=.;.-.*...c.-XpX-Xh.&.U.<X>.;.@.&.=.=.=.@.=.@.` D C C C A C C C C C C C C C C C C C C C C C C C C C C C C C C C C C C C C C C C C C C C C H m A D C m A ,.`.!.R.!.!.!.!.`.!.!.!.!.!.!.R.R.W.!.).%X%X!.%X).!.!.`.!.`./.q.q.q.q.q.q.q.q.q.q.q.q.q.q.q.q.q.q.r.r.q.q.q.q.q.r.r.r.0.m.5.` ~ C A A A A A A A A A A A A A A A A A A A A A A A A A A A A C C C C C C C C C C C C C C A A A A A A C A ~ ( ( ( ( ( ~ ~ A C D C C ~ U.T.R.;.C A m m m C m Z A m ~ c.).W.U.Q ( *X*XR.-X,X,X`.I.q.9.q.q.q.q.q.q.q.q.q.q.q.0.q.q.u.r.q.5.8.0.8.r.r.r.8.9.m.j.D b ~ A m Z V B Q ~ A B Y m A M A ~ B A A A A A A A A A A A A A A A A A A A A A A A A A A A A A A A A A A A A A A A A A A ~ ( ' ~ ,.&.oX!.,.>.=.=.,.,.&.@.=.=.>.<.>.@.#.1.=.1.1.=.1.g.&.A &.&.=.,.>.>.<.<.>.,.,.=.=.=.>.,.=.>.>.>.>.<.5.8.>.>.<.<.<.<.>.>.>.>.>.,.,.>.>.>.#.$.>.>.>.>.>.>.;.=.=.,.>.=.=.#.,.,.=.6.U.W.W.W.W.Q.Q.!.`.`.`.`.*X`.*X`.!.`._.H.8.m.x.J ` ' ' A A A A A A A A A A A A A A A A A A A A A A A A A A A A A A A A A A A A A A A A A Y A C A A =.@.=.=.=.=.=.=.=.=.=.=.&.1.=.=.,.=.6.=.=.,.,.=.=.,.g.`.`.`.J.=.>.g.l.!.l.=.&.=.=.=.&.&.>.,.=.&.=.=.=.>.>.=.=.>.>.>.>.>.>.>.=.=.;.&...| | ' ' ' ' ` ` ` ~ ~ ~ ~ ~ ~ ~ ~ Y A A A A A C B M M m x s s y t 7 5 5 5 1 # # @ X X X X                                     ",
"                                                  X # # # # 5 5 4 4 t p v M x p m M M M C C Y A D ~ ~ ~ ( ( ( ^ ] ] ] ' | &.&.| @.@.&.&.&.&.&.&.&.&.&.&.&.=.=.=.=.=.=.=.=.=.=.=.=.=.=.=.=.=.=.=.=.=.=.=.=.=.=.=.=.=.=.=.=.=.=.=.&.=.&...&.a.h.p.V.;X7X=Xk.-.Y.<Xc.g.&.| &.=.=.@.=.&.' ~ C C C C C C C C C C C C C C C C C C C C C C C C C C C C C C C C C C C C C C C C C C C C ~ Z A m m H @.l.`.).).*X`.!.W.!.).).).).).!.!.!.!.!.%X%X).).).).!.!.`.!.`./.q.q.q.q.q.q.q.q.q.q.q.q.q.q.q.q.q.q.r.r.q.q.q.q.q.r.r.r.0.m.5.` ~ C A A A A A A A A A A A A A A A A A A A A A A A A C C C C C A A A C C C C C C C C C C A C C C C C C A ~ ~ ~ ~ ~ ( | ( A C C A ~ &.!.R.U.' m ~ ~ A ~ ~ C C C m ( R.tXW.c.Q ' W.Y.Y.W.W.U.J.H.m.x.q.q.q.q.q.q.q.q.q.u.q.q.q.q.q.q.q.0.r.r.0.r.r.r.q.9.m.6.#.H m A B G ' ) A G A B A Y >.A s ~ Y m Q A A A A A A A A A A A A A A A A A A A A A A A A A A A A A A A A A A A A A A A A ~ ( ( ~ k.g.-X!...&.=.,.,.=.,.,.&.=.>.1.,.=.=.=.@.&.@.| @.&.' H ` @.=.=.&.| | @.&.=.=.,.>.=.>.>.>.>.>.>.>.<.5.8.#.#.>.>.>.>.>.>.>.,.5.5.5.5.5.5.>.<.<.>.>.>.>.=.=.=.,.1.,.&.>.j.,.,.>.6.J.W.U.U.E.W.!.`.`.`.`.`.*X`.*X:X,X,X_.x.<.m.x.` ` / ~ C A A A A A A A A A A A A A A A A A A A A A A A A A A A A A A A A A A A A A A A A Y A C A A ,.&.>.=.=.=.=.=.=.=.=.,.=.,.=.&.=.&.=.=.=.,.,.=.=.,.g.W.U.U.J.,.&.,.6.U.1.&.,.6.=.=.6.,.6.6.=.&.=.,.,.>.>.=.=.=.=.>.>.,.=.=.;.;.;.&.' ' | ' ' ' ` ` ` ` ` ~ ~ ~ ~ ~ ~ ~ ~ Y A A A A C M M M m x s s y t 7 5 5 5 1 # # @ X X X                                       ",
"                                                    X # # # 5 0 p a v M C C M x m M M M C C C Y ~ ~ ~ ~ ( ( _ ' ] ] ] ' ' &.&.| &.&.&.&.&.&.&.&.&.&.=.=.=.=.=.=.=.=.=.=.=.=.=.=.=.=.=.=.=.=.=.=.=.=.=.=.=.=.=.=.=.=.=.=.=.=.=.=.=.=.....a.[.=X|.1X8X1X8X7X=X<X<X>XR.l.>.=.=.,.>.=.&.' ~ C C C C C A A C C C C C C C C C C C C C C C C C C A C C C A A C C C C C C C Z Z C C C A Z m A m m &.S.!.`.`.`.`.).!.!.`.).).`.`.).).!.!.!.).%X%X).).).%X).).*X).`.!.x.q.q.q.q.q.q.q.q.q.q.q.q.q.q.q.q.q.q.r.q.q.q.q.q.r.r.r.0.m.5.` ~ C A A A A A A A A A A A A A A A A A A A A A A A A A A A A A A A A A A A A A A A A C A A C C C C A ~ ~ ~ D A ~ ~ ' ~ A C C C &.c.Y.R.>.~ ~ A C C m A m N ~ ~ m E R.U.&.' ~ ~ ' A ~ D A H ` >.x.H.H.q.q.q.q.q.q.q.q.r.r.q.q.q.q.q.q.r.r.r.0.0.r.r.r.m.H.9._.l.m V G &.F.g.B m A C m >.Y.' m A A m Y A A A A A A A A A A A A A A A A A A A A A A A A A A A A A A A A A A A A A A A A ~ ' ( ' }.oX*XR.~ ' ;.,.>.=.,.,.=.=.=.=.1.1.&./ ~ D D ~ A N ~ =./ D A A D D S Z @.&.=.,.,.>.=.=.>.>.>.>.=.>.>.<.>.=.>.>.>.>.>.>.,.5.9.8.9.9.9.9.9.q.9.<.>.>.=.&.,.=.=.=.=.,.m.`.!.`.!.!.*X*X!.!.L.W.!.`.`.`.`.`.).).`.).!.`.!.m.x.m.8.` ` D ~ A A A A A A A A A A A A A A A A A A A A A A A A A A A A A A A A A A A A A A A A A C A C A A ,.=.>.=.=.=.=.=.=.=.=.,.=.=.=.=.,.=.&.=.=.=.=.=.&.=.1.,.=.,.1.;.&.=.=.1.&.>.T.*X!.W.`.!.U.l.6.=.=.=.=.>.>.=.=.=.=.>.=.,.=.;.&.&.&.] ] | ' | ' ' ` ` ` ` ` ~ ~ ~ ~ ~ ~ ~ ~ Y A Y A Y C M M M m x s s y t 7 5 5 5 1 # # @ X X X                                       ",
"                                                    X X # : 0 u M M U U C M M M m M M M C C Y Y ~ ~ ~ ~ ( ] p.h.i.g.g.;.' | &.@.&.&.&.&.&.&.&.&.=.=.=.=.=.=.=.=.=.=.=.=.=.=.=.=.=.=.=.=.=.=.=.=.=.=.=.=.=.=.=.=.=.=.=.=.=.=.=.=.=.j.k.k.Y.4XiX8X2X1X|.1XOXR.R.B.!.U.g.=.&.&.=.=.=.@.~ A C C C C C C C C C C C C C C C C C C C C C C C C C C C C C C C C C C C C C C C C C C A A m A =.=.&.c.).*X).`.`.!.).*X*X*X).`.`.`.`.).).!.!.`.`.`.).).).%X*X`.*X).`.`.J.K.q.q.q.q.q.q.q.q.q.q.q.q.q.q.q.q.u.u.q.q.r.r.r.r.t.r.0.m.5.` ~ C A A A A A A A A A A A A A A A A A A A A A A A A A A A A A A A A A A A A A A A A A A A A A A ~ ~ ( ~ ~ A C A ~ ~ ( A ~ A m -.!.W.oX-.C ~ &.( ~ ~ C m ~ ~ ~ m m l.=.` ) ' ( A m m N N N Z ` #.$.%.q.q.q.q.q.q.q.q.q.q.q.q.q.q.q.q.8.8.9.8.0.0.0.r.q.9.x.`.E.=.' &.c.>XW.&.&.,.&.' U.*Xz.,.~ ~ A A A A A A A A A A A A A A A A A A A A A A A A A A A A A A A A A A A A A A A A A A E ' ( ..<XpXc.,.m A ` | | ' ' ' ' =.=.' ' @.' A Z D / ` ~ D ` &.' H N Z H ` ` / &.&.>.,.,.>.=.=.>.>.>.>.=.=.=.>.>.>.>.>.=.=.>.>.,.6.x.x.x.x.q.q.x.m.8.,.>.>.>.=.6.j.g.&.@.6.J.L.W.*X'.`.`.`.E.E.U.E.W.!.).`.`.`.*X*X:X*X).'.'.Q.c.5.>./ ' A A A A A A A A A A A A A A A A A A A A A A A A A A A A A A A A A A A A A A A A A A A C A A A A =.=.>.=.=.=.=.=.=.=.=.=.=.&.&.=.=.,.,.>.=.=.>.=.=.=.=.=.=.=.&.&.g.c.6.1.&.=.J.*X`.!.W.*XU.g.6.,.=.&.=.=.=.=.=.=.=.=.=.&.,.h.c.c.h.d.i.' | ' ' ' ' ( ` ` ` ~ ~ ~ ~ ~ ~ ~ ~ Y Y Y Y Y C M M M m x s s y t 7 5 5 1 1 # # X X X X                                       ",
"                                                X X X # # # w u v M M M x a a x m M M M C Y Y Y ~ ~ ~ ~ ] ,.b.}.W.=X}.z.;...&.&.&.&.&.&.&.&.&.&.=.=.=.=.=.=.=.=.=.=.=.=.=.=.=.=.=.=.=.=.=.=.=.=.=.=.=.=.=.=.=.=.=.=.=.=.=.=.=.=.2.oXsXeX=X1X4X2X2XqX4XOXs.( ..=.&.;.=.=.=.=.>.>.,.| D N C A Y C C C C C C C C C C C C C C C C C C C C C C C C C C C C C C C C C C C C C C C A A C ' `.<X*X*X`.!.`.*X*X).`.*X`.!.`.`.`.`.`.).).!.!.`.`.*X%X).%X%X%X).*X!.`.].!.'.q.q.q.q.q.q.q.q.q.q.q.q.q.q.q.q.u.u.q.q.r.r.r.r.0.r.0.m.5.` ~ C A A A A A A A A A A A A A A A A A A A A A A A A A A A A A A A A A A A A A A A A C C C A A Y ~ ~ ( ~ ~ A C C C C A m E A j >.>XT.R.,.A D ' ( ~ ~ A A A 8 C ~ m ~ / O.' ( ~ A ~ C D D Z N Z S Z n q.q.q.q.q.q.q.q.9.q.q.q.q.q.q.q.r.r.r.r.r.r.q.r.q.9.H.6.c.tX,X,XW.:X).).<X:X!.<X!.*X*X:X&.~ ~ B A A A A A A A A A A A A A A A A A A A A A A A A A A A A A A A A A A A A A A A A ^ ' ~ ' <XeX~ j A A A C Z A A A N &.,./ m Z D N C &.6.>.,.j.=.Z Z N m A ` &.>.>.=.=.,.,.>.=.>.>.>.>.>.>.>.>.>.>.=.=.=.=.=.=.=.>.>.9.x.x.q.q.q.q.q.q.9.$.#.,.1.>.U.`.U.=.| >.>.' J.`.'.`.'.`.!.!.!.W.W.!.!.`.`.`.:X).).).).'.!.c.6.@.` ~ | A m C A A A A A A A A A A A A A A A A A A A A A A A A A A A A A A A A A A A A A A A A C A A A C =.&.>.=.=.=.=.=.=.=.=.=.,.=.,.,.&.>.=.,.=.=.,.,.=.=.=.&.1.,.@.=.W.`.l.@.=.g.J.W.!.!.!.J.,.@.&.=.=.=.,.=.=.=.=.=.=.=.=.&.j.=XpX7X=X XY.' | ' ' ' ' ( ( ` ` ~ ~ ~ ~ ~ ~ ~ ~ Y Y Y Y Y C M M M m x s s y t 7 5 5 1 1 # # X X X X                                       ",
"                                                  X X X X # 0 d v M M U C M M a M M M M M Y ~ ' Y Y ( ~ Y ,.Y.W.W.&X}.h.' ' =.&.&.&.&.&.&.&.&.=.=.=.=.=.>.>.=.=.=.=.=.=.=.=.=.=.=.=.=.=.=.=.=.=.=.=.=.=.=.=.=.=.=.=.=.=.=.=.=.=.=.oX<X7X8X1X1X2X9X6X4X8Xv.k.-.&.-.,.,.&.,.,.| ,.&.` D A C C C A C A A A A C C C A A A A A A A A A A A A A A A A A A A A A A A A Y B B A C m B ~ ' ;.!.*Xl.U.<XW.`.`.`.`.`.`.`.`.`.`.`.`.`.`.`.`.!.).`.`.*X*X%X).%X%X`.`.`.`.`.`.x.q.9.q.q.q.q.m.q.q.q.q.q.q.q.q.y.u.q.q.q.q.q.r.0.r.r.0.<.' ~ C C C A C C C C A A A A A A A A A A A A A A A A A A A A A A A A A A A A A A A A A C A A C C C ~ ( ( ( ~ A A A A C A A C C A ' g.M.*X>.C ~ ' ~ D ~ A A A A A ~ ~ ~ ' ) ) ( ~ C B A A B N Z Z S J ` q.q.q.q.q.q.q.q.q.q.q.q.q.q.q.q.q.q.q.q.q.r.q.q.H.9.q.x.L.`.).).%X%X%X%X%X%X%X%X%X).*XoX&.~ G A A A A A A A A A A A A A A A A A A A A A A A A A A A A A A A A A A A A A A A A A ( ~ E -.W.Y...j A A D A A A A D m &.&.C D D m ~ A ( ;.;.| ' ` H Z ~ ` ` | =.=.&.=.=.=.=.=.=.=.=.>.>.,.<.=.=.>.=.=.=.=.&.=.>.>.=.<.6.9.9.9.q.q.q.0.q.q.9.,.=.,.,.c.E.J.g.6.g.6.6.!.!.).`.`.).!.!.!.E.E.!.`.`.`.).*X:X!.).,X`.!.U.c.=.` ` ` A C A A A A A A A A A A A A A A A A A A A A A A A A A A A A A A A A A A A A A A A A A A A C ` ~ =.>.=.=.,.=.=.;.=.=.,.@.>.,.,.6.6.>.=.&.=.,.&.,.,.| ,.,.,.=.=.g.U.J.g.&.=.,.J.-X^.U.*X!.c.,.,.>.=.&.=.=.=.g.g.=.>.1.&.>.1.>X-X;X;X&Xb.' ' ' ' ' ' ' ` ` ` ~ ~ ~ ~ ~ ~ ~ ~ Y Y A A A C B M M M m s s s t t 5 5 5 1 # # @ X X X                                       ",
"                                                  X X X X # 0 u M M M U U C M M M M M M M Q ] ,.A ~ ( ~ ^ ,.G.W.Y.W.W.h...' &.&.&.&.&.&.&.&.&.=.=.=.=.=.>.>.=.=.=.=.=.=.=.=.=.=.=.=.=.=.=.=.=.=.=.=.=.=.=.=.=.=.=.=.=.=.=.=.=.=.2.^.;X;X=X1X8X8X8X2X#XrX7XeXV.,.,.;.,.=.=.1.=.=.| / A A A A C C C A A A A C A A A A A A A A A A A A A A A A A A A A A A A A A A A B B Y Y C E ( >XpX<XO.3 &.:X`.`.`.`.`.`.`.`.`.`.`.`.`.`.`.`.`.!.).`.`.`.*X%X).%X%X`.`.`.`.`.`.H.q.q.q.q.q.q.q.q.q.q.q.q.q.q.q.y.u.q.q.q.q.q.r.r.r.r.0.<.' A B A C C C A A A C A A A A A A A A A A A A A A A A A A A A A A A A A A A A A A A A A C C C C ~ ~ ( ( ( ~ C C A A A A A A A C A ~ ~ R.>.~ ~ ( ~ C A A A A ~ ~ ( ( ( ` ) ( ( ~ A B C A E ~ Z m D >.m.q.q.q.q.q.q.q.q.q.q.q.q.q.q.q.q.q.q.q.q.q.q.q.q.q.0.H.x.I._.`.*X).%X%X%X%X%X%X%X%X).*XoX;.~ A A C A A A A A A A A A A A A A A A A A A A A A A A A A A A A A A A A A A A A A A A m E E E A B B E A A A A A A A A A C A A E ~ C ~ C Y Y C C H D A ' &.=.&.=.,.,.=.=.=.=.=.=.=.=.=.>.=.>.<.=.>.<.>.=.=.=.,.=.&.=.<.>.$.$.$.5.7.9.q.r.r.q.9.<.>.>.&.#.=.x.E.!.`.`.`.).).`.`.`.).!.E.!.E.E.!.).`.`.).).:X!.`.*X).`.).!.=.~ ` ' A m A A A A A A A A A A A A A A A A A A A A A A A A A A A A A A A A A A A A A A A A A A A C ` ~ =.>.=.=.=.=.=.=.,.>.=.6.,.@.=.J.W.g.@.=.=.=.@.,.,.| =.=.| =.J.T.g.=.=.,.,.1.c.`.`.W.!.`.!.J.g.=.=.=.,.1.&.c.,X^.>.@.6.| g.<X>X=X}.}.W.' | ' ' ' ' ' ` ` ` ~ ~ ~ ~ ~ ~ ~ ~ Y A Y A A A B M M M m s s s t t 5 5 5 1 # # @ X X X                                       ",
"                                                  X X # # # 5 0 v v v M M M M M m m M Y ^ ] &.&.A ~ ~ ~ ' &.d.G.}.U.c.i.&.&.;.@.&.&.&.&.&.&.=.=.=.=.=.=.>.>.=.=.=.=.=.=.=.=.=.=.=.=.=.=.=.=.=.=.=.=.=.=.=.=.=.=.=.=.=.=.=.=.=.=.2.k.oXpX;XY.Y.n.|.3X3X3X[.V.a.&.,.&.,.=.&.=.=.=.` H A A A C C C A A A A A A A A A A A A A A A A A A A A A A A A A A A A A A A A A B A A A B A ~ g.g.6.,.3.J.*X).`.`.`.`.`.`.`.`.`.`.`.`.`.`.`.`.!.).`.`.`.`.%X%X%X%X`.`.`.`.`.`.P.H.q.q.q.q.q.q.q.q.q.q.q.q.q.q.q.u.q.q.q.q.q.r.r.t.0.r.5.| Y C A A C C A A A C A A A A A A A A A A A A A A A A A A A A A A A A A A A A A A A A Y A C C Y ~ ( ( ( ~ ~ C C A A A A A D A C C C C g.&.~ E E A C B A E ~ ~ ( ' ' ( ~ ' ' ( ( ~ Y B B N N A ' 5.x.x.q.q.q.q.q.q.q.q.q.q.q.q.q.q.q.q.q.q.q.q.q.q.q.q.0.q.H.9.J.'.`.`.).).`.`.`.`.`.`.`.).`.`.&.~ A A C A A A A A A A A A A A A A A A A A A A A A A A A A A A A A A A A A A A A A A A A ~ ( ~ B m B E A A C A A A A C ~ s C Y C Y C m Y Y M m C ` ' / =.>.,.>.=.,.,.&.=.=.=.=.=.=.>.>.>.=.>.,.=.>.5.6.6.=.=.6.6.>.=.<.$.$.$.e.5.0.q.r.r.r.r.r.x.x.c.c.6.#.l.*X*X!.!.!.).`.`.`.).).!.E.!.E.E.!.).`.).).).:X).*X%X!.:X*X*X,.~ ( ' A m A A A A A A A A A A A A A A A A A A A A A A A A A A A A A A A A A A A A A A A A A C A A ' ~ =.>.=.,.=.=.=.,.,.=.;.g.c.l.c.!.!.J.c.c.c.c.l.c.c.=.=.1.| &.c.M.=.| ,.,.=.,.g.M.!.!.c.c.J.l.,.&.=.,.&.c.U.U.J.j.&.| =.&.,.Y.U.-X&Xb.g.| | ' ' ' ' ' ' ` ` ~ ~ ~ ~ ~ ~ ~ Q Y A Y A Y A B M M M m s s s t t 5 5 5 1 # # X X X X                                       ",
"                                                  X X # # # 5 5 v v v p a p p a M x M ~ +.*.( C Y ~ Q ~ ] _ ] g.}.g.] ..&.=.=.| &.&.&.&.&.=.=.=.=.=.=.=.>.>.=.=.=.=.=.=.=.=.=.=.=.=.=.=.=.=.=.=.=.=.=.=.=.=.=.=.=.=.=.=.=.=.=.=.=...c.pX*X-.*...Y.7XaX=Xk.*...-.>.>.,.&.=.>.@.,.` H A A A C C Y ~ A A C A A A A A A A A A A A A A A A A A A A A A A A A A A A A A A A A C M C D A 3 z g.tX,X).*X`.`.`.`.`.`.`.`.`.`.`.`.`.`.`.`.).).`.`.`.`.%X%X%X%X`.`.`.`.`.`._.L.m.q.q.q.q.x.q.q.q.q.q.q.q.q.y.u.q.q.q.q.q.r.r.0.0.m.6.| Y Q A A A A A C C C A A A A A A A A A A A A A A A A A A A A A A A A A A A A A A A A A A C C Y ~ ( ( ( ( ~ C C A A A A A A A A A ~ / ' ( ~ A A A A A A E ( ( ( ( ~ ( ` ' ' ~ ( ( E M D B m ~ j.`.E.5.q.q.q.q.q.q.q.q.q.q.q.q.q.q.q.q.q.q.q.q.q.q.q.q.q.q.H.9.H.'._.).).).`.`.`.`.`.`.`.).`.`.&.~ A A C A A A A A A A A A A A A A A A A A A A A A A A A A A A A A A A A A A A A A A A Y A ~ ( ~ E A m A C C A A A C C Y A ~ Y C Y C C M M M M ~ =.1.,.&.=.=.=.&.=.=.&.=.=.=.=.=.=.=.>.>.=.>.>.=.,.8.8.m.1.=.1.j.6.>.#.$.<.7.9.q.r.q.q.r.0.0.H.I.Q.`.,Xc.;.l.`.!.W.`.).`.`.`.`.`.).!.!.E.E.E.!.).).).).).*X%X*X).).:X!.R.>.~ ( ( ~ C A A A A A A A A A A A A A A A A A A A A A A A A A A A A A A A A A A A A A A A A A C A A ' ` ,.>.=.,.=.=.=.=.;.=.,.l.!.*X`.!.W.!.:X).!.`.!.W.U.1.=.,.>.=.=.=.=.,.,.=.&.=.,.6.U.U.,.=.=.=.&.&.,.=.&.^.pX!.&.' ,.,.>.,.&.=.;.}.!.i.' | | ' ' ' ' ' ' ` ` ~ ~ ~ ~ ~ ~ ~ Q Y A Y A Y Y B M M M m a s s t t 5 5 5 1 # # X X X X                                       ",
"                                                  X X # # # : 5 p p a a a a x M C C Y ~ ( ( ~ A ~ ~ ~ ~ ' ~ ~ -.c.&.( ' &.&.&.@.&.&.&.&.;.=.=.=.=.=.=.>.>.>.=.=.=.=.=.=.=.=.=.=.=.=.=.=.=.=.=.=.=.=.=.=.=.=.=.=.=.=.=.=.=.=.=.=.,.| ,.T.z...>.-.g.B.U.c.W.Y.g.,.;.a.=.&.U.J.@.,.` H A A C C Y Y ~ ~ A C C C A C A A A A A A A A A A A A A A A A A A A A A A A A B B A A A C A ~ l.g.6.S.*X`.!.*X`.`.`.`.`.`.`.`.`.`.`.`.`.`.`.`.).`.).`.).`.*X*X%X%X`.`.`.`.`.`.'.P.H.q.q.q.q.q.q.q.q.q.q.q.q.q.q.r.q.q.q.q.q.r.r.t.r.m.5.` A Y C A A A C C C A A A A A A A A A A A A A A A A A A A A A A A A A A A A A A A A A C A Y Y A Y ~ ' ' ( ~ C C A A C A A C C C A A A A ~ ~ A C A E A A ~ ' ' ~ E E ~ ` ' ) ~ E ~ E B A A A A ` 1.l.x.q.q.q.q.q.q.q.q.q.q.q.q.q.q.q.q.q.q.q.q.q.q.q.q.r.0.x.9.H.]._.).`.).).).`.`.`.`.`.).`.`.&.` A A C A A A A A A A A A A A A A A A A A A A A A A A A A A A A A A A A A A A A A A A C C ~ ~ B M A A A C C A A C C C M Y Y C Y C Y c.h.c.g.&.] =.>.&.=.=.>.=.=.>.>.=.=.=.=.=.=.=.>.>.>.#.>.>.=.<.x.x.8.8.5.<.8.x.8.<.<.5.9.0.q.q.q.0.H.r.9.q.H.I.Q.'.!.c.J.).!.).,X`.).).`.`.`.).).).E.E.!.!.).).).`.%X*X).*X%X%X*Xz.,.&.( ~ ~ ~ A C A A A A A A A A A A A A A A A A A A A A A A A A A A A A A A A A A A A A A A Y A C A A ' ` ,.>.=.=.=.=.=.&.&.6.J.W.`.!.W.).).).).!.!.*XW.c.l.=.&.@.,.1.=.=.1.1.&.=.=.,.=.=.l.c.&.,.=.=.,.=.=.6.c.J.T.j.=.>.>.=.<.>.=.1.@.z.l.&.&.| | | | ' ' ' ( ` ` ~ ~ ~ ~ ~ ~ ~ ~ Y A A A A Y M M M M m x s s t t 5 5 1 1 # # X X X X X                                     ",
"                                                  X X X # : : 5 5 t p p a x v M a Y ] ] T C A ~ ~ ~ ~ ( ' ( ( &.&.' &.=.@.| @.@.&.&.&.&.=.=.=.=.=.=.=.>.>.>.=.=.=.=.=.=.=.=.=.=.=.=.=.=.=.=.=.=.=.=.=.=.=.=.=.=.=.=.=.=.=.=.=.=.&.,.=.,.&.=.g.=.;.&.' &.*X>Xb.&.>.,.&.=.-X-X>.=.` H A A C C Y ~ ( ~ A C C A A C A A A A A A A A A A A A A A A A A A A A A A A A A A A B B A ~ ( >XpX<X*X:X*X).).`.`.`.`.`.`.`.`.`.`.`.`.`.`.`.`.`.`.).).).`.*X*X%X%X`.`.`.`.`.`.].P.H.q.q.q.q.q.q.q.q.q.q.q.q.q.q.r.q.q.q.q.q.r.0.r.r.r.<.` A C C A A A C C A A A A A A A A A A A A A A A A A A A A A A A A A A A A A A A A A A C A ~ Y C C ~ ( ( ~ ~ A C A A C C A A A A A C Z B E E A B A A C A ~ ' ( E A E ~ ` ) ~ A A A A M m A A m b Z @.x.q.q.q.q.q.q.q.q.q.q.q.q.q.q.q.q.q.q.q.q.q.q.q.q.u.0.q.9.I.'._.`.`.).).).`.`.`.`.`.).`.`.&.` D A C A A A A A A A A A A A A A A A A A A A A A A A A A A A A A A A A A A A A A A A E A ( ' B B E A A C A A A C C ~ A C M C ~ m Y >XfXfX7Xc.;.;.=.&.,.,.>.>.=.=.=.=.=.=.=.=.=.=.>.>.>.#.>.>.=.<.x.x.@.8.x.<.<.9.m.m.q.q.0.0.0.q.r.u.u.r.0.0.9.9.J.(.,X`.:X*X!.).`.E.).).`.`.`.`.).).!.E.!.!.(.).).`.*X*X).*X%X*X%X,.~ ' ( A C A A m A A A A A A A A A A A A A A A A A A A A A A A A A A A A A A A A A A A A A A A A C A A ' ` ,.>.=.&.=.,.=.&.=.c.*X`.`.W.U.).`.!.!.!.W.`.c.;.=.=.=.=.>.,.,.,.=.=.=.=.=.,.=.&.,.,.&.,.=.=.=.&.&.l.`.,.=.&.=.,.=.@.#.>.=.6.@.=.&.| ;.| | | | ' ' ' ' ` ` ( ~ ~ ~ ~ ~ ~ ~ Y A A A A A M M M M m x s s t t 5 5 1 1 # # X X X X X                                     ",
"X                                                 X X X # : 5 5 1 4 p v x a x v m Y ' ' T C C ~ ~ D ~ ( ( ( ' ' ( ( &.=.@.| =.@.&.&.&.&.=.=.=.=.=.=.=.>.>.>.=.=.=.=.=.=.=.=.=.=.=.=.=.=.=.=.=.=.=.=.=.=.=.=.=.=.=.=.=.=.=.=.=.=.&.6.=.&.=.>.>.@.>.,.=.&.>X<X!.z.g.-.=.,.J.T.1.@.~ D A A A C Y ~ ( ~ A C C A A A A A A A A A A A A A A A A A A A A A A A A A A A Y A A B A ( -.g.>X!.W.W.!.).`.,X`.).).).).).).).).).).).).).).`.`.`.!.!.!.`.*X*X%X%X`.`.`.`.`.`.'.P.x.q.x.x.q.q.x.x.q.x.q.q.q.q.q.r.q.q.q.q.q.r.0.r.r.0.9.>.' Y Y A C A Q ~ ~ A A A A A A A A A A A A A A A A A A A A A A A A A A A A A A A A A A A A A C C Y ~ ~ ~ A C C A A C C C A A H D A A A A A A A A A B C E ~ ~ E E ~ ( ` / / ~ E B B A Y A D D A ~ ,.K.q.q.q.q.q.q.q.q.q.q.q.q.q.q.q.q.q.q.q.q.y.y.y.y.u.0.q.q.A.P.P.'.`.).).).`.`.`.`.`.).`.`.&.) G A C A A A A A A A A A A A A A A A A A A A A A A A A A A A A A A A A A A A A A A A A m ~ ' A A E j A A A H C M A ( c.,.p.i.g.:.i.>X5X7X}.g.&.=.6.,.>.>.=.=.=.=.=.=.=.=.=.=.=.>.>.>.>.#.>.>.#.<.8.q.@.<.8.<.$.5.m.H.H.m.r.0.q.r.u.H.r.0.q.r.q.9.J._.(.).`.`.).`.`.`.).).`.`.'.'.`.`.E.E.!.!.(.(.).'.%X).).%XW.*X*X:.~ ( ~ A C A A C A A A A A A A A A A A A A A A A A A A A A A A A A A A A A A A A A A A A A A A A C A A ' ` =.>.=.=.=.=.=.&.=.J.,X).:X`.!.).!.!.`.).).*XS.&.=.,.1.6.=.&.=.=.&.=.,.=.=.=.&.&.&.=.l.g.=.&.&.,.g.M.U.1.,.,.=.=.1.1.>.<.} >.| =.&.@.' @.| | ' ' ' ' ' ` ` ( ~ ~ ~ ~ ~ ~ ~ Y A A A A A M M M M m a s s t t 5 5 1 1 # # X X X X X                                     ",
"                                                  X X X # : 5 5 t a M M M x x x ' ~ M M M Y Y Y ~ D ` ( ~ ( ] ( &.| | | | =.>.@.&.&.&.=.=.=.=.=.=.=.=.>.>.>.=.=.=.=.=.=.=.=.=.=.=.=.=.=.=.=.=.=.=.=.=.=.=.=.=.=.=.=.=.=.=.>.=.=.,.,.' =.6.#.#.5.#.1.>.@.*X7XuX7Xc.&.i.,.` &.1.=.A A A A A A A Q ( ~ A C C A Y A A A A A A A A A A A A A A A A A A A A A A A A A C B B A ( g.R.<X!.*X:X*X).*X,X).).).).).).).).).).).).).).).).`.`.`.!.!.!.).`.*X).`.`.`.`.`.`.`.'.P.x.q.x.x.x.q.q.q.q.x.q.q.q.q.q.q.q.q.q.q.q.q.0.r.q.0.x.c.,.( ~ A M C ~ ( ~ A A A A A A A A A A A A A A A A A A A A A A A A A A A A A A A A A Y A C C C A C C A A A C C A A C D A A C A A A A A C B C A A A A B B B A E ~ ~ ( ' ` ` ( ~ A B Y B M B A N D g.,Xq.q.q.q.q.q.q.q.q.q.q.q.q.q.q.q.q.q.q.q.y.y.y.y.u.0.A.q.9.9.A.(.`.).).`.`.`.`.`.`.).`.`.&.) G A C A A A A A A A A A A A A A A A A A A A A A A A A A A A A A A A A A A A A A A A A B ( ' m m ~ A A A A E C M Y ] sX7XsXaX7XfXaX>X7XuX=Xg.&.=.=.@.=.=.=.=.=.=.=.>.=.=.=.=.=.>.>.>.>.=.>.>.#.,.8.8.<.$.#.$.<.5.8.q.q.q.r.r.r.q.q.0.0.0.r.H.q.9.H._.'.'.`.).`.!.W.`.`.`.`.`.'.`.`.).E.!.!.!.(.(.).`.).W.).*X!.*X:X>.' ( ~ ~ A A A A A A A A A A A A A A A A A A A A A A A A A A A A A A A A A A A A A A A A A A A A C C A ( / =.>.=.,.=.=.=.&.=.c.`.!.'.).!.).).!.).).!.:XJ.=.=.>.&.=.=.=.=.=.,.,.&.=.,.=.=.,.&.6.*XT.g.&.=.J.`.J.&.,.&.=.,.&.=.1.>.1.} 1.=.&.@.=.@.@.| | ' ' ' ' ' ` ` ` ~ ~ ~ ~ ~ ~ ~ Y Y A A A A M M M M m a s s t t 5 5 1 1 # # X X X X                                       ",
"O                                                 X X X X # w r M x x M M Y T Q _ ^ Y C C Y Y ~ Y E ~ ~ ( ( ' ' | | @.@.@.#.#.#.&.&.&.&.&.=.=.=.=.=.=.=.=.=.=.=.=.=.>.>.>.=.=.=.=.=.=.=.=.=.>.=.>.>.=.>.>.>.>.>.1.@.,.>.>.6.&.,.,...=.1.1.,XK.>.>.=.=.| !.pXaX=X;X;X=X-Xa.-.=.=.A D Z C ~ A C ~ ( ( ( E A A A B A A A A A A A A A A A A A A A A A A A A A A A A m D ' H ( &.` ,.*X*X).).`.`.`.).`.`.`.`.`.`.`.`.`.`.`.`.`.`.`.`.`.`.).).).).`.`.`.`.`.`.`.`.`.`.,XK.c.m.q.q.m.q.H.5.q.H.9.q.H.5.q.q.q.q.q.0.r.r.0.r.0.0.q.q.>./ ~ C C C ~ ' Q A A A A A A A A A A A A A A A A A A A A A A A A A A A A A A A A A A A A A A A A A A A A A A A A A A A A A A A A A A A A A A A A A A ~ ( ( ( ( ( ' ' ( ~ Y A B B B B A A A D E E H 9.H.q.9.u.q.7.u.q.q.q.q.q.q.q.q.q.q.q.q.q.q.q.q.r.0.0.q.H.q.H._.).`.).`.*X!.!.:Xz.H c.>X' ~ C A A A A A A A A A A A A A A A A A A A A A A A A A A A A A A A A A A A A A A A A A C E E ' B E C B B E j ] =X[.|.OX5X5X3X3X1Xb.g.7X7XpX=Xl.;.>.,.=.=.=.>.>.>.>.>.>.=.=.=.>.=.=.=.=.=.>.=.<.x.q.9.x.q.<.$.e.9.m.r.9.q.q.r.r.q.r.r.r.u.q.q.q.H.0.9.]._.`.`.*X`.!.!.).*X!.`.).).:X).:XE.(.E.!.!.E.*X*X*X*X`.*X!...&.~ ( ( ~ A C A A A A A A A A A A A A A A A A A A A A A A A A A A A A A A A A A A A A A A A A A C A E / ` ,.=.,.#.=.=.@.,.&.S.!.`.).).).).).).).).!.'.U.g.,.=.&.=.1.=.,.!.M.&.=.&.&.&.,.3.c.!.!.c.6.,.U.U.!.!.U.J.=.=.=.&.&.=.=.>.>.=.=.>.=.&.&.&.@.@.| | | ' ' ` ` ` ` ` ` ~ ~ ~ ~ ~ ~ ~ Q Y A Y A C C M M m a s s t 4 5 5 5 1 # @ # X X X                                       ",
"                                                  X X X # 5 0 u v a a M C Y ~ ~ ( Q C C C Y Y C ~ ~ ( ( ( ( ' ' | | | @.@.#.#.#.=.&.&.=.&.=.=.=.=.=.=.=.=.=.=.=.>.=.>.>.=.=.=.=.=.=.=.=.>.>.>.>.>.>.>.>.=.>.>.>.>.@.,.=.>.,.#.>.=.1.@.&.>.-X].>.=.=.2.a.*X;X7X;X3X8X3X7Xh.>.>.,.A D Z C G A A ~ ( ( ( E A A A B A A A A A A A A A A A A A A A A A A A A A A A A C H ' ~ ~ ( H ;.*X`.).).`.`.`.).`.`.`.`.`.`.`.`.`.`.`.`.`.`.`.`.`.`.).).).).`.`.`.`.`.`.`.`.`.`.'.L.H.m.9.9.q.0.0.r.r.7.q.H.q.m.q.q.q.q.q.q.r.r.0.r.q.0.q.q.>./ / C A A ~ ' Q A A A A A A A A A A A A A A A A A A A A A A A A A A A A A A A A A A A A A A A A A A A A A A A A A A A A A A A A A A A A A A A A A A ~ ~ ( ( ( ( ~ ( ~ E A A A A A B B B A A A A A 9.H.r.H.I.u.0.0.q.q.q.q.q.q.x.q.q.q.q.q.q.q.q.q.u.q.9.q.u.9.u._._.:X`.`.*X).!.:X;.C c.>X>.' A ~ A A A A A A A A A A A A A A A A A A A A A A A A A A A A A A A A A A A A A A A A B A ~ ' B ~ A E E Y k [ 1X4X8X1X8X1X1X8X8Xh.*.-X>X>X!.l.=.=.=.&.>.>.>.>.>.>.>.>.=.=.=.>.=.=.=.=.=.>.=.<.x.q.9.q.r.7.<.5.0.m.r.0.r.q.q.q.r.r.r.r.0.0.r.9.q.q.9._.'.(.).).`.).).).Q.W.,X,X).).(.).!.).E.!.W.W.`.`.W.!.R.*X^.' ~ A ( ( ~ A C A A A A A A A A A A A A A A A A A A A A A A A A A A A A A A A A A A A A A A A A A A A A ~ ' ,.&.>.=.1.,.&.,.&.J.!.`.`.:X`.).!.).).).).`.M.,.=.=.=.&.&.,.6.!.c.&.,.,.1.3.>.>.S.,X*Xc.6.,.^.`.W.T.W.T.&.=.,.,.,.,.=.&.@.=.=.=.&.&.&.&.@.@.| | | } ` ` ` ` ` ` ` ~ ~ ~ ~ ~ ~ ~ Q Y A Y A C C M M m a s s t 7 5 5 5 1 # @ @ X X X                                       ",
"  X                                               X X X # 5 r i p p a M C T ~ ^ T Y M M C Y Y C Y Q ~ ~ ~ ( ' | | | | @.@.@.#.@.=.&.&.=.&.=.=.=.=.=.=.=.=.=.=.=.>.>.>.>.>.=.=.=.=.=.>.>.>.>.>.>.>.>.=.=.=.=.>.>.>.>.6.>.>.<.>.,.&.1.2.-X!.6.2.&.=.&.&...a.g.}.aX5X3X8X7Xg.&.' | Z D A C A C C ~ ' ' ( E A A A A A A A A A A A A A A A A A A A A A A A A A A A A A D ` ` ( ( ~ =.*X`.).).`.`.`.).`.`.`.`.`.`.`.`.`.`.`.`.`.`.`.`.`.`.).).).).`.`.`.`.`.`.`.`.`.`.*X!.E.I.x.9.r.r.0.7.r.m.I.<.S 9.q.q.q.q.q.q.q.r.0.r.q.0.q.q.>./ / C A A ~ ' Y A A A A A A A A A A A A A A A A A A A A A A A A A A A A A A A A A A A A A A A A A A A A A A A A A A A A A A A A A A A A A A A A A C Y ~ ( ' ( ~ ~ E Y A A A A A A B B B C C A A A q.9.9.0.0.q.u.r.q.q.q.q.q.q.x.q.q.q.q.q.q.q.q.q.u.u.q.q.q.0.r._._.:X`.).*X).!.:X,.b ( ;.( ~ A m A A A A A A A A A A A A A A A A A A A A A A A A A A A A A A A A A A A A A A A A A B ( ( j B i M m E h.V.3X8X8X8X1X8X8X1X3Xb.] b.c.c.h.,.;.=.=.,.>.>.>.>.>.>.>.>.=.=.>.>.=.=.=.=.=.>.=.<.x.x.0.q.q.0.9.9.q.r.r.q.q.q.r.q.q.q.q.q.0.r.H.q.x.H.H.'.].`.!.`.).!.!.).-XU.`.).!.`.'.).(.).W.!.W.E.!.Q.,X>X*X*X*X' A ~ ( ~ E A C A A A A A A A A A A A A A A A A A A A A A A A A A A A A A A A A A A A Y A A A A A A A A ` ' ,.@.>.,.x.g.&.,.=.J.`.*X`.`.`.`.`.).E.S.6.j.x.M.J.J.M.U.W.J.T.`.c.&.=.=.&.,.6.S.).!.c.6.c.J.W.W.`.T.g.6.,.&.&.&.&.=.=.,.,.=.=.=.&.&.&.&.@.@.| | | ' ' ` ` ` ` ` ` ~ ~ ~ ~ ~ ~ ~ Q Y A Y A C C M M m s s s t 7 5 5 5 1 # @ X X X X                                       ",
"                                                X X X X # 5 0 u p p v C Y Y T T C M M M C Y ~ ( ( ~ ~ ~ ~ ( ' | | | | @.@.@.@.@.=.&.&.&.&.=.=.=.=.=.=.=.=.=.=.=.>.>.=.>.>.=.=.=.=.>.>.>.>.>.>.>.>.>.=.=.=.=.>.>.>.,.<.>.>.>.>.<.=.&.j.wX-X,.&.a.,.a.a.-.,.-.c.;X1X5X3X;Xc.,./ / Z D A Z A C C ~ ( ' ( E A A A A A A A A A A A A A A A A A A A A A A A A A A A A C A ` ' ' ~ ` ;.*X`.).).`.`.`.).`.`.`.`.`.`.`.`.`.`.`.`.`.`.`.`.`.`.).).).).`.`.`.`.`.`.`.`.`.`.'.`.`.Q.m.q.m.r.r.5.H.q.5.} n $.q.q.q.q.q.q.0.r.0.r.q.0.q.q.>./ / C A A ~ ' Y A A A A A A A A A A A A A A A A A A A A A A A A A A A A A A A A A A A A A A A A A A A A A A A A A A A A A A A A A A A A A A A A A C C Y ~ ( ( ~ A C C A A A A A A A A A A A A A A x.9.r.H.7.0.u.0.r.r.q.q.q.q.x.q.q.q.q.q.q.q.q.q.q.u.q.q.q.9.u._._.:X`.).`.).).:Xz.m C m ~ ~ ~ B A A A A A A A A A A A A A A A A A A A A A A A A A A A A A A A A A A A A A A A A C m ( ~ C ~ C ^ Y *.aXaX3X1X1X8X1X8XyX1X8XY.] ,.&.&.&.;.;.;.=.1.>.>.>.>.>.>.>.>.=.=.>.>.=.=.=.=.=.>.=.<.x.q.0.m.q.q.q.q.q.r.r.r.q.q.q.r.q.q.q.q.m.9.9.5.5.8.x.`.!.`.*X*X`.!.!.`.W.l.).).).:X,X).).'.!.!.W.E.Q.K.Y.).).!.*X( m ~ ~ ~ A B A A A A A A A A A A A A A A A A A A A A A A A A A A A A A A A A A A A A Y Y A A A A A A A ` ' ,.#.6.j.U.c.=.=.&.U.`.*X`.`.`.`.*X).J.6.;.&.g.W.*X`.!.W.!.T.!.!.x.,.1.,.&.>.L.*X).c.3.l.'.`.!.W.!.c.&.&.=.,.,.,.,.1.,.=.&.=.=.=.&.&.&.&.@.@.| | | ' ' ` ` ` ` ` ` ~ ~ ~ ~ ~ ~ ~ Q Y A Y A C C M M m s s s t 4 5 5 5 1 # @ X @ X                                         ",
"  X                                             X X X X # 5 w 0 t x M Y Y Y C M M M M M C ~ ' &.,.&.( ~ ( ' ' ' | | | @.@.@.@.@.&.&.&.&.&.=.=.=.=.=.=.=.=.=.=.=.>.>.=.=.>.>.>.>.>.>.>.>.=.>.>.>.>.=.=.=.=.=.=.>.=.=.=.>.=.=.=.>.<.&. .~ ,.oX=X}. X}.b.p...&.,.h.7X3X8XpX}.U.' ` Z A A Z H C C ~ ( ' ( E A A A A A A A A A A A A A A A A A A A A A A A A A A A A A D ~ ' ) H ~ ' *X`.).).`.`.`.).`.`.`.`.`.`.`.`.`.`.`.`.`.`.`.`.`.`.).).).).`.`.`.`.`.`.`.`.`.`.`.`.'.!.x.9.q.q.0.r.I.o.n $.9.7.q.q.r.r.r.r.r.r.0.r.r.0.x.x.>./ / C C C ~ ' Q A A A A A A A A A A A A A A A A A A A A A A A A A A A A A A A A A A A A A A A A A A A A A A A A A A A A A A A A A A A A A A A A A C C C A ~ ~ Y C B C A A A A C B A A A A A A A A Z K 5.H.q.q.u.7.q.q.q.q.q.q.q.q.q.q.q.q.q.q.q.q.0.q.q.q.q.9.H._.`.:X`.).`.).).*X@.m A Z E A ~ ~ A A A A A A A A A A A A A A A A A A A A A A A A A A A A A A A A A A A A A A A A E m ~ E B A B E R.V.fX3X1X8X8X1XfX1X1XaXpXc.( ,.=.&.=.,.>.&.=.,.=.=.>.>.>.>.=.=.=.=.>.>.=.=.=.=.=.>.=.<.x.q.q.r.q.q.x.q.q.q.q.q.q.q.q.q.q.0.q.q.9.` J ` / / @.c.U.!.*XQ.g.( ~ ' / &.:X:X:X!.).).).:XE.E.W.W.W.c.~ l.`.*X,X&.m ~ ~ ~ C B A A A A A A A A A A A A A A A A A A A A A A A A A A A A A A A A A A A A C C A A A A A A A ~ ` =.>.M.K.!.c.&.=.&.U.`.`.`.:X`.).).).!.E.J.J.U.W.`.*XW.g.&.1.g.6.g.J.T.U.c.@.6.l.3.6.c.E.`.!.-X`.g.=.1.,.@.@.=.l.W.^.T.g.&.=.=.=.&.&.&.&.@.@.| | ' ' ' ` ` ` ` ` ` ~ ~ ~ ~ ~ ~ Q Y Y A Y A C C M M m a s s t 4 5 5 5 1 # @ X @ X                                         ",
"X X                                             X X X X # 5 w 0 p v C Y Y C M m M M C Y Y ( &.,.>.&.( ~ ( ' ' ' | | | @.@.@.&.&.&.&.&.&.&.=.=.=.=.=.=.=.=.=.=.=.>.>.=.=.>.>.>.>.>.>.>.>.=.>.>.>.>.=.=.=.=.=.>.>.=.=.=.6.j.=.>.=.>.>.=.9 ^  X;X7X8XyXY.p.*.a.>.&.R. X7XeX<XoX' ( Z A Z A ~ A C Q ~ ( ( E A C A A A A A A A A A A A A A A A A A A A A A A A A A A A ~ ~ ' ~ ` ,.>.*X`.).).`.`.`.).`.`.`.`.`.`.`.`.`.`.`.`.`.`.`.`.`.`.).).).).`.`.`.`.`.`.`.`.`.`.`.`.'.!.c.9.x.q.r.9.5.} S <.P.q.q.q.r.r.0.r.r.r.0.r.r.0.x.x.>./ / C C C ~ ' Q A A A A A A A A A A A A A A A A A A A A A A A A A A A A A A A A A A A A A A A A A A A A A A A A A A A A A A A A A A A A A A A A A A C C C C A A C A A A A A C C B A A C C C C A A Z K $.0.9.0.u.r.q.q.q.q.q.q.q.q.q.q.q.q.q.q.q.q.9.q.0.0.r.q.r.P.!.:X`.).`.`.).*X>.' ~ m A C C C A A A A A A A A A A A A A A A A A A A A A A A A A A A A A A A A A A A A A A A A ~ B A B B m ( ] aXOX8XOX1X8XfX2XqX1X3X=X XY.a.-.,.=.=.,.,.=.=.=.=.=.>.>.>.>.=.=.=.=.>.>.=.=.=.=.=.>.>.<.x.q.0.m.q.q.x.x.q.q.q.q.q.q.q.q.q.q.q.q.x.A N A Z N H =.U.!.`.T.=.A m Z m H c.c.`.!.).).).:X!.W.W.T.W.l.m g.,XW.U.| A ( ( E B B A A A C A A A A A A A A A A A A A A A A A A A A A A A A A A A A A A A A C C A A A A A A A ~ ` =.1.U.W.^.c.&.=.&.U.`.`.`.`.).).).`.`.`.`.*X*X`.!.U.c.6.=.&.=.&.l.^.!.U.c.@.6.3.@.6.W.`.W.Q.U.M.=.&.,.=.=.&.6.M.!.`.W.l.,.=.=.=.&.&.&.&.@.@.| | ' ' ' ` ` ` ` ` ` ~ ~ ~ ~ ~ ~ Q Y Y A Y A C C M M m a s s t 4 5 5 5 1 # @ @ O X                                         ",
"                                                X X X X : 0 0 r v M C C M M m m M M C Y ( ] *.,.~ ~ ~ ~ ~ ( ' | | | | @.@.@.&.&.&.&.&.&.&.=.=.=.=.=.=.=.=.=.=.=.>.>.=.=.=.=.>.>.=.>.=.=.=.=.>.>.>.>.=.=.=.=.=.=.>.=.=.U.T.2.,.=.#.>.6.&.*.^ i.1X1XaX1X1X;X<Xg.( p.h.}.7X<X=X~ / A A Z A ` ~ C A Y ~ ( ~ A C A A A A A A A A A A A A A A A A A A A A A A A A A A E ` ~ ' ) ;.W.Y.*X`.).).`.`.`.).`.`.`.`.`.`.`.`.`.`.`.`.`.`.`.`.`.`.).).).).`.`.`.`.`.`.`.`.`.`.*X'.'.!.c.q.m.q.r.e.K <.0.e.r.9.q.q.q.q.0.0.r.r.0.r.r.0.x.x.>./ / C C C ~ ' Q A A A A A A A A A A A A A A A A A A A A A A A A A A A A A A A A A A A A A A A A A A A A A A A A A A A A A A A A A A A A A A A A A A A C C C C C A A A A A A A A A A A A A A A A A `._.P.H.q.9.9.q.q.q.q.q.q.q.q.q.q.q.q.q.q.q.q.q.q.q.0.0.r.q.0.H.E.`.`.).`.`.).*X*XU.( C A ~ A A A A A A A A A A A A A A A A A A A A A A A A A A A A A A A A A A A A A A A A A A B B B A ~ ~ !.;X3X3X8X8X8X#XqX2X1X8XaXb.-.oXoX&.=.=.=.=.=.>.>.=.=.=.=.=.=.=.=.=.=.=.>.>.=.=.=.=.>.>.>.<.x.q.9.q.q.q.q.q.q.q.x.x.q.q.x.x.x.x.x.x.l.D N D A A A ` A D ~ ~ D N N A ~ Z / H !.`.`.`.).:XW.W.!.W.Y.g.m g.>X,.~ N m ~ ( E B A A A C C A A A A A A A A A A A A A A A A A A A A A A A A A A A A A A A A C C A A A A A A A / ` =.6.T.W.!.x.&.=.=.U.).`.`.!.).:X:X`.).).!.U.!.^.J.,.=.,.6.,.,.&.c.`.l.,.,.3.E.).E.W.`.*X*X!.,.=.=.,.=.' ,.W.!.`.W.l.,.&.&.=.=.=.&.&.&.&.@.@.| | | ' ' ` ` ` ` ` ` ~ ~ ~ ~ ~ ~ Q Y Y A Y C C C M M m a s s t 4 5 5 5 1 # @ O X X                                         ",
"                                                X X X X 5 r u i v M M M m x m M C M M ~ ] *.*.&.A ~ ( ( ~ ~ ( ' | | | @.@.&.&.&.&.&.&.&.&.=.=.=.=.=.=.=.=.=.=.=.>.>.=.=.=.=.=.>.=.=.=.=.=.=.>.>.>.>.=.=.=.=.=.=.=.=.=.^.-Xg.,.&.<.<.&.,.p.y p.8X5XyX1X8X7XeXg.~ ] p.}.7X7X-X~ ( A A Z D ( ~ A A C ~ ( ~ A C A A A A A A A A A A A A A A A A A A A A A A A A A A ~ ' ` ` ~ =.*X!.*X`.).).`.`.`.).`.`.`.`.`.`.`.`.`.`.`.`.`.`.`.`.`.`.).).).).`.`.`.`.`.`.`.`.`.`.`.`.`.E.x.x.x.9.q.7.n %.P.q.H.q.q.q.q.q.0.0.r.r.0.r.r.0.x.q.>./ / C C C ~ ' Q A A A A A A A A A A A A A A A A A A A A A A A A A A A A A A A A A A A A A A A A A A A A A A A A A A A A A A A A A A A A A A A A A C A A A C C C A A A A A A A A A A A A A A D D D `._.A.9.H.H.9.H.q.q.q.q.q.q.q.q.q.q.q.q.q.q.q.q.q.r.9.9.u.q.0.q.L.).`.).`.*X).`.!.).&.~ m C m ~ A A A A A A A A A A A A A A A A A A A A A A A A A A A A A A A A A A A A A A A A A ~ m B A m oXeX1X4X1X2XqX|.qX2X8X1X8Xh.] !.<X1.=.>.>.=.=.,.>.=.=.=.=.=.=.=.=.=.=.=.>.>.=.=.=.=.>.>.>.<.x.q.9.q.m.m.q.q.q.m.x.x.x.x.x.x.x.x.x.l.g.A C A B E C m ~ A N N D D A D A Z A m ).`.).*X).:XW.E.R.W.T.g.m l.pX,.Z N A ~ ( ~ B A A A B C A A A A A A A A A A A A A A A A A A A A A A A A A A A A A A A A C C A A A A A A Z ` ` ,.1.U.T.Q.l.&.,.>.E.).`.*X`.`.`.).!.!.).:X`.`.!.c.6.=.=.&.=.,.@.M.`.1.&.=.>.J.).`.`.!.E.W.W.1.,.&.,.g.&.=.U.`.-X!.j.=.=.1.=.=.=.&.&.&.&.&.&...| | ' ' ' ` ` ` ` ` ~ ~ ~ ~ ~ ~ Q Y Y A Y C C C M M m a s s t 5 5 5 5 1 # @ O O X                                         ",
"                                                X X X # w 0 u u a M M a s m Y ~ ~ ' ' ' &.&.&.:.A ' >.>.' ( ( ' ' | | ( &.=.| &.&.&.&.&.=.=.=.;.=.=.=.=.=.=.=.=.>.>.>.>.>.=.=.=.=.=.=.=.=.=.=.>.=.<.>.=.>.=.=.>.,.&.&.!.-X^.^.-.} 1. .&.*.d h.iX6XiX1X5X=XsXa.E  X3XaX7XaX!.~ ` A A A ~ ( ( ~ ~ C ~ ( E A A A B A A A A A A A A A A A A A A A A A A A A A A A A ( | ` ` / =.!.*X`.`.`.*X`.`.`.*X`.`.`.`.`.`.`.`.`.`.`.`.`.`.`.`.`.`.`.`.).).).).).).).).).`.:X:X).*X).E.`.I.P.%.n o.7.m.q.9.q.H.q.q.r.q.0.q.r.r.0.r.r.0.q.q.>./ ~ C M Y ~ ' ( M A A A A A A A A A A A A A A A A A A A A A A A A A A A A A A A A A A A A A A A A A A A A A A A A B C A A A C A A A A A C C C A A ~ C C M M C C ~ A Z ~ m &.R.,.m A C m Z ;.Y.R.c.`._.I.9.q.q.q.q.q.q.q.q.q.q.x.q.q.q.q.q.q.q.q.q.q.q.q.q.q.q.q.q.L.).`.).*X`.).*X`.!.!.R.' ~ A A A A A A A A A A A A A A A A A A A A A A A A A A A A A A A A A A A A A A A A A A A A B B A A W.7X3X3X4X4X4X6X6X6X8X1X5X8X;XB.,.,.=.>.=.&.>.,.=.>.=.=.=.=.=.=.=.=.=.=.>.>.=.=.,.,.=.=.>.5.q.x.q.9.q.9.H.9.x.5.x.x.x.@.H S H D D D A A Y A A C B B B A A B N N C N C A c.*XW.%X).:X).*XU.%X*Xz.A E 8 6.pXg.m H A ` ( E B B A A B B A A A A A A A A A A A A A A A A A A A A A A A A A A A A A A A A A C A A A A A A H &.,.=.1.T.^.E.l.=.' &.S.`.*X`.`.`.`.`.`.).).).!.E.g.;.,.3.>.&.;.l.E.!.!.!.W.E.!.).).).!.`.U.,.>.,.1.T.^.U.!.!.`.W.*X*Xl.=.J.*Xg.,.=.&.&.;.&.@.*.&.] ' ` ` &.' ' ` ( ` ( ~ ~ ~ ~ ~ Q Q Q Y Y C C C M M m x s y t 4 5 5 1 1 # @ @ O X                                         ",
"                                                X X X # w 0 u u v M M a x C Y ~ ^ _ ~ ( ] &.] ] A ( ;.&.( ~ ( ' | | @.| &.&.| =.&.&.&.&.=.=.=.=.=.=.=.=.=.=.=.=.>.>.=.=.>.>.=.=.=.=.=.=.=.=.>.>.>.<.>.#.>.=.=.>.=.1.-.Y.-XwX;X=.1.<.=.k.,.a p.n. X8X9X7X7XpX&.] b.b.Y.V.7X=X( ~ A C A H ` ' ( ~ M ~ ( ~ A A A B A A A A A A A A A A A A A A A A A A A A A A A A A ' ( ' ( >.W.!.*X*X).!.).).*X:X`.`.`.`.`.`.`.`.`.`.`.`.`.`.`.`.`.`.`.`.).).).).`.`.`.).).).).).W.*X).E.'.I.>.>.%.e.0.m.q.q.q.m.q.q.r.q.q.q.r.0.0.r.q.0.q.q.>./ ~ C A ~ ~ ~ ~ C A A A A A A A A A A A A A A A A A A A A A A A A A A A A A A A A A A A A A A A A A A A A A A A A E A C C A A A E A A A C A A A A m C ~ ~ ~ ~ A C C C A m &.!.c.' ' ' ' &.l.!.>X`.`.`.J.9.9.q.q.q.q.q.q.q.q.q.x.q.q.q.q.q.q.q.q.q.q.q.q.q.q.q.q.q.L.).`.).*X`.).*X`.).!.!...~ A A A A A A A A A A A A A A A A A A A A A A A A A A A A A A A A A A A A A A A A A A B A B A E E !.7X3X3X1X4X4X6X6X6X8X8X8X=XY.h.,.=.=.1.1.>.>.=.=.=.=.=.=.=.=.=.=.=.=.=.>.=.=.=.=.>.1.>.>.5.q.H.m.q.q.q.I.0.H.9.9.,.@./ A D H D D H E E E E E E ~ ~ ~ A m B ~ ' | ` ' &.Y.*X*X:X).*X%X*XW.U.g.;.C ( &.l.>X=.b A C ~ ( ~ B B A A C C A A A A A A A A A A A A A A A A A A A A A A A A A A A A A A A A A A A A A A A A A &.=.&.6.L.!.T.J.l.g.l.E.`.`.).`.`.`.`.`.).).).).E.6.;.>.,.>.6.l.J.!.).!.).).!.).).).).!.`.J.;.=.j.c.W.^.!.!.l.W.W.W.J.6.,.c.U.,.=.&.&.=.=.=.;.' ] ] &.' ' | ~ ' ` ` ` ( ~ ~ ~ ~ ~ Q Q Q Y C C C C M M m x s y t 4 5 5 1 1 # @ @ O X                                         ",
"                                                X X X # w w u u M M x a M Y ^ ~ _ ( Y Y ] ] ( ~ Y ~ ( ( ~ ~ ' ' ' ' ' &.&.' ..&.&.&.&.&.=.=.=.=.=.=.=.=.=.=.=.=.=.=.=.=.>.>.>.>.>.>.>.>.=.=.=.=.>.<.>.=.>.=.&.,.=.&.| T.wX;XoX-.&.} M.sXoXY T d f.fXaX7X7XfX,.( ~ W ~ ] W.}.( ~ A C Z D ` ' ` ~ M ~ ( ~ A B C C A A A A A A A A A A A A A A A A A A A A A A A A ~ ' ` ~ ` =.R.*X!.!.!.`.*X*X`.).`.`.`.`.`.`.`.`.`.`.`.`.`.`.`.`.`.`.`.`.).).).).).).`.`.`.`.`.).!.*X:X*X<Xc.b J q.q.r.r.r.q.q.q.q.q.q.q.q.q.q.0.0.r.r.0.q.q.>./ H A ~ ~ A A A C A A A A A A A A A A A A A A A A A A A A A A A A A A A A A A A A A A A A A A A A A A A A A A A A Y A B B A A A B A C C A A A A C C A C m m M A A C ~ A z &.*X*X).*X*X*X`.!.!.!.).`.`.J.9.x.x.q.q.q.q.q.q.q.q.q.q.q.q.q.q.q.q.q.q.q.q.q.q.q.q.q.q.L.).`.).`.`.!.`.`.`.*X!.&.~ A A A A A A A A A A A A A A A A A A A A A A A A A A A A A A A A A A A A A A A A A A B A A E ~ ~ !.7X1X3X3X4X4X6X6X6X2XqX5Xn.:.*.&.' =.=.=.=.=.=.=.>.=.=.>.>.>.>.>.>.>.=.>.>.=.=.=.=.=.=.#.>.9.9.q.9.9.0.r.7.H.m.x.>.D N A ~ ` ~ ~ ` ( ( ( ~ ( ( ( ' E B m ~ j.*X<X-X!.oX>X!.*X>X!.).).%X%Xl.~ A m ' W.`.pXc.D C C ( ( ~ C C A A A A A A A A A A A A A A A A A A A A A A A A A A A A A A A A A A A A Y Y A A A A A A Z @.>.&.6.T.!.!.U.T.W.!.`.`.`.`.`.`.`.`.`.).).).`.E.6.;.=.&.=.g.W.!.`.).).`.`.`.).).).).).`.J.&.=.U.!.!.^.`.T.&.W.!.J.,.&.,.,.,.=.=.=.&.&.&.@.&.] ] ] ' ( ' | ` ' ` ( ` ~ ~ ~ ~ ~ ~ ~ Q ~ Y A C C C M M m x s y t 4 5 5 1 1 @ X @ X X                                         ",
"                                                X X X : w w u i v M v v C Q ( ^ ~ Q C C ( ^ T Y ~ ~ ~ ~ ~ ~ ( ' ' &.' ' &.>.a.&.&.&.&.&.=.=.=.=.=.=.=.=.=.=.=.=.=.=.=.=.>.>.>.>.>.>.>.>.=.=.=.=.>.,.>.=.>.=.&.,.,.,.-.~.eX+XR.-.,.@.g.R.b.Y Y M *.|.;X;X=XfXg.Y Y Y T ( R.}.' ( A C C D ` ' ` ~ A ~ ^ E A C A C A A A A A A A A A A A A A A A A A A A A A A A A ( | ` H &.6.!.`.).`.`.`.*X*X`.).`.`.`.`.`.`.`.`.`.`.`.`.`.`.`.`.`.`.`.`.).).).).`.`.`.`.`.`.`.`.*X%XS.U.E.x.H 5.H.m.q.0.q.q.q.q.q.q.q.q.q.q.0.0.0.r.r.0.q.q.>./ H A ~ ~ A C A C A A A A A A A A A A A A A A A A A A A A A A A A A A A A A A A A A A A A A A A A A A A A A A A A B C A A A A B B A C C A A A C C Y Y Y ( ~ C A A m O.` G ,.!.!.*X*X*X*X*X!.U.W.*X`.`.J.9.x.H.q.q.q.q.q.q.q.q.q.q.q.q.q.q.q.q.q.q.q.q.q.q.q.q.q.q.L.).`.).`.`.!.`.`.`.*X*X;.~ Y A A A A A A A A A A A A A A A A A A A A A A A A A A A A A A A A A A A A A A A A A B A A E ( ~ !.7X;X1X3X3X4X2X6X6X2X8X5Xn.i.h.h.a.l.=.&.=.=.=.>.=.=.=.=.=.>.>.>.>.=.=.>.>.=.,.=.=.=.>.5.8.x.m.q.q.I.q.H.9.H.9.<.@.N N A ( ' ' ( ( ' ' ' ' ' ( ( ( ~ C m E >.B.Y.M.Y.*X!.Y.!.*XW.*XW.*X>Xz.m C m ' !.J.U.,.D N m ~ ( ~ C C A A A A A A A A A A A A A A A A A A A A A A A A A A A A A A A A A A A A A A A A A A A A C >.6.&.,.x.K.Q.U.W.^.`.`.`.`.`.`.`.`.`.`.).).).E.c.,.,.g.6.6.S.`.`.).!.!.).).!.).).).).!.`.E.6.g.!.`.`.!.U.l.@.M.W.j.@.=.,.&.@.=.=.=.=.&.@.@.&.&.*.p.&.( ' | ' ' ` ( ` ( ~ ~ ~ ~ ~ ~ ~ ~ Y A C C C M M m x s y t t 5 5 1 1 @ X O X                                           ",
"                                                X X # : w r u i a M M M C T ~ ^ C Y M C Q Q Y Y ~ ~ ~ ~ ( ( ( ( ' &.' ] >.U.!.,.&.&.&.&.=.=.=.=.=.=.=.=.=.=.=.=.=.=.>.>.=.=.>.>.>.>.=.=.=.=.>.>.=.>.>.>.,.=.&.,.=.oX+XoX;XwX@X-.2.,.' D ( m E ] ( Y p.eX=X7Xh.~ ( ^ ( ] }.oX' ~ A C A ~ ~ ( ` / ~ ~ E C C A A A A A A A A A A A A A A A A A A A A A A A A A A A ~ ' ' ' U.Y.*XW.:X:X*X!.!.).`.`.`.`.`.`.`.`.`.`.`.`.`.`.`.`.`.`.`.`.`.`.).).).).:X`.).).).).).).:Xc.V Z Z / >.q.x.q.q.0.0.0.q.r.q.q.q.q.q.r.q.r.0.r.r.0.q.q.>./ H A ~ ~ Y C C C A A A A A C C C A A A A A A A A A A A A A A A A A A A A A A A A A A A A A A A A A A A A A A A A A A E E A A A A A C C A A C C Y M M ~ b.U.( m m &.).`.).,X,X`.*X!.!.!.).!.E.!.:X`.`.L.x.x.x.q.m.q.q.q.q.q.q.q.q.q.q.q.q.q.q.q.q.q.q.q.q.q.q.q.q.L.).`.).*X`.!.`.!.!.*X*X;.~ A C A A A A A A A A A A A A A A A A A A A A A A A A A A A A A A A A A A A A A A A A A A B Y ~ ( !.;X;X1X3X3X4X2X6X6X6X8X8X1X1X1X7X7X-Xz.,.,.>.>.=.&.=.=.>.>.>.>.>.>.=.=.=.>.,.,.=.;.@.1.M.K.L.H.q.q.H.9.H.0.9.J S N A A A ~ ' ( ( ( ~ ` ( ' ' ` ~ A E A C N A E A m g.!.*X!.*X*X!.*X%X*X>Xl.A ~ A | !.&.C m A ` ` ( ( ~ A C A C A A A A A A A A A A A A A A A A A A A A A A A A A A A A A A A A A A C C A A A A A A D j.c.=.=.,.6.M.U.T.!.^.`.`.`.`.).).`.`.`.).).).6.,.>.l.!.!.E.`.`.).!.).).).).).).!.).).!.`.).J.U.!.W.^.J.,.,.=.,.6.=.&.,.,.&.,.&.=.=.=.&.&.=.=.] :.U.h.] ..` ` ' ` ` ` ~ ~ ~ ~ ~ ~ ~ ~ ~ Y Y C C C M M m x s y t t 5 5 1 1 @ X O X                                           ",
"                                                X X # : w r u i p M U U C Y T Y M C C M Y Y C ~ ~ ~ ~ ( ' ( ( ' ( ] ( ;.l.!.<X,.&.&.&.&.=.=.=.=.=.=.=.=.=.=.=.=.>.=.>.>.=.=.>.=.>.>.=.=.>.>.>.>.>.>.>.>.,.@.' &.=.;XwX;X+XR.V.-...&.` j ~ C A ' E 6 *.fX;XaXb.T ] ^ E ( }.-X' ~ C A H / ` ` ` ` ' ~ A B A A A A A A A A A A A A A A A A A A A A A A A A A A A A ~ ' ` ' `.*X>XR.6.J.!.).`.*X`.).`.`.`.`.`.`.`.`.`.`.`.`.`.`.`.`.`.`.`.`.).).).).`.`.).`.:X:X*X`.F.i.V ) @.6.P.x.9.q.r.r.q.0.q.r.q.q.q.q.0.q.q.q.0.r.r.0.q.q.>./ ~ C Q ( ~ C A C A A A A A C C C A A A A A A A A A A A A A A A A A A A A A A A A A A A A A A A A A A A A A A A A A A A B M B A E A C C A C C ~ ' &.Q A U.*X;.] &.g.`.:X`.`.!.!.!.<X:X:X*X).W.!.`.).`.!.A.A.x.q.H.q.q.q.q.q.q.q.q.q.q.q.q.q.q.q.q.q.q.q.q.q.q.q.q.J.).`.).*X`.!.`.!.!.*X*X&.~ A A A A A A A A A A A A A A A A A A A A A A A A A A A A A A A A A A A A A A A A A A Y A B A ~ ~ W.=X=X=X1X3X4X4X8X6X8X2X6X8XyXyXyXpXpXz.;.,.=.,.,.&.=.=.>.>.>.>.>.>.=.=.=.>.,.=.&.' @.5.K././.I.r.9.%.$.q.H.m.%.` H A A B A E E E Y ~ ~ ` ` ` / A A m A E D A A C C -.z.k.l.l.z.W.:X*X%Xl.&.C A E ( z.` m m H ' | ( ~ A C A A C A A A A A A A A A A A A A A A A A A A A A A A A A A A A A A A A A A C C A A A A A A A M.W.g.g.g.j.Q.W.W.W.!.`.`.`.`.).).`.`.`.`.).).;.>.3.S.`.`.).`.).).).).`.).).).!.!.).).W.).*X!.`.!.J.U.g.' &.6.&.&.&.=.,.=.&.,.=.=.&.&.@.@.@.@.g.h.}.h.' ..~ ' ' ` ` ` ~ ~ ~ ~ ~ ~ ~ ~ ~ Q Y C C C M M m x s y s t 5 5 1 1 @ X O X                                           ",
"                                                X X # 5 0 r u i v M C Y Y Y C M m C M M Y Y C ~ ~ ~ ~ ( ( ( ( ' ] &.' h.U.W.>X,.&.&.&.&.=.=.=.=.=.=.=.=.=.=.=.=.>.>.>.>.=.=.=.=.>.=.=.=.>.>.>.>.>.>.>.>.>.' ~ ' =.R.oXeXoX-.X.-.-.( E m D D ` | ~ A a.aX}.7Xn.Y ] ( ^ ]  X=X] ] C ~ ~ ( ` ~ ` ` ( ~ A B C A A A A A A A A A A A A A A A A A A A A A A A A A A A ( ' ` ~ !.R.*XY./ 3.W.*X:X:X`.!.`.`.`.`.`.`.`.`.`.`.`.`.`.`.`.`.`.`.`.`.).).).).).).).`.:X:X).!.V m m ' W.E.c.8.q.q.r.r.r.r.q.q.q.q.q.q.0.r.q.q.0.r.r.0.q.q.>./ ~ C ~ ( ~ C A A A A A A A A C C A A A A A A A A A A A A A A A A A A A A A A A A A A A A A A A A A A A A A A A A A B m B A Y A B A C A Y C C ( >.Y.;.C c.-XU.!.>XR.:X).).).!.,X:X!.).).).!.!.!.).).:X`.L.H.x.9.H.q.q.q.q.q.q.q.q.q.q.q.q.q.q.q.q.q.q.q.q.q.q.q.q.J.).).).`.`.!.*X!.!.*X`.&.~ A A A A A A A A A A A A A A A A A A A A A A A A A A A A A A A A A A A A A A A A A A A A B E ( ~ Y.}.=X=X1X3X4X4X8X6X2X2X1X5X5X1X=X=XpXg.&.>.=.>.1.=.>.>.>.>.>.>.>.>.=.=.=.=.=.@.` D >.6.M.Q./.I.m.9.K %.H.r.I.m.x.1.C C B B B I T E ~ / / / J H A Z C A ~ A A A A C m B m C C ( U.>X!.!.~ A C N A A H A A ~ A D / A A A B A A C C A A A A A A A A A A A A A A A A A A A A A A A A A A A A A A A A A C C A A A A A A Z M.!.M.E.T.L.'.Q.W.W.Q.).`.`.`.).).).`.`.`.).).>.l.S.E.).!.E.!.).).).).).).).`.).!.).).!.).`.!.^.^.c.g.=.@.=.=.,.=.=.,.=.&.=.=.,.=.&.&.&.&.&.&.}.Y.=Xi.~ ' ( @.' ` ` ` ~ ~ ~ ~ ~ ~ ~ ~ ~ Y Y C C C M M m x s y s t 5 5 1 1 @ X X X                                           ",
"                                                X X # 5 0 r u i M M M U T Q M s M C M M Y Y Y ~ ~ ~ ~ ( ( ( ' &.g.,.,.}.=XW.=X,.&.&.&.&.=.=.=.=.=.=.=.=.=.=.=.=.>.>.>.>.=.=.=.=.=.=.=.=.>.>.>.>.>.>.>.>.=.` A E ..oX;X<XoX-.-.X.&.m A E ~ ~ ' ~ / A &.-XY.Y.] ( ^ ' ' ( h.h.C ~ C ~ ( ( ` ~ ~ ` ( ~ E A A B A A A A A A A A A A A A A A A A A A A A A A A A A A E ( ( / !.U.U.6.=.S.).`.).).*X*X`.`.`.`.`.`.`.`.`.`.`.`.`.`.`.`.`.`.`.`.).).).).`.`.`.`.).W.c.g.g.>.>.;.<X*X6.E.x.9.8.q.r.r.r.q.q.q.q.q.r.r.q.r.0.r.r.0.q.q.>./ ~ A ~ ' Q M C A A A A A A A C C A A A A A A A A A A A A A A A A A A A A A A A A A A A A A A A A A A A C C C C C A C C ~ ' ' E m C C A ~ A A +.l.g.( m U.pX!.=XW.`.:X).:X`.).:XU.).*X:X`.).).).).).:X*XE.H.9.9.H.q.q.q.q.q.q.q.q.q.q.q.q.q.q.q.q.q.q.q.q.q.q.q.q.J.!.).).`.`.).*X`.%X*X!.&.~ A A A A A A A A A A A A A A A A A A A A A A A A A A A A A A A A A A A A A A A A A A A C B E ( ~ U.W.=X=X;X3X3X4X6X6X6X8X8X8X8X8X8X7XpXg.;.1.=.=.,.=.>.>.>.>.>.>.>.>.=.=.=.=.&.' D m ' | =.1.6.5.>.%.n ` >.` #.>.,./ m C Y A B B E ( ' ` ` J H A A C A A C B C A A C E A B ~ B C ,.l.!.*XC A ~ N A B m C C A A / ' ~ A C B A A A A A A A A A A A A A A A A A A A A A A A A A A A A A A A A A A A A A A A A A A A A A N M.!.U.`.!.J.Q.W.T.W.Q.).`.`.`.).).).`.`.`.).).3.J.).).).).!.`.).).).).).!.!.`.`.!.).).!.`.`.U.!.*Xc.=.&.,.6.| ,.=.>.,.&.>.6.=.=.=.&.>.g.z.c.c.-X X>Xg.' &./ ` ' ` ` ` ~ ~ ~ ~ ~ ~ ~ ~ ~ Y Y C C C M M m x s y s t 5 5 1 # @ O X X                                           ",
"                                                X X # 5 w 0 u d M M M Y Q T M s M M M C Y Y T ~ E E ~ ( ^ ( ..,.}.W.}.Y.W. X=Xi.| &.=.&.@.=.=.=.=.=.>.=.=.=.=.>.>.=.=.=.>.,.>.=.>.>.>.>.>.>.=.=.<.#.>.=.&.' A N C -X-X-X-Xa.&.&.;.m A &.( / ' / / 8 g.sX>.A ~ ~ ~ ( ' ~ A M M C A A ~ ( ( ~ A E ( ( ( E C B B A A A A A A A A A A A A A A A A A A A C A A A A A ~ ;.A ` *XE.~ ' <X).).).).:X,X).).).).).).).).).).).).).).).).).,X:X).).).).).).!.:X!.W.tX*X8 m !.tX*X`.:X`.`.).6.m.m.9.q.r.r.r.r.r.r.r.r.r.r.r.0.r.q.0.x.q.>./ ` ~ ( ( A B A A A A C C C A A A A A A A A A A A A A A A A A A A A A A A A A A A A A A A A A A A E C m ~ C C ( m ~ C C ~ -Xc.j B ~ b A N m ,.>X` m m G J.%X`.).*X`.`.`.`.`.`.`.`.`.).`.`.).E.!.*X).%X).!.J.q.0.q.r.r.r.r.q.q.q.q.q.q.q.q.q.q.q.q.q.q.q.q.q.q.q.q.x.6.J.`.`.).).).%X).*X*X;.~ D A A A B Y ( ~ A A A A A A A A A A A A A A A A A A A A A A A A A A A A A A A A A A A A C D ~ / Y.R.-X-X;X7X3X4X4X2X8X2X2X8X1X1XfX>XpXM.=.=.,.=.=.>.=.=.>.>.=.>.>.=.&.,.,.;.` A C C C C B A ~ ~ ~ ~ A A m b C ~ ~ Y Y M M Y C m ( g.m.H n H N b Z Z A A A A C Y Y A A A A A A C C C pXY.' B m A A A B A A B A ~ ( E A A A A A A A A A A A A A A A A A A A A A A A A A A A A A A A A A A A A A A A A E B B ~ A m C Z C c.!.U.!.!.U.W.E.E.E.W.!.`.`.`.`.`.`.`.`.`.`.`.).).).).).).).).).).).).).).).).).).).).).).).!.*XW.l.,.=.=.=.=.&.<.>.>.1.=.@.6.1.&.' >.R.7X<X}.}.Y.=Xh.( ..| ` ` ' ` ` ` ' ( ~ ~ E E E ~ E Y A B B M m M j i 4 t 0 5 5 5 # X X X X                                           ",
"                                                X X # 5 w 0 u d v M M Y Q T C M M M C C C C Y Y ~ ~ ~ ~ ~ ' -.h.Y.Y.}.}.=XoX=Xi.&.=.=.&.&.=.=.=.=.=.>.>.=.=.=.=.@.=.,.1.>.=.=.=.=.=.=.=.=.=.=.>.<.$.>.>.=.&.~ ~ m h.b.}.=Xi.g.c.B.( ~ ' ~ ~ ( ~ ~ A ' M.&.( ( &.( ( ` ~ A A A ~ A C A ( ( ~ A ~ ( ' ( ~ A B A A A A A A A A A A A A A A A A A A A A C A A A A A ~ ~ ~ @.6.g.3.g.).).:X,X).).:X).).).).).).).).).).).).).).).).`.E.).:X,X:X).!.!.).W.*X*Xl.g.,.@.W.:X`.).`.!.).U.l.J.c.9.q.0.0.0.r.r.r.r.r.r.r.r.0.r.q.0.x.q.>./ ` ~ ( ( A B A A A A C C C C Y Y A A A A A A A A A A A A A A A A A A A A A A A A A A A A A A A A C A A A m m &.&.Z V A ~ ,.-.=...A H ,.,.&.l.!.A G G G S.*X,X).).`.`.`.`.`.`.`.`.`.).`.`.).E.!.`.%X*X*X!.J.q.q.r.r.r.r.r.q.q.q.q.q.q.q.q.q.q.q.q.q.q.q.q.q.q.q.q.x.x.I.`.`.).*X*X%X%X*X%X&.) D A A A B Y ( ~ A A A A A A A A A A A A A A A A A A A A A A A A A A A A A A A A A A A A C D ` / U.W.oX*X=X3X3X3X1X1X6X2X1X8X5X3XyXW.Y.6.&.=.>.=.=.1.=.>.>.>.=.=.=.=.,.=.&.' ~ A A ~ A A Y ~ ( ' _ ( ~ ~ ~ A ~ ' ] ( T Y C B B ~ &.6.8.} J @.} } ` m A A A A Y Y Y Y A A A A A A A A k.-.~ A C A A C C A A B A ~ ( E A A A A A A A A A A A A A A A A A A A A A A A A A A A A A A A A A A A A A A A A E B B A B B H ~ A c.!.J.E.!.E.).E.E.E.W.!.`.`.`.`.`.`.`.`.`.%X`.).).).).).).).).).).).).).).).).).).).).).).).).W.`.E.,.@.=.,.=.&.>.#.} #.<.>.@.&.=.g.c.Y.=X=X=X&X X=Xh.( | ' ` / ` ` / / ` ( ~ ~ E E E E A C B Y C M M M m a y r 0 5 5 : # X X X X                                           ",
"                                                X X # 5 w 0 u d v M C Y Y C M M M M C C Y Y T ~ ~ ~ ~ ( ( &.i.b.b.U.W.}.-X X}.i.&.=.&.&.=.=.=.&.=.=.>.>.>.=.=.>.>.>.=.=.=.=.=.>.=.=.=.=.=.>.=.>.<.#.#.>.,.=.&.] ~ m m W.>X&.>.*XW.;.( ( ~ ( ( A m A m A ~ ( ~ ' ' ~ D A A ~ ~ ( A C A ~ ~ H D ~ ( ( ( ~ A C C A A A A A A A A A A A A A A A A A A A A A A A A A ' ) ' ' ' ,.E.*X).).).).).).).:X).`.`.`.`.`.`.`.`.`.`.`.`.`.`.`.,X:X).).).`.`.).).!.<X!.A C !.*X!.*X).!.!.`.,XU.g.x.x.m.H.r.0.r.r.x.r.r.r.r.r.r.0.r.r.q.x.q.>./ ` ` ( ( A B A C A A A C Y Y Y Y A A A A A A A A A A A A A A A A A A A A A A A A A A A A A A A A A A ~ m ~ ~ c.W.G Z A C m &.;Xc.N ,.*X*X!.!.!./ Z A G c.).:X`.).`.`.`.`.`.`.`.`.`.).).).).!.).`.%X:X*X!.H.9.0.r.r.r.r.r.q.q.q.q.q.q.q.q.q.q.q.q.q.q.q.q.q.q.q.q.m.x.J.`.`.).:X*X%X%X*X%X;.~ D A A A B Y ( ~ A A A A A A A A A A A A A A A A A A A A A A A A A A A A A A A A A A C A C D ` / U.T.W.!.=X;X3X1X1X3X4X4X1X4X5X8X7Xg.,.=.=.=.=.=.=.,.=.=.>.>.>.>.=.=.=.&.` D C B C A A Y ~ ( ' ' ' ( ~ ( ( ~ ( ' _ ~ M Y A C ~ 1.c.m.J.8.x.x.x.K.j.H A A A A Y Y A A A A A A A A A A E A A A A A A A A A B B Y ( ( E A A A A A A A A A A A A A A A A A A A A A A A A A A A A A A A A A A A A A A A A A B B C A A H ~ ` J.).E.E.!.E.!.E.E.E.!.!.`.`.`.`.`.`.`.`.`.%X`.).).).).).).).).).).).).).).).).).).).).).).).).!.!.J.3.&.=.=.=.,.>.<.<.>.<.<.=.&.g.Y.R.Y.W.}.}.|. X}.g.' ' ' ` ` } ' ` ~ ~ ( ^ ~ ~ E E E Y A C C B M m j a s i r 0 5 5 # # X X X X                                           ",
"                                                X X # 5 w 0 u d v M C U M M x x M M C C Y Q ^ ] A A ~ &.,.g.c.U.b.Y. XY.W.h.h.*.&.@.@.@.=.=.=.&.&.=.=.=.=.=.=.=.1.=.&.&.=.,.>.=.,.,.,.>.>.=.=.=.>.@./ @.,.,.-.] A M m &.U.W.R.a.a.' ~ ( ( ' ( C C ~ C C ( ] ~ ( ' ~ A C A ~ ( ' A C A ~ ~ A A H E E E A A B B C A A A A A A A A A A A A A A A A C A A A A A A A ~ ' ~ A ` O.&.c.:X`.!.).:X:X:X).`.`.`.`.`.`.`.`.`.`.`.`.`.`.`.`.).`.).).).*X`.).=.@.@.O.l.c.`.*X*X*X*X*X).`.*Xg.) ` ` J } K o.e.r.m.r.r.r.r.r.r.r.r.r.q.x.q.>./ ` ~ ( ( A B A C A A A C A Y Y Y A A A A A A A A A A A A A A A A A A A A A A A A A A A A A A A A ~ m C m g.z.*X*XS.3.~ C m &.sXk.8 ,.-X*X*XR.W.~ m Z H J.).).).:X`.`.`.`.`.`.`.`.`.).).).).).).`.).*X%XW.c.9.9.r.r.r.r.r.q.q.q.q.q.q.q.q.q.q.q.q.q.q.q.q.q.q.q.q.x.8.J.`.`.).).).%X%X*X%X;.~ D A A A B Y ( ~ A A A A A A A A A A A A A A A A A A A A A A A A A A A A A A A A A A C A A D ` / U.Y.Y.!.=X3X3X3X3X4X2X6X1X3X5X8X5X:.&.=.>.>.=.>.>.=.=.=.>.>.>.>.=.=.' / D A C A C C ~ ~ ( ( ' ' ' ( ( ' ' ~ E Y Y C M Y E Z A ` | / ` J @.<.j.M.>.m A A A A A C A A A A A A A A A A M B C C C A A Y A A C A ~ ' ( Y A A A A A A A A A A A A A A A A A A A A A A A A A A A A A A A A A A A A A A A A B B A A A A Z ~ ` c.).!.!.!.E.E.W.W.W.!.!.`.`.`.`.`.`.`.`.`.%X`.).).).).).).).).).).).).).).).).).).).).).).).).!.l.=.,.,.=.&.,.,.@.6.K.8.} =.5.c.T.^.}.}.}.}.}.}.Y.k.*.' | | ` ` ' ' ` ~ ~ ( ( ~ ~ E E E E Y A C M M M M a i s r 0 5 5 # # X X X X                                           ",
"                                                X X # 5 w 0 u d v M C C M M x m M M M C Y ( &.*.~ ~ ( ;.l.c.c.c.c.W.=XW.Y.*.*.] &.&.&.&.=.=.=.=.=.&.=.=.=.=.=.=.&.=.=.,.,.=.=.&.=.=.,.,.=.=.=.=.>.| Z ` =.=.>.( A ~ ~ ~ g.>X*X( ( ~ ~ ( ( ( ~ C A A ~ ( ' ( ( ~ ' ~ A D ~ ' ' ( A A A A A A A A C A A C B B A A A A A A A A A A A A A A A A A A B A A A A A A E ~ ' ( ) ' ` / ' `.`.:X`.).:X*X!.`.`.`.`.`.`.`.`.`.`.`.`.`.`.`.`.E.`.:X`.!.).).`./ b V V W.>XU.`.).).!.:X*X,X,Xl.m Z n n n n L $.r.q.r.r.r.r.r.r.r.r.r.q.x.q.>./ ` ` ( ( A B A C A A A A A C C C A A A A A A A A A A A A A A A A A A A A A A A A A A A A A A A A E m A ~ W.!.>X).:XW.A A ~ &.;Xk.h ,.^.!.`.R.Y.` G A H W.*X).!.:X`.`.`.`.`.`.`.`.`.).).!.!.).`.`.).%X%X!.J.x.q.q.r.r.r.r.q.q.q.q.q.q.q.q.q.q.q.q.q.q.q.q.q.q.q.q.q.8.I.`.'.).).).%X).*X%X&.~ D A A A B Y ( ~ A A A A A A A A A A A A A A A A A A A A A A A A A A A A A A A A A A C A C D ~ / U.W.Y.!.*X;X3X3X3X4X1X8X4X3X1X8X5X,.=.>.,.=.>.,.>.=.=.=.=.=.>.>.>.=./ D C A D H D A ` ( ' ' ( ( ( ( ( ' ' ~ Y C C C A E D Z Z Z N N n Z ' 8.K.K.,.H A A A A C C A A A A A A A A A A A A C B A A A A A A A E ( ' ~ A A A A A A A A A A A A A A A A A A A A A A A A A A A A A A A A A A A A A A A A A A B E B A D N ' ( g.U.E.!.!.!.!.W.W.W.W.!.!.`.`.`.`.`.`.`.`.%X`.).).).).).).).).).).).).).).).).).).).).).).).).W.6.@.=.,.=.=.,.=.@.x.^.x.@.#.>.Q.!.!.W.W.}.=X=X}.V.:.' ' | | ' ` ` ` ` ~ ~ ( ( ~ ~ E E E Y Y C C M M B M a s a u r 5 5 # # X X X X                                           ",
"                                                X X # 5 w 0 u d p M C U C M M M M M M C ~ ' &.,.>.] ( ] *.,.*.*.&.h.Y.W. X*.&.&.&.&.&.=.=.=.=.,.,.,.,.,.,.,.,.,.&.,.1.=.` ` &.g.` ' &.=.=.=.=.=.,.@.N ` =.=.,.~ C M C ~ &.i.,.( ~ ~ ( ( ~ ~ A A ~ m ( ' ~ ~ ' ~ ~ A C A ~ ` / D A A A A A C C C B B C C A A A A A A A A A A A A A A A A A A A A C A A A A A E ~ &./ @.&.H &.c.l.).*X:XS.@.l.*X:X`.`.`.`.`.`.`.`.`.`.`.`.`.`.`.`.:X:X`.`.:X`.S.;.~ b 6.z.c.*X!.<X:XE.>.;.=.,.6.@.b J #.>.<.%.$.7.r.q.r.r.r.r.r.r.0.r.r.q.x.q.>./ ` ( ( ( A B A C A A A Y C C C C A A A A A A A A A A A A A A A A A A A A A A A A A A A A A A A A A m >.l.:X*X*XW.W.W.m B ~ ~ a.-.C g.*X^.*X`.R.( A V V J.:X*X).`.`.`.`.`.`.`.`.`.`.).!.!.!.`.`.).*X*X*X).Q.I.H.q.q.r.r.r.q.q.q.q.q.q.q.q.q.q.q.q.q.q.q.q.q.q.q.q.x.9.L.'.'.'.:X).%X).*X%X;.~ D A A A B Y ( ~ A A A A A A A A A A A A A A A A A A A A A A A A A A A A A A A A A A C A Z A ~ ~ Y.!.Y.R.}.=X;X3X1X1X2X8X4X3X1X8X7Xi.=.=.=.=.=.,.>.=.=.=.>.>.>.>.>.>.&.( D Z Z A C N ( ` ~ ~ ~ ~ ~ ~ ~ ~ ~ Y C C C A D Z N Z S S S J Z N Z ` @.| / D A A A A C C A A A A A A A A A A A A C A A A C B A A A ~ ( ( E B A A A A A A A A A A A A A A A A A A A A A A A A A A A A A A A A A A A A A A A A E B E N A D A j.l.J.W.U.E.!.!.!.E.W.W.E.W.!.`.`.`.`.`.`.`.`.%X`.).).).).).).).).).).).).).).).).).).).).).).).).W.W.c.=.&.=.=.@.j.m.Q.^.Q.J.6.#.6.j.l.g.d.z.Y.}.;XY.] ( ..| | ' ' ` ` ( ( ( ( ( ( ~ ~ E E E Y Y M j j M j 8 4 y u r 5 5 # # X X X X X                                         ",
"                                                X X # 5 w 0 u d v M C Y Y C M M C C A ~ ' &.*.*.,.&.( ( ( ~ ( ( ' i.c.Y.}.*.&.*.&.&.=.=.&.| &.=.=.=.&.&.&.&.&.&.=.,.,.@.~ H | 1.A / @.=.=.=.=.=.>.&.N ' >.&.,.' m A ~ m m ' ' E ( ( ( ( ~ A C ~ ( ~ ' ( ' ( &.( A C B A ~ ~ A C A A A A A C C C A A C A A A A A A A A A A A A A A A A A A A A A A A A A A A ~ ( ( A ~ / ~ 3.*X*X`.`.`.=.8 O.:X:X`.`.`.`.`.`.`.`.`.`.`.`.`.`.`.`.).!.!.).*X!.;.m / Z c.dX`.,X!.c.*Xz.Z b V m m m H $.x.H.I.H.0.0.r.q.r.r.r.r.r.r.0.r.0.0.x.q.>./ ` ~ ( ( A B A C A A Y Y Y A C C A A A A A A A A A A A A A A A A A A A A A A A A A A A A A A A A A A c.*X*X*X).*X*XW.C C C m m m m ,.^.!.!.!.W.~ V H / J.).:X*X`.`.`.`.`.`.`.`.`.`.).!.E.!.`.`.).%X%X%X`.`.Q.I.q.q.q.q.q.q.q.q.q.q.q.q.q.q.q.q.q.q.q.q.q.q.q.q.q.x.9.H._._.).'.'.%X).*X%X&.~ D A A A B Y ( ~ A A A A A A A A A A A A A A A A A A A A A A A A A A A A A A A A A A A A Z A ` ` W.`.T.T.Y.}.=X3X3X1X4X4X1X4X3X8X;Xi.=.=.=.=.=.=.=.>.>.>.>.>.>.>.>.=.1.&.` D A A A A ' ` D A C A A C B B C Y B B C C D Z N D H S N n J H Z m N N Z D A A A A A A C A A A A A A A A A B B A A A A C B A C A E ~ E A B A A A A A A A A A A A A A A A A A A A A A A A A A A A A A A A A A A A A A A A A E M D N A A D !.*X).!.W.E.E.!.E.E.E.E.E.E.W.!.`.`.`.`.`.`.`.%X`.).).).).).).).).).).).).).).).).).).).).).).).).).).J.>.&.6.6.&.T.`.`.!./.Q.x.>.@.&.;.&.;.d.b.Y.=XY.] ' &.' ' ' | ` ~ ~ ( ( ~ ~ ~ E Y Y Y Y Y Y j i y i y 5 5 y u r 5 5 # # X X X X X                                         ",
"                                                X X # 5 w 0 u d v M M Y C C M m ~ T ~ ' &.,.*.&.' ( ~ ( ( ( ] ;.g.c.U.Y.}.;.] &.@.&.=.=.| ` ' &.' ` / ~ / / / / &.&.=.=.&.' / D A / &.,.,.=.=.=.=.&.A ' >.&.1.| ' E C A ~ ~ A &.( ( ~ ( ( A C ~ ~ ( ( m ' ` ~ A A C C A ~ ~ ~ A C C A C A A A A A A A A A A B B A A A A A A A A A A A A A A A A A A A A C Y ~ ' ~ &.` ` c.W.W.*X`.!.*X3.z &.,XW.`.`.`.`.`.`.`.`.`.`.`.`.`.`.`.`.*X).S.@./ @.g.S.l.c.U.`.&.( &.=.&.` m ` S.c.c.J.x.J.x.7.9.0.0.r.r.q.r.r.r.r.r.r.0.r.0.0.q.q.>.J ` ~ ( ( A B A C A A Y Y Y C C C A A A A A A A A A A A A A A A A A A A A A A A A A A A A A A A A C C c.-XW.*X).*X).U.C A A ~ A M Z ,.*X*X!.`.*X( A ,.z.!.W.).`.).`.`.`.`.`.`.`.`.`.).!.E.!.`.:X).).).).*X:X_.H.9.q.q.q.q.q.q.q.q.q.q.q.q.q.q.q.q.q.q.q.q.q.q.q.q.m.9.A.P.Q.(.).'.%X).*X%X;.~ D A A A B Y ( ~ A A A A A A A A A A A A A A A A A A A A A A A A A A A A A A A A A A A A Z A ~ ` !.*XW.U.Y.W.=X7X8X4X4X1X1X8X8X7X-X,.=.=.=.,.>.&.=.>.>.>.>.>.>.>.>.=.=.&.' ' ' | @.@.;.' ~ A A A A A B C Y Y Y A C C Z Z H @.1.1.#.J b D H Z A A Z A A A A A A A C C A A A A A A A A A A A C B B A E A C A A A A C B A A A A A A A A A A A A A A A A A A A A A A A A A A A A A A A A A A A A A A A A A j E B E C C ^.`.W.E.W.E.!.).E.E.E.E.E.E.W.!.`.`.`.`.`.`.`.%X`.).).).).).).).).).).).).).).).).).).).).).).).).!.c.>.=.g.J.J.c.Q.`.!.T.L.5.#.6.,.>.;.=.g.U.W.Y.}.Y...' ;.` ' ' ' H A A ~ Y C M m m m m B C Y Y M j i i 6 5 4 M u r 5 5 # # X X X X X                                         ",
"                                                X X # 5 5 0 u i v M M M M M M m ~ ^ ] +.&.*.*.*.Y ~ ( ' ( ' &.:.c.U.U.Y.R.=.;.&.@.&.&.=.| D ~ ,.' D m N A A Z Z &.&.=.,.=.| ` Z H H =.=.=.,.@.,.,.( D ` =.,.>.=.,.A E D m ~ ' ( &./ ~ ' ~ C ~ ~ ' ~ ~ ~ ~ ~ ~ A A C A A ~ ( C A A A A A A A A A A A A A A A A A A A A A A A A A A A A A A A A A A A A A B A ~ ( ~ ) O.` R.>XY.*X*XR.!.,.8 &.>XR.*X).*X*XU.*X!.*XW.*X,X).W.`.:X!.:X!.,.C m Z &.<X!.`.>XY.O.V V Z Z A m ` !.<X`.*X:XE.m.x.m.0.0.0.q.q.q.q.r.r.r.r.r.r.r.q.q.q.$.J ` ` ' ( A B A C A A C C C A A Y A A A A A A A A A A A A A A A A A A A A A A A A A A A A A A A A A B l.-X*X).%X*X>XU.A m D ~ j E A >.*XT.`.*XY.' Z c.!.J.).*X).`.`.`.`.`.`.`.`.`.`.).!.!.).).`.`.).).`.*X:X`.I.9.q.q.q.q.q.q.q.q.q.q.q.q.q.q.q.q.q.q.q.q.q.q.q.q.q.m.x.9.J.).'.).:X).%X%X&.~ ~ C A A B E ( ~ C A A A A A A A A A A A A A A A A A A A A A A A A A A A A A A A A A C A C D ` ` W.`.U.W.!.!.}.=X3X1X8X4X8X1X3XrXoXa.=.=.=.>.>.>.>.>.>.>.>.>.>.>.=.=.=.=.=.=.=.=.=.=.=.,.D A D N A m Y k E Y N A A A Z N / <.m.H.<.H Z Z Z H D Z Z A A A A A A A C C A B B A Y Y A B A A E m m E C B A A A A A A A A A A A A A A A A A A A A A A A A A A A A A A A A A A A A A A A A A A A A A A A A A D B A A B A T.`.!.!.W.!.!.!.!.E.E.E.E.W.!.!.!.!.`.`.`.`.).%X`.`.).).).).).).).).).).).).).).).(.).).!.!.`.).E.U.l.&.@.g.!.`.T.*X!.).!.l.>.>.>.=.&.&.3.S.!.W.U.}.Y.;.( | ' ' ` ' A 8 ~ ( m s 8 8 s j i j C Y C C M M y 5 5 5 y u 0 5 5 5 # X                                                 ",
"                                                X X # 5 5 0 u i M M x x M C Y ~ ~ ^ ] &.&.*.*.*.~ ] ,.g.l.l.h.z.c.F.U.Y.W.;.;.&.&.=.| ~ A Z ~ =.>.&.' ~ A A A A H ~ @.,.>.>.=.' A m / H ~ ` D ' 6.' A Z ~ ' &.;.,.C m A ~ &.' ( N | | A C A ~ ( ~ ~ A A ~ ~ A C A C A A ~ ( C A A A A A A A A A A A A A A A A A A A A A A A A A A A A A A A A A A A A A A A ~ ( &.' W.!.R.*X,X!.W.,X<X,.b =.>X`.W.W.).:X`.,X).U.W.~ ~ :X:X`.!.,XJ.H Z C 6.*X,.~ ~ H ~ ~ Z V A G W.*XW.W.:X*XE.`.'.K.x.q.m.r.0.0.q.q.q.q.r.r.r.r.r.r.q.0.q.q.$.J ` ~ ( ( A B A C A A C C C A Y Y A A A A A A A A A A A A A A A A A A A A A A A A A A A A A A A A ~ C g.*X).).).).W.U.~ E E C j D N &.*X,X,Xg.` m Z c.).J.E.).).:X`.`.`.`.`.`.`.`.`.).!.!.).).`.`.*X).`.`.`.Q.H.9.q.q.q.q.q.q.q.q.q.q.q.q.q.q.q.q.q.q.q.q.q.q.q.q.q.m.q.q.J._.'.`.:X).%X*X&.~ ~ C A A B E ( ~ C A A A A A A A A A A A A A A A A A A A A A A A A A A A A A A A A A C A C D ~ ~ W.`.U.W.W.W.!.-X3X3X8X1X1X3X=XR.h.&.=.=.=.=.>.>.>.>.>.>.>.>.>.>.=.=.=.=.=.=.=.=.=.=.,.g.>.g.M.M.M.a.B E E A A ~ N ` c.6.8.x.x.m.x.5.l.l.,./ N D H C A A A A A A C C A A A B M B A E m j E E Y E B Y A A A A A A A A A A A A A A A A A A A A A A A A A A A A A A A A A A A A A A A A A A A A A A A A M A B E A B D ^.`.!.!.W.!.!.!.!.E.E.E.E.W.W.!.!.!.`.`.`.`.).%X`.`.).).).).).).).).).).).).).).).!.).).).).).J.6.l.J.U.L.U.!.`.^.!.!.`.!.6.>.c.`.!.E.U.U.W.W.Y.U.R.U.&.( @.' ' ` A m 8 ~ ' ~ Y M s j s 8 8 m Y T Y C M a 4 5 5 5 5 : # # # # X X                                               ",
"                                                X X # 5 5 0 r i M M v M M Y ^ _ ^ _ ] &.&.*.*.:.~ ' ,.h.z.z.z.z.z.c.c.U.Y.&.&.&.;.=.` Z m C / &.=.;.' D Z A A A m A ( ;.=.,.1.,./ C A m N A Z ~ ,...A m C ( =.,.&.A C Z A A ~ &.&.' ~ A m A ~ ~ A A A C A A A C A C A A ~ ( C A A A A A A A A A A A A A A A A A A A A A A A A A A A A A A A A A A A A A A E ~ ( ( ' `.:XU.U.,XR.W.>X!.@.m &.!.`.,X:X`.!.`.!.,X:X!./ / :XE.*X`.`.J.m D D g.pX6.8 A m Z H H H H A U.*X*X).*X!.!.,X`.L.x.9.q.r.q.0.q.q.q.q.r.0.0.0.0.r.q.0.q.q.>./ ` ~ ' ( A B A C A A C C A Y Y Y A A A A A A A A A A A A A A A A A A A A A A A A A A A A A A A A A m g.>X*X*X*X).*XU.m N A A B A A ,.^.^.).;.V / m c.`.E.W.).`.*X`.`.`.`.`.`.`.`.`.).!.!.).).`.`.:X*X).`.).Q.J.9.q.q.q.q.q.q.q.q.q.q.q.q.q.q.q.q.q.q.q.q.q.q.q.q.r.r.q.x.L._.:X`.:X).%X*X&.( ~ A A A B E ( ~ A A A A A A A A A A A A A A A A A A A A A A A A A A A A A A A A A A A A C D ~ ` W.`.W.W.W.U.Y.oX1X3X8X=X1XaX;Xk.*.&.=.=.=.=.=.=.>.>.=.>.=.=.>.=.=.=.=.=.=.=.=.=.=.=.&.1.1.M.Q.Q.Q.j.M I j B N D N 1.M.8.6.j.9.x.H.c.l.c.,.H m D E m A A A A A A A A B C A A B B A A ( C E E E A m E A A A A A A A A A A A A A A A A A A A A A A A A A A A A A A A A A A A A A A A A A A A A A A A A M B C E m m D !.`.!.!.W.E.!.!.!.E.E.E.E.W.W.!.!.).).`.`.`.).%X`.`.).).).).).).).).).).).).).).).).).).).).).S.3.6.U.:X*X!.Q.!.!.!.!.`.!.6.3.L.,X'.*X*X`.!.W.W.W.Y.c.@.' &.' ` ~ 8 m j E ( ~ ~ M j s s i 8 8 M Y M M M M i 4 5 5 # # X # # # X X                                               ",
"                                                X X # 5 w 0 r u v M M Y Y Q ~ ~ ( _ ] ] &.*.*.:.&.,.d.h.h.z.c.c.c.c.c.c.U.&.&.&.| ' D Z A A / &.| ~ C Z A A A A Z C ~ ` / ' ;.=.&.` A Z C A A H ~ ~ D B A | ,.,.=.&.;.` C m ( W.!.A j ~ C B ~ A A A A A C C A A A C A A ~ ( C A A A A A A A A A A A A A A A A A A A A A A A A A A A A A A A A A Y A C A E ~ ( ( ~ ,.).`.:X`.>X*X-XU.&.H A D &.U.!.`.*X*X!.` ` ` @.3.E.<X!.:XS.H | N ~ m m &.H m m G >.c.S.c.c.l.!.`.).!.*X`.!.`.`.P.c.q.q.r.q.0.q.q.q.q.0.0.0.r.0.r.q.0.x.q.$./ ` ~ ' ( A B A C A A C C A Y Y Y A A A A A A A A A A A A A A A A A A A A A A A A A A A A A A A A C m l.>X*X*X).!.<XY.m m A E E A 8 ,.*X`.>Xg.b H b g.).W.!.*X`.).`.`.`.`.`.`.`.`.).).!.!.).).`.`.*X%X).`.`._.!.P.q.q.q.q.q.q.q.q.q.q.q.q.q.q.q.q.q.q.q.q.q.q.q.q.r.r.q.q.L._.'.).).).*X*X&.( ~ ~ A A B Y ( ~ A A A A A A A A A A A A A A A A A A A A A A A A A A A A A A A A A A A A C D ~ ~ W.`.`.).!.Y.Y.W.}.OX8X=X3XaX7Xk.&.,.=.=.=.=.=.=.>.>.=.=.=.=.=.=.=.=.=.=.=.=.=.=.=.=.=.<.6.x.m.M.K.j.c.k.-.2.B N 9 >.m.x.c.m.H.J.6.' / ~ / H A Z C C A A A A A A A A C B B A E A M j A s m m B E B E A A A A A A A A A A A A A A A A A A A A A A A A A A A A A A A A A A A A A A A A A A A A A A A A A A B A m m D U.`.!.!.!.E.!.!.!.E.W.E.E.W.W.W.W.!.).`.`.`.).%X`.).).).).).).).).).).).).).).).).`.).).!.).).!.S.J.W.).).^.^.!.W.`.!.!.!.J.J.E.!.!.!.!.!.W.W.W.!.Y.c.&.' &.~ A m m m m A ~ C M i j i s m a 8 y M y a M M k y 4 5 # # # # X X X                                                 ",
"                                                X @ # : w 0 u i p M C Y ~ ~ Q T ( _ ] ] &.*.:.,.d.g.g.z.z.z.c.S.c.F.S.S.U.&.&.&.' A m Z D Z D =.| ~ D ` / A Z D A Z A A m A | =.,.| D A A A A A m C A C A ` @.@.=.@.&.` A C ' Y.c.;.~ A D C C E C A A A C A A D A C A A ~ ( C A A A A A A A A A A A A A A A A A A A A A A A A A A A A A A A A A A A C A ~ ( ( ( A &.c.c.U.U.*X!.U.>.A C D 8 m g.*XU.U.Y.U.C m / ,.W.*Xc.!.U.,.m b D A A A m D &./ &.c.*X*X:X,X,X:X:X*X`.*X`.!.!.`.!.I.x.q.r.0.0.q.q.r.q.0.0.q.r.0.r.r.q.x.q.>./ ` ~ ( ( A B A C A A A A C C C C A A A A A A A A A A A A A A A A A A A A A A A A A A A A A A A A A C l.>XW.!.).!.S.z.A ~ A B A D ( j.^.!.>Xl.8 ~ ` c.!.W.!.*X*X!.`.`.`.`.`.).).).).!.!.!.!.).`.`.*X%X`.`.:X'._._.x.q.q.q.q.q.q.q.q.q.q.q.q.q.q.q.q.q.q.q.q.q.q.q.0.0.q.q.I.Q.).).).).:X*X&.( ( ~ A A B Y ( ~ C A A A A A A A A A A A A A A A A A A A A A A A A A A A A A A A A A A A Z D ) ) W.`.`.`.!.W.Y.Y.Y. X3X3X1X7X3Xb.-.,.=.=.=.>.=.=.=.=.=.=.=.=.=.=.=.=.=.=.=.=.>.>.=.=.=.<.M.M.8.m.T.T.^.oX^.Z.N / / } 8.m.m.5.6.x.>.Z Z C C A A C C A A A A A A A A A A A A B B Y ~ ' ' ' &.^ A E B A A A A A A A A A A A A A A A A A A A A A A A A A A A A A A A A A A A A A A A A A A A A A A A A A E A B A B ' &.T.`.!.!.!.E.E.E.E.!.W.W.E.W.W.W.W.!.).).`.).).%X`.).).`.`.).).).).).).).).).).).).).).).).).).`.).'.).W.W.^.*X`.!.).!.).`.`.`._.!.`.).).!.!.W.W.W.Y.c.&.@.&.~ N 8 m j j E ~ M M M M s y a j y 6 y 5 6 i M M d y 5 : : # # X X X                                                 ",
"                                                X @ # : w 0 u i v v M C Y Q ~ ^ ^ _ ] ] &.*.:.,.,.i.d.g.g.z.z.z.S.F.J.J.U.&.&.&.&.D b Z A m D ,.=.&.;.;.` N N D D C A A N ~ =.1.,.@.A A A Z A B C Y C C Z A / / >.H A N A ~ A ~ ~ >XU.m D H 8 ~ C C A C C C A A A C A A ~ ( C A A A A A A A A A A A A A A A A A A A A A A A A A A A A A A A A A A A A A E ~ ( ( ~ V ) ~ m ~ R.c.A ~ N Z ~ N A g.-X;.C m ~ m Z J.U.>XU.b A Z A m N ' m A ~ m =.*X!.Y.R.`.).).`.).W.!.`.`.!.!.`.*X`.`.Q.H.q.0.0.0.q.q.q.q.r.r.0.0.q.r.r.q.x.q.>./ ` ~ ' ( A B A C A A A A C C C C A A A A A A A A A A A A A A A A A A A A A A A A A A A A A A A A A C l.*X!.*X:X*X( ~ m A m A A ( *X!.^.!.!.g.m c.S.E.W.U.E.).*X).`.`.`.`.`.`.).).).!.!.!.!.).`.`.*X*X`.`.`.`.`.`.x.x.q.q.q.q.q.q.q.q.q.q.q.q.q.q.q.q.q.q.q.q.q.q.0.0.q.q.A.L.(._.`.).:X*X&.( ( ~ A A B Y ( ~ C A A A A A A A A A A A A A A A A A A A A A A A A A A A A A A A A A A A Z D ) ) W.`._.(.!.W.W.Y.W. X8XrX3X;X3Xb.&.&.=.=.=.>.=.=.=.=.>.>.=.=.=.=.=.=.=.=.=.=.>.>.=.=.@.>.Q.Q.8.m.K.T.k.B.R.>.9 1./.M.5.x.8.` Z J ` Z Z G A m m A E A A A A A A A A A C E E B M ( k.*X!.*X*X,.A M m Y A A A A A A A A A A A A A A A A A A A A A A A A A A A A A A A A A A A A A A A A A A A A A A A A D B B A ~ k.U.*X`.`.).!.E.E.E.E.!.W.E.E.W.W.W.W.!.!.).`.).).%X`.).`.`.`.`.).).).).).).).).).).).(.).`.`.).).).).`.).!.!.!.!.^.!.!.!.`.`.!.!.`.).`.`.).!.).!.W.W.W.c.@.@.&.~ N m m j 8 ~ ' E ~ ( Y M y y i i y y 6 y y M M M y 5 # # # # X X X X                                               ",
"                                                X @ # : 5 0 u i v v M C Y Q ~ ( _ ] ] ] &.*.,.,.d.d.g.z.c.c.c.S.c.J.J.J.U.&.&.&.&.~ m C A N ~ ,.>.,.>...~ ~ A C D A A ~ A ~ &.;.>.&.A A A B E C ~ Y A A C Z D J >.D A A ~ ' ~ m A oXB.m C ~ m A A C C C A A A A A C A A ~ ( C A A A A A A A A A A A A A A A A A A A A A A A A A A A A A A A A A C A A A A A E ~ ~ Z V m A &.*XJ.8 A A N ~ D E ,.!.&.~ Z A H m W.`.*XU./ H Z H A m N N E D A 6.-X>X!.!.!.!.).*X`.*X*X:X:X).!.'.'.`.`.`.J.q.7.r.r.q.q.q.q.r.r.r.0.q.r.r.q.x.q.>./ ( ( ' ( A B A B A A Y Y Y Y C C A A A A A A A A A A A A A A A A A A A A A A A A A A A A A A A A A B g.*X*X*X!.c.G V ~ ~ m ~ B ..-X^.-X^.U.,.m U.`.!.W.W.E.!.`.`.`.`.`.`.`.`.).).).!.E.!.!.).`.`.`.`.`.`.`.).).).x.x.q.q.q.q.q.q.q.q.q.q.q.q.q.q.q.q.q.q.q.q.q.q.0.r.r.q.q.A.Q.`.`.).*X*X&.~ ( ~ A A B E ( ~ C A A A A A A A A A A A A A A A A A A A A A A A A A A A A A A A A A A A Z D ` ~ W.`._.(.!.W.R.Y.W. X3X8X3X7XeXb...-.=.=.>.>.>.>.=.>.>.>.>.>.=.>.=.=.=.=.=.=.>.>.>.>.>.1.`.`.x.M.K.M.R.T.~.2.D 6.K.j.x.q.6.` b m G Z A A ~ ~ ~ A A A C C A A A A A A B A E A B ( k.oXoX!.!.g.' ~ A E A A A A A A A A A A A A A A A A A A A A A A A A A A A A A A A A A A A A A A A A A A A A A A A A B A A B E Y.`.-X`.).).!.!.E.E.E.W.W.E.E.W.W.W.W.!.!.).).).).*X`.).`.`.`.`.).).).).).).).).).).).(.).).).`.).!.!.W.!.`.).!.W.Q.^.).!.`.).E.E.(.!.).(.!.!.!.!.W.W.E.c.@.@.&.~ B m j j j E ' ( ' ~ Y B m y y s i y y 6 0 a M d y 5 # # # # X X @ X   X                                           ",
"                                                X @ # : 5 0 r p v M M Y T Q Q Q _ ] ] ] &.*.,.i.i.d.3.d.g.z.c.c.c.S.S.J.U.&.&.&.( ~ C m C C ~ &.;.>.' ~ ( >.&.m A C A A C C A C =.&.C A A m ~ C A C C A A Z A H H b D A m ~ ' ~ ' A A A m A ~ Z D A A A A A A A A C A A ~ ( C A A A A A A A A A A A A A A A A A A A A A A A A A A A A A A A A A B A Y A B B A Q m / m H !.*X`.c.' ` A N D N m ~ ~ m ~ Z m ` m !.R.~ m C A Z A A A m g.^.!.^.!.!.!.R.`.:X).!.*X*X*X!.!.`.`.`.*X!.!.`.`.I.0.7.r.r.q.q.q.q.r.0.r.r.r.r.r.q.q.q.$./ ` ( ' ( A B A B A A Y Y Y A C C A A A A A A A A A A A A A A A A A A A A A A A A A A A A A A A A A B l.>X*XW.:.B A ( !.U.~ A 9 | *X^.!.>.A / 8 J.).U.W.!.!.W.).).`.`.`.`.`.`.).).).!.E.!.!.).`.`.`.).).`.`.`.`._.x.x.q.q.q.q.q.q.q.q.q.q.q.q.q.q.q.q.q.q.q.q.q.q.r.r.u.q.9.x.Q.'.`.).*X*X&.~ ( ~ A A B A ( ~ C A A A A A A A A A A A A A A A A A A A A A A A A A A A A A A A A A C A C D ` ` R.`.'.(.!.!.W.Y.Y. X}.=X=X7XeXc.' ,.=.=.>.>.>.>.>.>.>.>.>.>.>.>.=.=.=.=.=.=.>.>.>.=.&.&.T.T.1.j.m.m.T.k.T.T.k. .Z Z Z N A / ` ` ' ` ) A ( 6.,.D m A A A A A A A A A A A A A A A E E *XW.oX*X!.l.Y m A A A A A A A A A A A A A A A A A A A A A A A A A A A A A A A A A A A A A A A A A A A A A A A A M A A N C U.^.!.`.).).!.!.E.E.E.W.E.E.E.W.W.W.!.!.!.).).).`.`.`.).`.`.`.`.).).).).).).).).).).).).).!.!.).`.).).!.!.!.).).!.!.`.).!.).`.).`.'.(.).).).!.!.W.W.W.!.c.@.O.&.H C m m B m A ^ ( ( M M C B m s a i 4 6 4 5 0 a d y 5 : : # X X X X X X X                                           ",
"                                                  X # 5 5 0 u d M M M Y Q Q Q ^ ( ' ] ] +.*.,.:.*.h.d.z.l.,.c.c.c.l.Y.c.c.,.&.&.&.~ m M C A ~ ( ' &.( A ( i.&.m A A A A A A A A ' ( ~ A B B B A A A A A A A A A C C A E ~ ( ( ( ( E C B C A A B A A A A A A A A B A C A ( ( A B A A A A A A A A A A A A A A A A A A A A A A A A A A A A A A A A A A A A A A A A ~ C C ( 1.c.c.l.~ ~ ~ ~ D D A A C A Y m A A Y z.l.~ m A B C Q A G O.c.*X*X!.!.:X`.).).).).).).`.`.`.`.`.`.`.`.`.).'.`.I.q.0.q.q.q.q.q.q.q.q.q.q.q.r.r.9.9.9.$.J / ` ' ` A C A A A A A A A A A A A A A A A A A A A A A A A A A A A A A A A A A A A A A A A A A A A m l.-X!.>X` A H ,.M.g.~ Z | =.W.!.<X@.m ~ ) W.'.!.E.W.W.L.E.`.!.`.`.!.`.`.`.!.`.W.U.E.!.`.'.`.`.`.`.`.`.`.`._.c.9.9.q.r.q.0.q.q.q.q.q.q.q.q.q.q.q.q.q.q.q.q.q.q.r.q.9.9.A.Q.'.).`.).`.;.~ ` ~ A A B D ( ~ C A A A A A A A A A A A A A A A A A A A A A A A A A A A A A A A A A A A B A ^ ' g.!.).).).!.W.W.Y.W.Y.<X7X7X<Xc.&.>.=.>.>.>.=.=.>.>.>.>.>.>.>.>.>.>.=.>.>.>.>.=.=.-.g.k.Y.oXT.k.j.N.T.N.M.R.T.&.B B m C A ~ ( ' ( ( ( m ` l.,.` ~ H m H ~ m H ' / ' ( N A A C E A A U.j.>X!.*XU.' ~ C A A A A A A A A A A A A A A A A A A A A A A A A A A A A A A A A A A A A A A A A A A A A A A A E M Y D Z J.`.*X*X%X%X%X).W.E.E.E.W.E.E.W.W.W.E.E.!.`.`.`.`.`.`.).`.`.`.`.).).).).).).).).).).).).).).!.!.!.).).`.E.!.`.).!.`.`.`.L.!.).).`.!.!.!.!.!.!.U.*Xc.).U.M.&.( &.~ m M M m m C ~ ~ Y M j E ~ j 4 y s 4 y 4 4 4 0 y 4 5 # # # X X X X X                                               ",
"                                                  X # 5 5 0 u d v M C U Y Q ! ^ ( ' ] ] +.*.,.:.l.g.i.i.g.l.l.l.R.c.J.U.Y.;.@.@.' ~ M C C C C ~ A ~ A C ( ,.&.A A A A A A A A A E Y A C B B A A A A A A A A A A A A Y E ( ( ' ' ~ E C B A A A B A A A A A A A A A Y C A ~ ~ A A A A A A A A A A A A A A A A A A A A A A A A A A A A A A A A A A A A A A A A A A C m m C ~ ~ ~ C ( ( ( ( ` ( ~ ~ Y A C m Y A m ~ ~ B Q ~ A C m 7 O.S.`.).!.:X:X!.`.).).).).).).`.`.`.`.`.`.`.`.`.`.'.`.I.q.q.q.r.q.q.q.q.q.q.q.q.9.q.r.q.q.q.$.K ` ` ' ` A C A A A A A A A A A A A A A A A A A A A A A A A A A A A A A A A A A A A A A A A A A A C m l.>X>X!.( m *Xc.H m m =.!.W.<X*X,X,.Z ,.W.<X'.!.E.W.W.U.E.`.`.`.`.`.`.`.`.!.!.W.E.W.!.`.`.`.`.`.`.`.`.`.`._.c.9.9.q.r.r.r.r.q.q.q.q.q.q.q.q.q.q.q.q.q.q.q.q.0.0.q.q.9.H.P._.(.`.).`.&.~ ` ~ A A B D ` ~ C A A A A A A A A A A A A A A A A A A A A A A A A A A A A A A A A A B A A E ~ ~ ( ,.).).).!.W.W.W.W.W.-X>X>X<Xb.&.>.=.>.>.>.=.=.>.=.>.>.>.>.>.>.>.>.>.>.>.>.>.=.=.-.=X=X=X=XoXZ.N.N.^.T.R.^.T.=.A B Y Y ~ ( ( ( ( ( ` Z ` g.j.g.=.A A A A A &.j.6.c.' B A C m A C A A H U.Y.`.*XU.z.C A A A A A A A A A A A A A A A A A A A A A A A A A A A A A A A A A A A A A A A A A A A A A A C Y M Y ~ A K.`.`.*X%X%X%X).W.T.Q.E.W.E.E.W.W.W.W.E.!.`.`.`.`.`.`.).`.`.`.`.).).).).).).).).).).).(.!.!.).`.).).).).!.).`.!.(.).(.!.*X`.`.U.L.,X*X!.!.:XW.W.!.F.R.U.c.;.( &.~ m M m m x m M M m 8 M Y Y m y s s 6 y 4 5 4 0 0 4 5 # # # X X X X X   X                                           ",
"                                                  X # 5 5 0 u d v M U U Y Y ^ _ ^ ' ] ] +.*.:.:.] ' l.g.l.U.l.Y.z.z.l.J.U.@.;.( ~ C M C C m m C C C C M ~ ' ~ C A A A A A A A A B B B A A A C C A A A A A A A A A A A A E ~ ~ ~ E A C C A A A B A A A A A A A A B E E E ( ~ A A A A A A A A A A A A A A A A A A A A A A A A A A A A A A A A A A A A A A A A A A ~ A A A A A A D ( ( ( ( ( ` ~ ~ Y M A B Y ~ M B m m C C Q &.,.+.z.`.<X!.!.:X,X!.`.).).).).).).`.`.`.`.`.`.`.`.`.`.'.(.H.9.9.q.u.q.q.q.q.q.q.q.q.0.q.q.q.r.q.$.K ` ~ ( ` A C A A A A A A A A A A A A A A A A A A A A A A A A A A A A A A A A A A A A A A A A A A ~ A ;.g.z.g.g.,.!.c.N A N ,.*XT.*Xz.c.&.m ,.,XU.`.!.E.W.W.U.W.`.`.`.`.`.`.`.`.!.!.W.W.!.`.`.`.`.`.`.`.`.`.`.`._.L.A.q.q.r.r.r.r.q.q.q.q.q.q.q.q.q.q.q.q.q.q.q.q.0.0.q.q.y.H.L.Q.Q.).).`.&./ ( ~ A A B D ` ~ B A A A A A A A A A A A A A A A A A A A A A A A A A A A A A A A A A B C B E ( ~ ~ ..`.`.).).!.W.W.!.R.*X*X>XuXU.;.>.=.>.>.=.=.=.=.=.=.=.>.>.>.>.>.=.>.>.>.>.>.=.=.-.eXrX4X;X+X~.N.2.2.2.2.2.2.' A A B m M ~ ( ~ ~ ' ~ A / &.j.Q.l.Z H Z N Z =.x.1.=.` B D A C A A A C / *X*X`.*X).c.C A A A A A A A A A A A A A A A A A A A A A A A A A A A A A A A A A A A A A A A A A A A A A A C Y M C A A K.`.).*X%X%X%X).W.T.Q.E.W.W.W.W.W.W.W.E.!.`.'.`.`.`.`.).`.`.`.`.).).).).).).).).).).).!.!.!._.`.).(.).!.)._.).!.).`.(.E.`.J.`.W.g.!.J.W.S.).F.).W.W.Y.U.c.&.~ ( A s m m m m m m s s 8 M M M j s s i y y 4 5 5 4 4 5 5 # # # X X X X X X X X                                         ",
"                                                  X # 5 5 0 u d v M U Y Y Q ^ _ ^ ' ] ] +.*.:.*.3 m ,.l.g.g.g.U.c.*XY.Y.U.@.;.Z C m m C A C C C A C C C A A C m A A A A A A A A C A A A A A C B A A A A A A A A A B B B C C B B A A A A A A A A A A A A A A A A M E ~ ( ' ~ B B A A A A A A A A A A A A A A A A A A A A A A A A A A A A A A A A A A A A A A A A A A A C C A ` ' ~ ~ ( ( ` ~ A C A M ~ A M Y A ~ ~ ~ C m ( W.tX:X).).`.`.).).`.`.`.).).).).).).`.`.`.`.`.`.`.`.`.`.`.!.I.x.9.q.q.q.q.q.q.q.q.q.q.q.q.q.q.q.9.$.K ' ` ( ` D C A A A A A A A A A A A A A A A A A A A A A A A A A A A A A A A A A A A A A A A A A A C C C 8 A C J.`.!.R.~ ~ m @.*X`.:X3.G m 8 =.pX*X`.!.W.W.W.E.W.`.`.`.`.`.`.`.!.W.W.W.!.!.`.`.`.`.`.`.`.`.`.`.`.`.(.L.x.q.q.0.0.r.q.q.q.q.q.q.q.q.q.q.q.q.q.q.q.q.r.0.q.q.y.y.q.9.L._.).).&./ ( ~ A A B D ` ~ B A A A A A A A A A A A A A A A A A A A A A A A A A A A A A A A A A A C B Y ( ( ' ;.).`.).).!.W.W.W.W.!.*X<X<XU.;.;.=.>.>.=.=.=.=.=.=.=.=.>.>.>.>.=.>.>.>.>.>.=.=.-.=X7X3X@XoXR.N. .N F N N B N m B ~ E A A A C N m Z N m N ` x.1.n Z Z Z Z | 6.` b D m C C B A N N m A !.*X!.`.`.g.A A A A A A A A A A A A A A A A A A A A A A A A A A A A A A A A A A A A A A A A A A A A A A A C Y Y M Z D J.'.`.*X%X%X%X).W.T.Q.E.W.W.W.W.W.W.W.E.!.`.'.*X`.`.`.).`.`.`.`.).).).).).).).).).).).).!.!._.`.!.!.`.`.`.!.!.).).).`.!.*X!.W.' b l.<X:X!.*XW.).W.!.Y.Y.c.&.E A m s m m m m m m m m m m s i s s y 8 y 6 4 5 5 5 5 5 # # # # # X X X X X X X                                         ",
"                                                  X # 5 5 0 u d p M Y Y Y ~ ^ ^ ^ ] ] ] +.*.*.*.M ( ' g.z.g.c.g.>.g.>.z.T.;.=.N M m m B C C A A C B B C A C C A A A A A A A A A A A A A A A A A A A A A A A A A Y A A A A A C B A A A A A A A A A A A A A A A A B E E ~ ( ~ B C A A A A A A A A A A A A A A A A A A A A A A A A A A A A A A A A A A A A A A A A C A A A A A ~ ~ ~ ~ ( ( ( ~ A C Y B ~ A m M M C m ( O.( :.W.*XR.*X!.!.:X:X!.!.:X`.).).).).).).`.`.`.`.`.`.`.`.`.).`.(.Q.I.m.q.q.q.q.q.q.q.q.q.q.u.q.0.9.q.0.5.#.@.` ` ` D Z A A A A A A A A A A A A A A A A A A A A A A A A A A A A A A A A A A A A A A A A A A C A Z m &.~ R.`.,XU.m m / 6.!.U.W.d.Z ~ @.3.).W.`.!.!.!.W.E.W.!.).`.`.`.`.`.!.W.W.W.!.`.`.`.`.!.`.`.`.`.`.`.`.`.'.E.A.q.q.0.0.q.q.q.q.q.q.q.q.q.q.q.q.q.q.q.q.q.r.0.q.q.y.q.9.9.L.`.).).@./ ( ~ A A N D ` ~ A A A A A A A A A A A A A A A A A A A A A A A A A A A A A A A A A A E A M A ~ ~ ( &.).).).).!.W.W.W.W.R.*X*XW.g.;.=.=.=.=.=.>.>.=.=.=.=.>.>.>.>.=.=.=.>.>.>.>.=.-.-.oX3X8X=XoX^.N.>.F F F N D D D E A D A N A / ` / ` ` J J @.6.6.%.H n J @.6.x.#.J ` A H A C D A H ( ' !.`.!.*X<Xl.A A A A A A A A A A A A A A A A A A A A A A A A A A A A A A A A A A A A A A A A A A A A A A A C Y Y m ~ | K.'.`.*X%X%X*X).W.T.Q.E.E.W.W.W.W.W.W.W.W.!.`.'.'.`.`.).`.`.`.`.).).).).).).).).).).).!.!.!.!.!.!.).'.'.`.W.!.*X!.W.`.`.!.*XU.=.' ,.J.S.W.R.!.z.c.U.c.!.B.;.A m m m m m m m m s s m m j 8 8 i a y 8 y 4 4 4 5 5 5 5 # # # X X X X X X                                               ",
"                                                  X # 5 5 0 u d v M U U Y ^ ^ ~ ^ ] ] ] +.*.*.*.g.*.M ' l.c.b.;.m 8 m &.c.&.&.~ C M C C C C A A C C C A A C A A A A A A A A A A A A A B A A A A A A A A A A A A A C A A A A A A A A A A A A A A A A A A A A A A A Y C B Y A C A A A A A A A A A A A A A A A A A A A A A A A A A A A A A A A A A A A A A A A A A A ~ ( ' ( ~ D A ~ ~ ~ ( ( ~ ~ A ~ M A A Y A m A &.Y.:X*X*X>X*X*X`.`.`.`.`.`.).).`.).).).).).).`.`.`.`.`.`.`.`.`.`.`._.'.Q.I.x.q.q.q.q.q.q.q.q.q.r.q.q.q.q.u.q.9.#.` ` ( D Z A A A A A A A A A A A A A A A A A A A A A A A A A A A A A A A A A A A A A A A A A A A A A ( !.Y.>XR.<Xc.~ ' `.<X`.U.7 m m g.tX:X`.*X`.`.!.!.W.E.W.!.!.`.`.`.`.`.!.E.W.W.!.`.`.`.`.`.`.`.`.`.`.`.`.`.`.P.x.q.q.q.r.r.q.q.q.q.q.q.q.q.q.q.q.q.q.q.q.q.0.0.q.r.A.y.q.q.L._._.).@./ ( ~ A A N D ` ~ A A A A A A A A A A A A A A A A A A A A A A A A A A A A A A A A A A A A B E ( ( ( &.!.).).).!.W.W.W.R.!.R.U.a.;.*.,.=.=.=.=.>.>.>.=.=.=.>.>.>.>.=.=.=.>.>.>.>.=.-.-.;X8X8X=XoXoXT.N.N F N N F N j j N N N N / >.l.M.8.q.x.q.x.H.H.m.%.L ` 9.H.x.9.H./ m Z m 8 N Z A *XW.>X*X`.).*Xg.C A A A A A A A A A A A A A A A A A A A A A A A A A A A A A A A A A A A A A A A A A A A A A A A B Y C &.g.!.`.).*X%X%X*X).W.T.Q.E.E.W.W.W.W.W.E.W.W.!.`.`.'.`.`.).`.`.`.`.).).).).).).).).).).).!.`.).!.!.`.`.W.W.`.!.!.*X!.J.`.!.U.!.!.*X>X;.3 U.*X*XR.A m m m Y.z.;.~ m m m m m m m m m s m m j s i s a i y i 4 4 4 4 5 5 5 # # # # X X X X X                                               ",
"X                                                 X # 5 w 0 u d v M v p M ! ^ ~ ( ] ] ] *.*.*.*.' C 8 s ~ ' ' Y C ~ >.&.;.~ ~ C C C C C C C C C A A A C C A A C A A A A A A A A C C C C A A A A A A A A A A A A B B B B A A A A A A A A C A C C A A A A A A A A A A B B E E A A A A A A A A A A A A A A A A A A A A A A A A A A A A A A A A A A A A A A A A A A m A ~ ( ~ A C C ~ ~ ~ ( ( ~ A C A N C A ~ ~ A >.l.!.*X%X*X!.W.%X).:X:X).).*X`.).`.).).).).).).`.`.`.`.`.%X%X`.`.`.`._.'._.I.x.q.q.q.q.q.q.q.q.q.q.q.q.q.q.q.u.H.&.` ` ( H Z C A A A A A A A A A A A A A A A A A A A A A A A A A A A A A A A A A A A A A A A A A C m m ~ !.*X-XT.,.` Z m W.c.| ,.l.c.g.W.,X).W.).'.`.`.!.W.E.E.E.!.`.`.`.`.`.!.E.W.W.!.`.`.`.`.`.`.`.`.`.`.`.`.`.`.P.9.9.q.r.r.r.q.q.q.q.q.q.q.q.q.q.q.q.q.q.q.q.0.q.q.r.y.y.y.y.P.'.'.`.@./ ( ~ A A N D ` ~ C A A A A A A A A A A A A A A A A A A A A A A A A A A A A A A A A A B A C E ' ( ' -.).).`.).!.W.W.W.W.R.Y.g.&.&.,.>.=.=.>.>.>.>.=.=.=.=.>.>.>.=.=.=.>.>.>.>.=.=.-.-.3X3X4X1XOX+X~.T.6.<. .=.6.2.=.2.1.` A Z D / =.x.8.m.m.m.m.q.9.x.9.} >.m.q.9.q.I.g.=.g.g.6.j.j.c.`.W.!.W.).W.W.6.C A A A A A A A A A A A A A A A A A A A A A A A A A A A A A A A A A A A A A A A A A A A A A A A C E N ,.J.!.`.`.`.%X%X*X).W.T.Q.E.E.W.W.W.W.E.E.W.W.W.!.`.`.`.`.).`.`.`.`.).).).).).).).).).).).!.`.!.W.`.*XL.=.=.).*X!.`.!.E.).W.`.`.W.g.&.( m ~ ;.>.>.C Y d.,.&.' ` A m m C m M m M m m m m m s j a s y i i y 4 4 4 4 5 5 5 5 # # X X X X X X                                               ",
"X                                                 X # 5 w 0 r d M v p 5 a Q ^ ~ ( ] ] ] *.*.*.*.4 4 Y M 8 m 7 C 8 g.>X&.m m A m m C C C C C C C C C C C C A Y A A A A A A A A A A A A A A A A B A A A A A A A A A A A A A A A A A A A A B B C A A A A A A A A A B A A Y ( ( A B A A A A A A A A A A A A A A A A A A A A A A A A A A A A A A A A A A A A A A A A C ~ ( ~ A C A ~ ( ' ' ' ( ~ A C A A D C A m C U.*X>X).!.>X*X!.>X).).).`.).).).:X`.).).).).).).`.`.`.`.`.%X%X`.`.`.).`._.(.I.x.q.q.q.q.q.q.q.q.q.q.q.u.q.0.9.0.m.>.` ` ( D Z C A A A A A A A A A A A A A A A A A A A A A A A A A A A A A A A A A A A A A A A A A ~ A A ~ Y.*X^.!.H Z ~ H ,X6.8 / *X*X`.`.`.).).:X'.'.`.!.W.E.E.E.!.`.`.`.`.`.!.E.W.!.!.`.`.`.`.`.`.`.`.`.`.`.`.`.:XP.x.9.q.q.q.q.q.q.q.q.q.q.q.q.q.q.q.q.q.q.q.q.q.r.r.q.0.9.0.q.L.'.'.`.@./ ' ~ A A N D ` ~ C A A A A A A A A A A A A A A A A A A A A A A A A A A A A A A A A A A A B A ~ ~ ( ;.).`.`.`.!.!.W.W.U.R.W.g.&.=.,.&.=.=.>.>.>.>.=.=.=.=.>.>.=.=.=.=.>.>.>.>.=.=.-.-.=X1X3X3X8X;XoX~.-XT.N.N.T.T.T.^.T. .N N n h H 5.q.H.q.9.q.q.9.q.m.9.I.m.5.H.m.9.x.j.!.-X-X,X`.`.R.W.!.!.,XW.U.,.C A A A A A A A A A A A A A A A A A A A A A A A A A A A A A A A A A A A A A A A A A A A A A A A Y E h >.J.T.).:X`.%X%X*X).W.T.Q.E.E.W.W.W.W.E.E.W.W.E.W.!.`.`.`.).`.`.`.`.).).).).).).).).).).).!.`.!.E.`.*Xg.Z Z W.,XW.!.`.!.`.^.*XY.!.;.3 C ~ A m M m B ~ W.c.8 j m m m N C m m m x m m m m s i j j y 6 y y 4 6 6 6 4 5 5 5 5 # # X X X X X X                                               ",
"                                                  X # 5 0 0 u d v M v 4 5 x T ^ ] ' ] *.*.:.,.&.] Y m s M C m s M ~ ' ~ C m B C C m m A A C C A C C C A A A A A A A A A A A A A A A A A A A A A A A A A A A A A A A A A A A A A A A A A A A A A A A A A A A A A A A A A A A A A A A A A A A A A A A A A A A A A A A A A A A A A A A A A A A A A A A A A A A A A A A A A A A A A ( ~ ~ ~ ~ A N D A C m ~ ~ =.g.U.%X%X%X%X%X%X%X%X`.`.`.`.`.`.`.`.`.`.).).).).).).`.`.`.`.%X%X%X`.).).`.'._.L.x.9.q.q.q.q.q.q.q.q.q.q.q.q.q.q.q.m.=.~ ( ` ` ` D A A A A A A A A A A A A A A A A A A A A A A A A A A A A A A A A A A A A A A A A A C ~ A m oX<X,.=.A H H ~ O.6.l.6.).).`.`.`.`.`.`.`.`.`.W.E.W.W.E.W.`.*X`.`.`.!.W.E.!.!.`.`.`.`.`.`.`.`.`.`.`.`.`.).`.Q.Q.9.q.0.r.q.q.q.q.q.q.q.q.q.q.q.q.q.q.q.q.r.r.q.q.q.r.q.q.L.I.L.:X&.H ..~ D B A A ` ` B A A A A A A A A A A A A A A A A A A A A A A A A A A A A A A A A A A A A Y ( ( ( ;.).!.:XE.*X!.W.).U.!.W.j.=.=.>.=.=.=.>.>.>.>.=.=.=.>.>.>.=.=.=.=.>.>.>.=.=.=.>.i.3X3X4X4X3X;XoX~.].M.j.j.N.Z.T.T.T.` N &.8.#.#.m.m.q.q.q.r.r.q.q.q.q.q.q.q.q.q.q.9.x.`.`.!.).!.`.!.`.W.*X*XW.Y.>.C A A A A A A A A A A A A A A A A A A A A A A A A A A A A A A A A A A A A A A A A A A A A A A A A A N >.x.`.'.!.`.*X%X%X*X).W.T.E.E.E.W.W.W.E.E.W.W.E.W.).`.`.).`.`.`.`.`.`.`.`.).).).!.!.`.`.!.!.W.!.!.R.>Xc.m / ;.c.!.W.U.`.!.!.!.*XW.c.,.~ C Y C M M A ~ ] ;.C B m m m m m m m m m m m m s s s s a s i y y y 6 4 4 4 5 5 5 # # # # # X X X X X X                                           ",
"                                                  X # 5 5 0 r u M M d 1 # t Y ^ ^ ( ] +.] &.i.i.h.&.C s s m m m s M A C m m N m C C C A A C C C C C C A A A A A A A A A A A A A A A A A A A A A A A A A A A A A A A A A A A A A A A A A A A A A A A A A A A A A A A A A A A A A A A A A A A A A A A A A A A A A A A A A A A A A A A A A A A A A A A A A A A A A A A A A A A A A ( ( D C A A C A m ( A C / !.<X*X%X%X%X%X%X%X%X%X`.`.`.`.`.`.`.`.`.`.).).).).).).`.`.`.`.%X%X%X%X).).`.`.`.P.H.q.q.q.q.q.q.q.q.q.q.q.q.q.q.q.q.m.=.~ ( ` ` ` D C A A A A A A A A A A A A A A A A A A A A A A A A A A A A A A A A A A A A A A A A j B A A R.R.` C C A Z V H ,.J.!.).).).`.*X*X`.`.`.`.`.W.E.W.W.E.W.`.*X`.`.`.!.W.E.!.!.`.`.`.`.`.`.`.`.`.`.`.`.`.`._.!._.9.q.q.r.q.q.q.q.q.q.q.q.q.q.q.q.q.q.q.q.q.r.q.q.q.q.r.q.q.H.P.,X&.~ &.' A N A A ` / B A A A A A A A A A A A A A A A A A A A A A A A A A A A A A A A A A A A C A ( ( ( &.!.).,X`.,X!.U.E.U.!.W.x.=.&.=.=.=.=.>.>.>.>.=.=.=.>.>.>.>.=.=.=.>.>.>.>.,.,.,.,.1X1X2X4X3X;XoX~.^.Z.j.j.N.N.Z.T.Z.| D 2.T.M.8.m.q.q.q.q.r.r.q.q.q.q.q.q.q.q.q.q.x.l.!.`.!.'.`.`.).`.W.).!.U.U.,.C A A A A A A A A A A A A A A A A A A A A A A A A A A A A A A A A A A A A A A A A A A A A A A A A B N <.x.Q._.`.).%X%X%X*X`.!.E.E.E.E.W.W.W.E.W.W.W.E.W.).`.`.`.`.`.`.`.`.`.`.`.).).).).).).).!.*X!.*X^.W.`.c.A m b ' Y.,X*X!.R.`.!.*X*X>XR.&.C C C C C M M M M M B m m m m m m m m m m m m s s s s a s i y y y 6 4 4 4 5 5 5 # # # # X X X X X X X                                           ",
"                                                  X # 5 5 w 0 u a M M a 4 4 a M M Y ] ..~ Y E ~ ] ~ M a j m m j j m m m M C B m C C C C C C C C C C C A A A A A A A A A A A A A A A A A A A A A A A A A A A A A A A A A A A A A A A A A A A A A A A A A A A A A A A A A A A A A A A A A A A A A A A A A A A A A A A A A A A A A A A A A A A A A A A A A A A A A A A A A A A A A A ~ A m C A C m Z C A &.g.!.`.`.`.`.`.`.`.`.`.`.`.`.`.`.`.`.`.`.`.`.).).).).).).`.`.`.`.%X%X%X%X).`.`.`.`.!.L.H.q.q.q.q.q.q.q.q.q.q.q.q.q.q.q.m.=.~ ( ` ` ` ~ C A A A A A A A A A A A A A A A A A A A A A A A A A A A A A A A A A A A A A A A A ( E E B -.&.H A ,.g.l.6.6.D.).:X).).).`.*X*X*X`.`.`.`.!.E.W.W.E.!.`.'.`.`.!.!.E.E.!.!.`.`.`.`.`.`.%X%X%X%X%X`.`.`.'._._.q.u.q.r.q.q.q.q.q.q.q.q.q.q.q.q.q.q.q.q.q.q.q.q.u.u.r.q.9.m.P.`.@.~ ( ~ A N A A ` ` m A A A A A A A A A A A A A A A A A A A A A A A A A A A A A A A A A A A B A ( ( ( ' 3.l.*X).*X!.E.E.T.!.Q.l.=.=.>.,.=.=.=.=.>.>.>.=.=.=.>.>.=.=.=.=.>.=.>.>.>.=.&.] 1X1X2X4X4X=XoX~.~.~.Z.N.k.N.Z.T.T.a.1.N.^./.M.8.0.q.q.q.r.r.q.q.q.q.q.q.q.q.q.q.x.x.!.`._.'.`.`.!.`.W.!.R.Y.Y.z.C A A A A A A A A A A A A A A A A A A A A A A A A A A A A A A A A A A A A A A A A A A A A A A A D B m 1.x.M.L.`.).).%X%X*X`.!.Q.E.E.W.W.W.W.W.W.!.W.W.W.`.`.`.`.`.`.`.`.`.`.`.`.`.).).).).).).!.!.T.!.!.W.!.W.,.6.Z / =.=.&.,.*Xg.&.;.;.,.,.Y m m B C C C M m m m m N m m m m m m m M m m s x m j j a s i y 8 8 6 4 4 4 5 5 5 5 # # # X X X X X                                               ",
"                                                  X # 5 w 0 u d u M T Y a 4 5 4 5 a ~ ( M 6 6 4 4 8 a M M M j s B M m m B B B m C C C m m C C C C C C A A A A A A A A A A A A A A A A A A A A A A A A A A A A A A A A A A A A A A A A A A A A A A A A A A A A A A A A A A A A A A A A A A A A A A A A A A A A A A A A A A A A A A A A A A A A A A A A A A A A A A A A A A A A A m A A C A A A ~ / b A J.>X!.E.:X`.`.`.`.`.`.`.`.`.`.`.`.`.`.`.`.`.`.).).).).).).`.`.`.`.%X%X%X%X).*X`.`.`.`.Q.I.q.q.q.q.q.q.q.q.q.q.q.q.q.q.q.m.=.~ ( ` ` ( E C A A A A A A A A A A A A A A A A A A A A A A A A A A A A A A A A A A A A A A A A N j A N E m Z ~ W.*X,X*X).!.!.W.!.).).`.`.`.`.`.`.`.`.!.!.E.E.E.!.).`.`.`.!.W.E.E.!.!.`.`.`.`.`.%X%X%X%X%X%X`.`.`.'._._.q.r.q.r.q.q.q.q.q.q.q.q.q.q.q.q.q.q.q.q.q.q.q.q.u.r.r.r.u.H.P./.&.' ( A A B D D ` ` m A A A A A A A A A A A A A A A A A A A A A A A A A A A A A A A A A A A B A ( ' ( ' ~ @.!.).`.!.!.!.W.E.J.g.>.=.>.,.=.=.=.=.>.>.>.=.=.=.>.>.>.>.=.>.=.>.>.=.=.=.,.i.1X1X2X4X3X1XoXR.~.+X^.Z.N.M.T.T.T.T.T.Z.Z.Z.M.r.0.0.0.q.r.r.q.0.q.q.q.q.q.q.q.q.9.x.(._.`.'.).`.W.).!.W.R.J.l.g.C A A A A A A A A A A A A A A A A A A A A A A A A A A A A A A A A A A A A A A A A A A A A A A A D N b 1.x.8.x.`.`.).%X%X*X`.!.Q.W.W.W.W.W.W.W.W.!.W.W.!.!.`.`.`.`.`.`.`.`.`.`.`.`.).).).).!.).`.!.W.!.*X!.*X>X!.R.H H C b m ( >X( A A m m C m C C C C C C C Y A m m m m m m m m m m M m m s x m j j a s i y y 8 6 4 4 4 4 5 5 5 # # # # X X X X                                               ",
"                                                X X # 5 w 0 u d P Y T P i 5 4 y 4 4 m m 4 4 s j i a a a a j M M M M m m m m m m C C C m M C C C C C C A A A A A A A A A A A A A A A A A A A A A A A A A A A A A A A A A A A A A A A A A A A A A A A A A A A A A A A A A A A A A A A A A A A A A A A A A A A A A A A A A A A A A A A A A A A A A A A A A A A A A A A A A A A A A A A A A A C ~ >.U.c.c.W.*X`.`.`.`.`.`.`.).).).).`.`.`.`.`.`.`.`.).).`.`.).).).).`.`.`.`.%X%X%X%X).*X`.).`.'.(.P.q.q.q.q.q.q.q.q.q.q.q.q.q.q.q.m.=.~ ' ` ` ( E C A A A A A A A A A A A A A A A A A A A A A A A A A A A A A A A A A A A A A A A A B B W E E A g.!.!.).`.).).).).).!.).).).`.`.`.`.`.`.`.`.!.W.E.W.W.!.`.`.`.!.E.E.E.!.!.`.`.`.`.`.%X%X%X%X%X%X`.`.`.'._._.q.q.q.q.q.q.q.q.q.q.q.q.q.q.q.q.q.q.q.q.q.0.q.q.u.u.u.u.q.u.P.].J.c.*.~ A A ~ ~ ' ` B A A A A A A A A A A A A A A A A A A A A A A A A A A A A A A A A A A A B E ' ' ( ' ) &.).`.`.!.`.!.U.x.1.>.=.=.=.=.>.>.>.=.=.=.=.=.=.=.=.=.>.=.>.>.&.=.>.=.=.g.Y.=X3X6X6X8X4X=XoXR.~.^.^.Z.k.k.B.Z.N.T.T.N.N.Z.Z.m.q.q.q.q.q.q.q.q.q.q.q.q.q.q.q.q.q.x._.'._._.).).!.`.).W.U.g.~ ~ C A A A A A A A A A A A A A A A A A A A A A A A A A A A A A A A A A A A A A A A A A A A A A A A A Z b >.x.8.x._.*X*X%X%X%X`.^.Q.W.W.W.W.W.W.W.W.!.W.W.W.!.`.`.`.`.`.`.`.`.`.`.`.`.).).).).).).`.!.!.!.!.T.T.!.^.R.A Z Z A ` A &.D A ~ A C A C ~ A A C M M M C C m m m m m m m m m m m m m m x m j j s s i i y 8 6 4 4 4 4 5 5 5 # # # X X X X X X X                                           ",
"                                                X @ # : 5 w r d M M M M a 4 5 4 4 5 y s y i m j M M j j a j M B m m m m m m m C C B C A A C C C C C C A A A A A A A A A A A A A A A A A A A A A A A A A A A A A A A A A A A A A A A A A A A A A A A A A A A A A A A A A A A A A A A A A A A A A A A A A A A A A A A A A A A A A A A A A A A A A A A A A A A A A A A A A A A A A A C C C C m ~ g.*X>XtX!.).).*XW.`.`.`.`.).).).).`.`.`.`.`.`.`.`.).).`.`.`.).).).`.`.`.`.%X%X%X%X).*X`.).`.'.).L.q.q.q.q.q.q.q.q.q.q.q.q.q.q.q.m.=.~ ' ` ` ( E C A A A A A A A A A A A A A A A A A A A A A A A A A A A A A A A A A A A A A A A A A B N h B A M.<X!.!.`.`.`.*X`.`.!.!.).).`.`.`.).`.`.`.`.!.W.E.W.W.W.!.`.!.W.E.E.E.!.!.`.`.`.`.`.%X%X%X%X%X%X`.`.`.`.(._.q.q.0.q.q.q.q.q.q.q.q.q.q.q.q.q.q.q.q.q.q.0.q.q.u.u.u.u.q.q.L.,X`.>X,.~ A A ~ ` ' ` B A A A A A A A A A A A A A A A A A A A A A A A A A A A A A A A A A A Y C E ( ( ~ ' ( &.`.*X).`.*X!.T.6.#.#.>.>.=.=.>.>.>.>.=.=.=.>.=.=.>.=.>.>.>.>.=.>.,.=.&.g.}.aX8X8X6X8X4X1XOX.XR.~.~.Z.N.k.M.B.B.T.T.N.T./.K.8.m.u.q.q.q.q.q.q.q.q.q.q.q.q.q.q.A.A._.'.`.'.`.`.!.`.`.W.Y.,.C B C A A A A A A A A A A A A A A A A A A A A A A A A A A A A A A A A A A A A A A A A A A A A A A A m / Z <.x.q.x.`.*X*X%X%X%X`.^.Q.W.W.W.W.W.W.W.W.W.W.W.W.!.!.`.`.`.`.`.`.`.`.`.`.`.`.).!.).).).W.*X*X*X`.^.!.^.*XW.` A N A / b h A m A C A E M C C C C C C M B B M m m m m m M M M m m m m m m s s j s s i i y y 6 4 4 4 4 5 5 5 # # # X X X X X X X                                           ",
"                                                X @ # # # # : w 5 4 u M a 4 5 5 4 5 y j s s s 4 y i j M M M m m M M M B B m m A C m A ( ( A C C C C C A A A A A A A A A A A A A A A A A A A A A A A A A A A A A A A A A A A A A A A A A A A A A A A A A A A A A A A A A A A A A A A A A A A A A A A A A A A A A A A A A A A A A A A A A A A A A A A A A A A A A A A A A A A A A A A C C C m A &.@.z.*X`.:X).:X*X`.`.`.`.).).).).`.`.`.`.`.`.`.`.).).`.`.`.).).!.`.`.`.`.%X%X%X%X).*X`.).`.'.).J.q.q.q.q.q.q.q.q.q.q.q.q.q.q.q.m.=.~ ( ` ` ( ~ C A A A A A A A A A A A A A A A A A A A A A A A A A A A A A A A A A A A A A A A A N E D ( k.g.!.!.!.).`.`.`.!.E.U.W.!.).).).`.).).`.`.`.`.).W.E.W.W.E.W.`.!.W.E.W.E.!.!.`.`.`.`.`.%X%X%X%X%X%X%X`.).`.(._.q.r.q.r.q.q.q.q.q.q.q.q.q.q.q.q.q.q.q.q.q.0.q.q.r.r.r.r.q.0.I.Q.!.>X*.A A A ` ` ' ` m A A A A A A A A A A A A A A A A A A A A A A A A A A A A A A A A A A A C A ~ ~ ~ ' ) O.).`.!.`.,X!.W.j.=.=.<.>.>.>.>.>.>.=.=.=.>.>.>.>.>.>.>.>.=.=.=.,.,.=.&.1.R.8X8X8X6X6X4X3X@X+X^.~.~.~.V.B.B.V.T.T.Z.Z.T.T.M.m.H.H.y.q.q.y.y.y.y.y.q.q.y.y.y.y.H.9.L.Q.(.'.`.`.!.`.`.W.R.g.C A A A A A A A A A A A A A A A A A A A A A A A A A A A A A A A A A A A A A A A A A A A A A A A A A N =.@.5.x.x.c.`.`.*X%X%X%X`.^.^.E.W.E.E.W.W.W.W.E.E.E.E.W.!.`.`.`.`.`.`.`.`.`.`.).`.`.!.).`.!.c.' &.&...&.&.&.;.;.~ C m m B ~ ~ E B B m B E B A M B B C C C C C C C m m m N C C ~ C m m m m m s s s a s i i y y 6 4 4 4 4 5 5 5 # # # X X X X X X X                                           ",
"                                                X X X X X X X # 5 # X # 5 5 4 i i 5 4 6 4 i M m a a a a j m m m B m m B B m m m C m E &.&.~ m C C C C A A A A A A A A A A A A A A A A A A A A A A A A A A A A A A A A A A A A A A A A A A A A A A A A A A A A A A A A A A A A A A A A A A A A A A A A A A A A A A A A A A A A A A A A A A A A A A A A A A A A A A A A A A A A A C ~ ~ ~ ~ H A H Z g.<X!.).!.*XW.`.`.`.`.).).).).`.`.`.`.`.`.`.`.).).`.`.`.).).!.`.`.`.`.`.`.%X`.).`.`.).`.*X!.A.q.q.q.q.q.q.q.q.q.q.q.q.q.q.q.m.=.~ ( ` ~ ( Q C C C A A A A A A A A A A A A A A A A A A A A A A A A A A A A A A A A A A A A A A B A m ~ R.oX>X!.`.`.`.`.).).`.:X!.!.).).).).).).`.`.`.`.`.W.E.!.U.U.W.).!.W.E.W.E.!.!.`.`.`.`.`.%X%X%X%X%X%X%X%X).`.(._.q.H.q.r.q.q.q.q.q.q.q.q.q.q.q.q.q.q.q.q.q.0.q.q.r.r.r.r.u.9.9.c.M.*X>.~ N A ~ ` ' ` m A A A A A A A A A A A A A A A A A A A A A A A A A A A A A A A A A B A B C E Y E ( ' @.*X:X`.`.,XE.E.g.=.=.>.=.#.>.>.>.>.=.=.=.>.>.>.>.>.>.>.>.=.=.>.,.,.=.=.l.}.8X6X6X6X2X4X3X3X;XoX~.~.oX~.V.B.U.U.T.T.T.Z.Z.T./.I.I.m.q.q.q.q.u.q.q.q.q.y.y.y.q.H.5.9.A.L.'.`.).*X*X`.U.Y.g.m D A A A A A A A A A A A A A A A A A A A A A A A A A A A A A A A A A A A A A A A A A A A A A A A A Z x.j.x.8.q.x.(.`.).).).`.`.`.`.E.E.E.E.E.W.W.W.E.E.E.E.W.!.`.`.`.`.`.`.`.`.`.`.).:X`.).).:XE.6.m C B m C C m m m m A ( ~ m C C C B ~ A C A B A A A B B M M M B C C N m m N C A ' ~ m s m m m s s s a s i i y y 6 4 4 4 4 5 5 5 # # # X X X X X X X                                           ",
"                                                X @ # : # X X X 5 # 5 5 5 4 M ^ j 4 4 y a y 8 s s i i m m j M M s A m ~ ..B m B C C C C C C C A A N m Z A H A m A A C A A A A A A A A A A A A A A A A A A A A A A A A A A A A A A A A A A A A A A A A A A A A A A A A A A A A A A A A A A A A A A A A A A A A A A A A A A A A A A A A A A A A A A A A A A A A A A A A A A A A A j *.Y.Y.T.!.W.W.`.`.`.`.`.`.`.`.`.`.`.`.`.`.`.`.`.`.`.`.`.`.`.`.).`.`.*X*X).).).).).`.`.`.).`.`.`.).).`.`.`.!.L.9.7.0.r.9.9.m.q.q.q.q.q.q.q.r.m.=.~ ( ( ( ' Y C C C C C A A A A A A A A A A A A A A A A A A A A A A A A A A A A A A A A A A A A A C A A ).).*X).).).).).).).).!.!.!.!.`.`.`.`.`.`.`.`.`.).W.E.W.E.W.!.`.`.!.W.E.!.).`.`.).`.`.%X%X%X%X%X%X%X%X%X:X).`.'.`.I.q.q.q.q.q.q.q.q.q.q.q.q.q.q.q.q.q.q.0.q.r.0.0.r.q.0.q.r.m.x.Q.`.,.H A A ` ` ` ~ B A A A A A A A A A A A A A A A A A A A A A A A A A A A A A A A A A A A A A A A ~ ( ) &.*X*X`.`.*X!.W.6.#.=.>.=.=.<.=.=.=.>.>.>.=.=.=.=.=.=.>.>.>.>.>.>.>.=.>.,.=X3X6X6X6X8X8X3X1X3X.XV.@X~.~.M.T.j.j.K.T.T.T.T.N.K.K.K.I.m.8.8.r.r.r.r.r.q.y.y.y.y.9.H.9.A._._.!.).).*XU.c.).g.m ~ C A C A A A A A A A A A A A A A A A A A A A A A A A A A A A A A A A A A A A A A A A A A A A A A Z 6.x.x.x.9.H.x.J.E.).`.*X`.`.`.!.E.E.W.W.E.U.W.E.W.W.E.W.!.`.'.`.`.`.`.`.`.`.`.`.).).).).).).!.W.( m ~ ~ A A C A m ' *Xl.m ~ C C A A A C A A C A m C N M A m j ;.( C m m C m m M M m M M m x s 8 i s i i i y 4 6 4 4 5 5 5 5 5 # # # X X X X X                                               ",
"                                                X @ # 5 # # # : 5 # # # 5 y Y ^ y 4 5 y s y i m 4 T M 8 M m i j m A j E ' A m m C C B B C B M M A A H D A A A ~ A A A A A A A A A A A A A A A A A A A A A A A A A A A A A A A A A A A A A A A A A A A A A A A A A A A A A A A A A A A A A A A A A A A A A A A A A A A A A A A A A A A A A A A A A A A A A A A A A A A A B B A A A &.Y.^.^.!.!.:X`.`.`.`.`.`.`.`.`.`.`.`.`.`.`.`.`.`.`.`.`.`.`.`.).`.`.*X`.).).).).).`.`.`.).`.`.`.).).).`.`.).E.H.0.q.u.q.q.q.q.q.q.r.q.q.q.r.m.>.~ ( ( ( ' T C Y Y C C A A A A A A A A A A A A A A A A A A A A A A A A A A A A A A A A A A A A A C A A ).).*X).`.).).).).).!.!.!.!.!.!.!.`.`.`.`.`.`.`.`.W.W.!.E.W.!.!.!.!.W.E.!.).`.`.).`.*X%X%X%X%X%X%X%X%X%X*X).).'._.L.x.q.q.q.q.q.q.q.q.q.q.q.q.q.q.q.q.q.r.q.r.r.0.0.0.0.0.0.x.q./.'.,.H A A ` ` ` ~ B A A A A A A A A A A A A A A A A A A A A A A A A A A A A A A A A A A A A A C A ~ ( ) &.`.*X`.`.*X!.^.l.>.>.<.=.#.>.=.=.=.>.>.>.=.=.=.=.=.=.>.=.=.>.>.>.>.=.>.,.&X3X6X6X6X8X3X3X3X3XXXC.oX~.oXU.T.j.m.K.M.M.T.T.T.^.K.K.J.q.8.8.r.r.r.r.q.q.y.y.y.y.y.u.9.A.`.'.).).*X*XU.c.W.d.x C A A A A A A A A A A A A A A A A A A A A A A A A A A A A A A A A A A A A A A A A A A A A A A A A Z 6.x.x.x.9.A.9.H.Q.`.`.`.`.*X).!.E.E.W.W.E.E.W.E.W.W.E.W.!.`.`.`.`.`.`.`.`.`.`.`.`.).).).).).!.U.' m C C m C ~ A ~ &.!.z.A ~ C A A A C C A A C m ~ N N E m A ( &.( A C m m M M m m m m s s s a M M m 8 8 8 y 6 6 4 4 5 5 5 5 5 # # # X X X X X                                               ",
"                                                X @ : 5 5 5 0 r 5 # # 5 a Y ^ ] M i 6 y y 4 6 s 8 m i E h.] 8 B m m 8 ~ -.&.' ~ m M C C C C A C C A ~ ' &.&.~ N Y A A C A A A A A A A A A A A A A A A A A A A A A A A A A A A A A A A A A A A A A A A A A A A A A A A A A A A A A A A A A A A A A A A A A A A A A A A A A A A A A A A A A A A A A A A A A A A A A A A A A A I B A B ` l.!.!.!.).`.`.`.`.`.`.`.`.`.`.`.`.`.`.`.`.`.`.`.`.`.`.`.`.).`.`.`.`.).).).).).`.`.`.).`.`.`.).).).`.`.).(.P.H.q.H.q.q.x.9.q.q.r.q.q.q.r.m.>.~ ( ( ( ' T C Y Y C C A A A A A A A A A A A A A A A A A A A A A A A A A A A A A A A A A A A A A C A A ).).`.).).).).).).).!.!.!.!.!.!.!.`.`.`.`.`.`.`.`.!.!.!.E.E.W.W.W.W.W.W.!.).`.`.).`.*X).%X%X%X%X%X%X%X%X*X).).'._.P.x.q.q.q.q.q.q.q.q.q.q.q.q.q.q.q.q.q.r.r.r.r.r.r.q.q.0.0.q.q.`.'.,.H A A ` ` ` ~ B A A A A A A A A A A A A A A A A A A A A A A A A A A A A A A A A A A A A C C A ~ ( ) &.`.`.`.`.:X!.T.6.&.=.>.>.=.>.=.=.=.=.>.>.>.>.>.>.=.>.=.=.=.>.>.>.>.=.>.,.=X8X6X6X6X8X3X3X3X3XoXC..X.X+X^.^.U.x.j.,.>.1.1.1.M.T.K.J.m.8.r.r.8.0.0.q.r.q.q.q.q.y.y.9.q._.'.`.).*X%XY.S.R.g.B A A A A A A A A A A A A A A A A A A A A A A A A A A A A A A A A A A A A A A A A A A A A A A A A A Z 6.x.x.x.9.A.9.H._.:X`.).`.*X).!.W.W.W.W.E.E.W.W.W.W.W.W.!.!.`.`.`.`.`.`.`.`.`.`.`.).).).).).!.!.Y.U.!.U.@.Z Z H g.W.,Xl.m Z m G G A C C A A C a.Y.B 8 ~ 8 m B ;.&.' ~ C m m M m m M m s s M C E Y M s 8 8 y 6 6 4 4 5 5 5 5 5 # # # X X X X X                                               ",
"                                                X # : 5 5 0 u d y 4 4 a Y E E T a 4 4 y j M M B A M M ] b.&.8 B B B m E ' ' ~ A m C C C C A A C C A ` =.g.6.| D E A A A A A A B A A A A A A A A A A A A A A A A A A A A A A A A A A A A A A A A A A A A A A A A A A A A A A A A A A A A A A A A A A A A A A A A A A A A A A A A A A A A A A A A A A A A A A A A A A A A A A B I E j m &.c.W.`.).`.`.`.`.`.`.`.`.`.`.`.`.`.`.`.`.`.`.`.`.`.`.`.`.`.`.`.`.`.`.).).).).`.`.`.).`.`.`.`.).).`.`.`._._.H.q.m.q.q.q.9.q.q.q.q.q.q.r.m.>.~ ( ( ( ' Y C Y Y C C A A A A A A A A A A A A A A A A A A A A A A A A A A A A A A A A A A A A A C A A ).%X'.).).).`.`.`.`.!.!.!.!.!.!.).`.`.`.`.`.`.`.`.`.!.!.E.E.E.E.E.E.W.W.R.).`.`.).`.*X%X%X%X%X%X%X%X%X%X%X).).'._.P.x.q.q.q.q.q.q.q.q.q.q.q.q.q.q.q.q.q.r.r.r.q.r.r.q.q.0.0.x.q.Q.Q.>.H A A ` ` ` ~ B A A A A A A A A A A A A A A A A A A A A A A A A A A A A A A A A A C A A C C A ~ ( ) &.`.`.).`.:X).T.6.&.=.>.>.=.>.=.=.=.>.>.>.>.>.>.>.>.>.=.=.=.>.>.>.>.=.,.,.=X3X6X6X6X8X3X3X3X3XOX[..XR.R.T.T.K.x.6.=.=.=.&.,.N.T.T.K.m.m.m.r.8.0.0.q.r.q.q.q.q.y.q.9.A.P.(.).).*X!.W.z.z.:.A ~ A A A A A A A A A A A A A A A A A A A A A A A A A A A A A A A A A A A A A A A A A A A A A A A A Z 6.x.x.x.9.A.9.x.(.,X`.).`.*X).!.!.W.W.W.E.E.W.W.W.W.W.W.W.!.`.`.`.`.`.`.`.`.`.`.`.).).).).).).!.`.!.!.U.&.A ~ ' !.*XU.=.C A / G ~ ~ ~ ~ ~ ~ ~ z.c.C m ~ B B B | | ' ~ C m m m m m M m m M Y ~ ^ ^ Y M j s y 4 6 4 4 5 5 5 5 5 # # # X X X X X X                                             ",
"                                                X # # 5 5 0 u d M v v M Y Y k 5 5 # # a ~ ] *.*...*.i.^ M M 8 i 8 8 j m m C B m C A A M m M B m ~ ' >.=.&.&.=.,.E A A A A A C B A A A A A A A A A A A A A A A A A A A A A A A A A A A A A A A A A A A A A A A A A A A A A A A A A A A A A A A A A A A A A A A A A A A A A A A A A A A A A A A A A A A A A A A A A A A A B B I I B Y A ~ ~ =.).`.`.`.`.`.`.`.`.`.`.`.`.`.`.`.`.`.`.`.`.`.`.`.`.`.`.`.`.`.`.`.`.).).).).`.`.).`.`.`.`.).).`.`.`.`.'.H.9.q.q.q.q.q.q.q.q.q.q.q.q.m.>./ ` ( ( ' ~ C Y Y A A A A A A A A A A A A A A A A A A A A A A A A A A A A A A A A A A A A A A A C A A ).%X:X).).).).`.`.`.`.!.!.!.!.!.!.).`.`.`.`.`.`.`.`.`.!.E.E.E.E.E.W.W.W.!.).`.`.).`.*X%X`.`.%X%X%X%X%X%X%X).`.`.`.P.A.9.q.q.q.q.q.q.q.q.q.q.q.q.q.q.q.q.r.r.r.r.r.r.r.r.q.q.x.9.H.H.%./ A A ` ` ` ~ B A A A A A A A A A A A A A A A A A A A A A A A A A A A A A A A A A C A A C A A ~ ( ) &.).).).).:X!.^.c.,.=.>.=.=.=.>.>.>.>.=.=.>.>.>.>.=.=.=.=.>.>.>.>.>.=.>.,.=X3X8X8X8X8X3X3X3X3X7X@X.XV.2.,.,.1.<.,.>.>.>.=.6.Q.T.T.T.M.m.m.q.8.0.0.r.r.q.q.q.q.q.q.q.x.A.L.!.`.*X).W.,.( ~ M C C A A A A A A A A A A A A A A A A A A A A A A A A A A A A A A A A A A A A A A A A A A A A A A A Z 6.x.x.x.9.H.9.x.Q.'.`.).`.`.).`.!.!.W.E.E.W.W.W.W.W.E.E.W.!.!.`.`.`.`.`.`.`.`.`.`.`.).).).).).`.*X!.!.).U.J.`.U.`.g.~ A Z V V c.W.).!.W.Y.Y.Y.~ ~ A m m m m m C C C C m m m m s m m m m C ~ ~ ^ ^ ~ Y M m i 4 6 4 4 4 5 5 5 5 # # # X X X X X X X X                                         ",
"                          X X X O O     X X X   X # # 5 5 0 u d M M P T ~ T M r M a M Y ] p.i.i.h.i.c.&.Y C j B E E ( E j B A A m C C M C ~ ~ ~ ' -.,.>.;.;.&.@.D A A A A A A C A A A A A A A A A A A A A A A A A A A A A A A A A A A A A A A A A A A A A A A A A A A A A A A A A A A A A A A A A A A A A A A A A A A A A A A A A A A A A A A A A A A A A A A A C C B C B B B B M Y B B b ( ).).`.`.`.`.`.`.`.`.`.`.`.`.`.`.`.`.`.`.`.`.`.`.`.`.`.`.`.`.`.`.`.`.).).`.`.`.).`.`.`.`.`.).`.`.`.`._.x.9.q.q.q.q.q.q.q.q.q.q.q.q.m.>./ ` ` ( ' ~ C Y Y C C A A A A A A A A A A A A A A A A A A A A A A A A A A A A A A A A A A A A A C A A ).).*X).).).`.`.`.`.`.`.!.!.!.!.!.`.`.`.`.`.`.`.`.`.`.!.E.E.E.E.W.W.W.W.!.).`.`.).`.*X).`.`.%X%X%X%X%X%X).).`.`.).Q.I.H.q.q.q.q.q.q.q.q.q.q.q.q.q.q.q.q.r.r.r.r.r.r.0.r.q.r.m.9.x.9.%.` A B ` ` ` ~ B A A A A A A A A A A A A A A A A A A A A A A A A A A A A A A A A A C A A C A A ~ ( ( &.`.`.).).*X!.J.g.>.>.=.=.>.>.>.>.>.>.=.=.=.>.>.>.=.=.>.=.>.>.>.>.>.;.>.,.=X3X8X8X8X8X3X3X3X1X8X;X}.V.&.| &.=.@.#.#.=.=.@.=.c.c.U.T.T.M.m.q.8.q.0.r.r.q.q.q.q.q.0.H.H.9.c.!.`.W.W.W.>.C A Y ~ C A A A A A A A A A A A A A A A A A A A A A A A A A A A A A A A A A A A A A A A A A A A A A A A Z 5.x.q.q.9.H.9.x.I.(.`.).`.`.).`.`.!.W.E.W.W.E.W.W.W.W.E.E.Q.!.`.`.`.`.`.`.`.`.`.`.`.).).).).).U.W.!.`.*X).W.!.).*Xc.' ' O.` / U.!.*X*X!.W.!.!.,.~ A m C ( ~ ~ m m m m m m m m m C C C Y ( ' ( ~ ^ E Y M m i 4 6 4 4 4 5 5 5 5 # # # X X X X X X X X                                         ",
"                        X X X X X X X X X X     X @ : 5 5 0 u d d M Y Y ~ _ ^ T ' ' ] ] *.*.*.*.c.&.g.h.h.*.m ] U.z.U.;.m m m m m C C C E ' ;.;.;.=.=.=.1.1.| C A A A A A A A A A A A A A A A A A A A A A A A A A A A A A A A A A A A A A A A A A A A A A A A A A A A A A A A A A A A A A A A A A A A A A A A A A A A A A A A A A A A A A A A A A A A A A A A A A Y C B B I Y Y Y E m A A =.tX).`.`.`.`.`.`.`.`.`.`.`.`.`.`.`.`.`.`.`.`.`.`.`.`.`.`.`.`.`.`.`.*X).).`.`.`.).`.`.).`.`.`.).).).`.`.x.9.x.q.9.q.u.q.q.r.q.q.q.q.m.>./ ` ` ( ' Y C C C C C A A A A A A A A A A A A A A A A A A A A A A A A A A A A A A A A A A A A A C A A ).).*X).).).`.*X`.`.`.`.!.!.!.!.!.).`.`.`.`.`.!.`.`.!.W.E.E.E.E.W.W.W.W.!.).`.`.).`.*X).`.`.`.`.%X%X%X%X).`.`.`.`.`.Q.P.q.q.q.q.q.q.q.q.q.q.q.q.q.q.q.q.r.r.q.r.0.0.0.0.q.q.x.9.x.9.O./ A B ` ` ` ~ B A A A A A A A A A A A A A A A A A A A A A A A A A A A A A A A A A A A A A C A ~ ( ( ;.:X:X).).*XW.>.=.=.=.>.=.>.<.>.>.=.=.=.=.>.>.>.=.=.=.>.>.>.>.>.>.>.;.>.,.=X3X3X8X3X8X3X3X3X1X3X;X!.Y.;.=.=.1.>.6.,.,.,.>.>.1.1.M.T.T.M.j.q.r.q.r.r.r.q.q.q.q.q.0.x.H.6.c.!.`.U.S.W.,.C ~ ' ( C A A A A A A A A A A A A A A A A A A A A A A A A A A A A A A A A A A A A A A A A A A A A A A A Z 5.x.q.q.q.H.q.q.A.L.(.`.`.).`.`.`.`.W.E.W.W.E.W.W.W.W.E.E.W.!.`.`.`.`.`.`.`.`.`.`.`.`.).).).).:X`.).).W.W.!.!.U.`.:X).).`.`.*XW.W.).).).).!.R.*Xl.C A l.!.R.c.A C C Z B m m m m ~ ( ( ( ' ' ' ^ ~ Y M s s i 6 6 6 4 4 5 5 5 5 # # # X X X X X                               X               ",
"                        X X X X X X X X X X X   X @ : 5 w w u d M U Y U Y Q ^ ^ ( ] &.*.*.*.:.,.,.g.c.,.g.&.8 &.z.g.c.| h N N A B A A C A ' ;.;.;.>.=.&.;.;.' D A A A C A A A A A A A A A A A A A A A A A A A A A A A A A A A A A A A A A A A A A A A A A A A A A A A A A A A A A A A A A A A A A A A A A A A A A A A A A A A A A A A A A A A A A A A A A A A A ~ ~ Y Y Y Y T E M Y C ~ C ` `.!.`.`.`.`.`.`.`.`.`.`.`.`.`.`.`.`.`.`.`.`.`.`.`.`.`.`.`.`.`.`.*X*X).).`.`.`.).`.`.).`.`.`.).).)._._.A.x.H.x.9.q.H.q.q.r.q.q.q.q.m.>./ ` ` ` ' E C C C C C A A A A A A A A A A A A A A A A A A A A A A A A A A A A A A A A A A A A A C A A !.).*X).).).`.*X`.`.`.`.!.!.!.!.!.!.`.`.`.`.`.!.`.`.!.U.E.E.W.W.W.W.W.W.!.).`.`.).`.*X).`.`.`.`.%X%X%X%X).%X`.`.'.'.`.(.q.q.q.q.q.q.q.q.q.q.q.q.q.q.q.q.q.r.q.q.0.0.0.0.q.0.q.9.m.x.@./ A B ` ` ` ~ B A A A A A A A A A A A A A A A A A A A A A A A A A A A A A A A A A A A A A A A ~ ( ( ;.:X:X`.).`.W.&.=.>.1.>.=.#.>.>.>.=.=.=.=.>.>.>.=.=.=.>.>.>.>.>.>.=.;.>.,.=X3X3X3X3X8X3X3X3X1X7X;XR.Y.-.,.=.>.>.,.>.#.,.,.>.&.=.k.T.T.M.j.x.m.q.r.r.r.q.q.q.q.u.0.q.x.6.J.`.`.F.c.W.,.A ~ ( A A A A A A A A A A A A A A A A A A A A A A A A A A A A A A A A A A A A A A A A A A A A A A A A A Z 5.q.q.q.q.H.q.q.9.H._.'.`.).*X`.'.`.W.E.W.W.E.W.W.!.W.E.E.W.!.`.`.`.`.`.`.`.`.`.`.`.`.).).).).!.W.).*XW.!.`.!.*X!.!.W.!.*X).).%X).!.R.!.*X!.Y.U.Y.m ~ Y.U.c.g.m m N N m m C C m ~ &.' ( ( ' ( ( ~ B i 4 6 8 8 6 4 4 4 5 5 5 5 # # # X X X X X                               X               ",
"                      O       O     X X O     X @ # # : 5 0 u d v M U Y T Q ~ _ _ ] ] &.*.:.,.p.,.g.l.&.7 A c.g.c.~ h m N m m m C ( &.&.&.=.=.&.>.=.1.,.( A A A B m A C j E ,.>.-.' A m m B A A A A A A A A A A A A A A A A A A A A A A A A A C A A A A A A A A A A A A A A A A A A A A A A A A A A A A A A A A A A A A A A A A A A A A A A A A A A C C A A A Y  X&XM T I ] 8XV.i B M m A m G l.`.`.`.`.`.).).).`.`.`.`.`.`.`.`.`.`.`.`.`.`.`.`.`.`.`.`.`.`.`.`.).).).).`.`.`.`.`.`.`.`.).).`.`.'._.(.E.H.m.q.q.q.q.q.q.q.q.q.q.#.} J / | ( A C Y Y Y Y Y Y A A A A A A A A A A A A A A A A A A A A A A A A A A A A A A A A A A B D 8 ( >X*X,X).*X!.`.`.W.!.*X^.W.`.:X!.!.).!.:X`.`.`.`.`.`.`.`.!.E.E.E.E.W.W.W.!.).`.`.).`.*X).`.`.`.`.%X%X%X%X).).`.).).:X'.I.9.q.q.q.q.H.q.9.q.q.q.q.q.q.q.q.q.q.q.q.r.r.r.r.r.8.m.q.x.x.@./ ` ` A A ' ~ B A A A A A A A A A A A A A A A A A A A A A A A A A A A A A A A A A B A A A A Y ~ ( ( &.`.`.`.`.`.J.>.=.=.>.>.>.>.>.>.>.=.=.=.=.>.>.>.=.=.=.>.>.>.>.@.>.,.=.&.g. XaX3X7X3X3X8X3X3X3XrXU.*.&.,.-.=.>.<.>.$.>.,.>.>.,.=.=.1.T.T.N.K.8.q.q.q.q.q.q.x.H.9.0.x.q.x.J.Q.*XY.c.Y.>.C ~ ~ ~ A A A A A A A A A A A A A A A A A A A A A A A A A A A A A A A A A A A A A A A A A B A C A A B ' c.x.q.q.q.q.q.q.m.q.H._.'.`.).`.`.`.`.!.W.E.E.W.W.W.W.E.W.W.W.W.).`.`.`.).).).`.`.`.`.).).).).).).).).).).).).).).).).).).).).).).).).!.!.).*X*X` Z R.J.c.W.m m N m b h m D ( ..' ( ( ' ( ~ ~ ' E M i 8 8 6 4 6 5 4 i M M a 5 # # # X X X X X                                                 ",
"                            X     X X X X     X @ # # 5 w 0 u d v M U Y T Q ~ ^ _ ] ] +.*.:.,.i.g.,.( ~ ' *.z.l.c.' D ~ ~ ~ ~ / ` | ;.;.&.&.=.=.&.| | ' C m D ' ( ' ~ A ( ' ~ ( >.&...' ' ( D N A A A A A A A A A C B C A A A A B B B A A A A A A A A A A A A A A A A A A A A A A A A A A A A A A A A A A A A A A A A A A A A A A A A A A A A A A A A C B C A Y }.7XM Y Y ] 8XOXp.h.,.*.,.=.>.E.`.`.`.`.`.).).).`.`.`.`.`.`.`.`.`.`.`.`.`.`.`.`.`.`.`.`.`.`.`.`.).).).).`.`.`.`.`.`.`.`.).).`.`.).).E.I.A.x.q.q.q.q.q.q.q.q.q.q.5.,.} / ' ` A C Y A Y Y C A A A A A A A A A A A A A A A A A A A A A A A A A A A A A A A A A A A B E B D ,.>.!.:X:X).).`.`.`.`.W.`.l.=.S.,X,XW.U.`.`.`.`.`.`.`.`.!.E.E.E.E.W.W.W.!.).`.`.).`.*X).`.`.`.`.`.%X%X%X).).`.`.).:X`.I.9.q.q.q.q.u.q.9.q.q.q.q.q.q.q.q.q.q.q.q.r.r.r.r.r.8.m.q.x.x.@./ ` ` A A ' ~ B A A A A A A A A A A A A A A A A A A A A A A A A A A A A A A A A A C A A A A Y ~ ( ~ &.*X*X!.).*XW.=.>.=.>.>.>.>.>.>.>.=.=.=.=.>.>.>.=.=.=.>.>.>.>.>.>.>.=.;.>.k.Y.7X7X3X3X8X8X3X3XaXY.p.-.a.,.=.>.=.#.#.>.,.>.>.,.=.&.=.N.T.T.K.8.8.5.9.5.5.5.6.7.q.r.x.x.x.c.K.W.U.c.W.,.~ ~ ~ ( A A A A A A A A A A A A A A A A A A A A A A A A A A A A A A A A A A A A A A A A A B A C A A B ' c.q.q.q.q.q.q.q.q.q.x.L.(.`._.`.`.`.`.!.W.W.W.W.W.W.W.E.W.W.W.W.!.).`.`.).).`.`.`.`.`.).).).).).).).).).).).).).).).).).).).).).).!.).).`.!.l.;.;.=.W.Y.U.J.~ / ` / ~ H ~ ` ( ' | ' ' ' ( ~ C C B j i m B M a 8 y a a y y a a 6 5 : # X X X X                                                 ",
"                              X   X X X X O X X @ # # 5 5 0 u d v M U Y T Q ~ ^ _ ] ] +.*.:.,.i.g.>.m E c.z.g.z.c.&.' &.@.' @.&.&.&.=.=.&.&.&.=.' A N D A A ( &.&.1.E N =.| N A &.&.=.,.,...~ m A A A A A A A A C C C C A A A A A A Y Y A A A C A A A A A A A A A A A A A A A A A A A A A A A A A A A A A A A A A A A A A A A A A A A A A A A A A A A C B B A Y Y.&XM v P ] 1X=X=X7X*XW.*X`.!.:X*X`.`.`.`.`.).).`.`.`.`.`.`.`.`.`.`.`.`.`.`.`.`.`.`.`.`.`.`.`.`.).).).).`.`.`.`.).).).`.`.`.`.`.).E.J.A.x.q.q.q.q.r.q.q.q.q.q.q.x.x.=./ ` ` E C A A C C C C A A A A A A A A A A A A A A A A A A A A A A A A A A A A A A A A A A B E A C C C U.:X!.`.).).*X*X*X<X,X6.Z =.).W.`.<X`.`.`.`.`.`.`.`.!.W.E.E.E.W.W.W.!.).`.`.).`.*X).`.`.`.`.`.`.%X%X*X).`.`.).*X`.L.9.q.q.q.q.q.q.q.q.q.q.q.q.q.q.q.q.q.q.q.r.r.r.0.r.0.m.q.x.x.#./ ` ` A A ' ~ B A A A A A A A A A A A A A A A A A A A A A A A A A A A A A A A A A A A A C A E ~ ( ) ;.:X`.).`.*XE.=.=.=.>.>.>.>.>.>.>.>.>.=.=.=.>.>.>.=.=.>.=.>.>.<.>.>.=.;.-.-.,.7X7X3X3X8X8X6X3X8Xb...] ....&.=.=.>.>.<.>.$.$.>.@.=.2.Z.K.M.K.m.<.<.>.>.$.>.>.$.q.q.x.x.c.c.M.J.U.U.Y.g.( ( ( ( A A A A A A A A A A A A A A A A A A A A A A A A A A A A A A A A A A A A A A A A A B A C A A B ' m.q.q.q.q.q.q.q.q.q.9.x.L.`.'.`.'.`.`.!.W.W.W.!.W.W.E.E.W.W.W.W.!.!.).`.`.`.`.`.).`.`.`.).).).).).).).).).).).).).).).).).).).).).).!.).`.E.@.m g.W.U.W.!.l.=.@.&.@.@.@.| ' ' ' ' ' ' ( ~ A m 8 m s j Y ^ Y j 4 a M a 5 4 j M y 0 5 # X X X X                                                 ",
"                              X     X X X O X X @ # # 5 w 0 u d v M U Y T Q ~ ^ _ ] ] +.*.:.,.i.,.i.~ ..B.h.,.c.c.&.' &.@.| @.&.&.=.&.&.&.=.&.| ` m m A A A ( >.=.2.~ D -.=.~ ( =.=.=.&.| ` D N A A A A A A A A A A A A A A A A A A A A A A A A A A A A A A A A A A A A A A A A A A A A A A A A A A A A A A A A A A A A A A A A A A A A A A A A A A A C B B E ^  X5Xp.*.Y ] 3X8X1X8X-XW.%X`.).).`.`.`.`.`.`.`.`.`.`.`.`.`.`.`.`.`.`.`.`.`.`.`.`.`.`.`.`.`.`.`.`.).).).).).`.`.`.).).).).`.`.`.).).E.S.x.x.q.q.q.q.r.q.q.q.q.q.q.x.m.>.J / ' ~ C A C C C C C A A A A A A A A A A A A A A A A A A A A A A A A A A A A A A A A A A A B B A m C W.`.`.:X`.).*XU.g.g.6.@.b l.,XU.`.*X`.`.`.`.`.`.`.`.!.!.E.E.E.W.W.W.!.).`.`.).`.*X).`.`.`.`.`.`.%X%X*X).`.`.).*X`.P.9.q.q.q.q.q.q.q.q.q.q.q.q.q.q.q.r.q.q.q.r.r.r.0.r.8.m.q.x.x.#./ ` ` A A ' ~ B A A A A A A A A A A A A A A A A A A A A A A A A A A A A A A A A A A A A C A Y ~ ' ' ;.`.`.*X*X*XJ.=.>.=.>.>.>.>.>.>.>.>.>.=.=.>.>.>.>.=.=.=.=.>.>.>.>.>.>.=.=.-.&.7X7X3X3X8X8X6X3X8X Xb.k.g.2.-.=.=.=.<.<.>.5.6.6.j.j.k.T.T.K.K.8.>.>.>.>.$.>.>.>.5.5.9.9.x.c.M.J.U.c.h.*.' ( ~ ~ A A A A A A A A A A A A A A A A A A A A A A A A A A A A A A A A A A A A A A A A A B A C A A B ' m.q.q.q.q.q.q.q.q.r.q.9.J._.'.`.`.`.`.^.!.W.W.W.W.W.E.E.E.E.W.W.W.!.).`.`.`.`.`.).`.`.`.`.).).).).).).).).).).).).).).).).).).).`.).!.!.).W.3.` c.`.c.U.!.l.=.&.@.@.&.@.&.| ' ' ( ' ' ~ A C m 8 i i j Y ^ E M s M M M s a M j y 0 5 # X X X X X X                                             ",
"                                  O X X X X X @ @ # : 5 w 0 p d v M U Y Q ! ^ ^ _ ] ] &.*.*.:.i.,.g.,.g.l.g.l.l.c.;.' @.@.@.@.@.@.=.=.@.=.=.' Z ~ Z A D m 8 ~ ,.=.=.&.=.=.-.-.=.,.,.-.| ~ B B A A A A A A A A A A A A A C C A Y C B B B B A A Y A A A A A A A A A A A A A A A A A A A A A A A A A A A A A A A A A A A A A A A A A A A A A A A A B A A C C Y ~ ( }.yX8X1XT [ 1X8X=X8X<X!.R.!.).).`.`.`.`.`.`.`.`.`.`.`.`.`.`.`.`.`.`.`.`.`.`.`.`.`.`.`.`.`.`.`.`.).).).).).`.`.`.).).).).`.`.).).).W.J.S.x.q.q.q.q.r.q.q.q.q.q.q.9.m.>./ / ' ~ N C C C C C C C C A A A A A A A A A A A A A A A A A A A A A A A A A A A A A A A A A m B A C A !.).!.).W.!.*Xc.H b G H V x.,X!.`.W.`.`.`.`.`.`.`.`.!.!.E.E.W.E.E.E.!.).`.`.).`.*X).`._.`.`.`.`.%X%X*X).`.*X).`.`.Q.x.r.q.q.q.q.q.r.q.q.q.q.q.q.q.q.q.q.q.q.r.r.0.0.r.0.m.q.x.x.#./ ` ` A A ' ~ B A A A A A A A A A A A A A A A A A A A A A A A A A A A A A A A A A A A A C C A ~ ( ~ @.`.`.`.`.*XU.=.=.>.>.>.>.>.>.=.=.=.>.>.>.>.>.>.>.>.>.=.=.=.>.=.>.>.>.=.=.-.,.7X7X7X3X3X3X2X3X8X3X8X8X+Xk.-. .=.2.>.>.<.9.I.P.^.Z.N.T./.T.M.#.>.>.>.>.>.>.>.,.$.$.$.<.5.x.M.J.U.k.&.( ~ ~ Y M A A A A A A A A A A A A A A A A A A A A A A A A A A A A A A A A A A A A A A A A A B A A A A B ' m.q.q.q.q.r.q.q.q.u.x.9.H.(.'.`.`.`.`.!.!.W.E.W.W.W.W.E.E.E.E.W.!.!.(.).`.`.).).).`.`.`.`.).).).).).).).).).).).).).).).).).).).).).).).).`.).!.U.!.J.J.).J.&.@.| | | | | ' ' ' ' | ( A m m m m 8 i m C Y Y Y T Y M M M M a y a 5 # X X X X X X                                               ",
"                                    X X X X X @ @ # : 5 w 0 p d v M U Y Q ! ^ _ _ ] ] +.*.*.:.,.g.g.g.z.g.g.J.,.J.=.' @.@.@.&.@.@.=.=.&.&.| H b A m A ' ' ' ' ( ' ~ =.g.' ( &.` ` ' | ` A N A D A A A A A A A A A A A C B C E ~ ' ( ~ Y A C A A A A A A A A A A A A A A A A A A A A A A A A A A A A A A A A A A A A A A A A A A A A A A A A A A B B B A E ~ ( ' }.=X8XyXp.n.3X=X8XrXpX-X!.!.`.`.).).`.`.`.`.`.`.`.`.`.`.`.`.`.`.`.`.`.`.`.`.`.`.`.`.`.`.`.`.`.`.`.).).).).).`.`.`.).).).`.`.).).!.!.!.E.I.H.q.0.r.r.q.q.q.q.q.q.9.m.>./ / ` D m A Y C C C C C C A A A A A A A A A A A A A A A A A A A A A A A A A A A A A A A A A B A E m C !.*X`.:X:X!.l.' A A b ' #.c.!.E.*X:X`.`.`.`.`.`.`.`.!.!.W.E.E.E.E.E.!.).`.`.).`.*X).`._.`.`.`.`.%X%X*X).`.*X`.`.'.(.L.H.q.q.q.q.q.u.q.q.q.q.q.q.q.q.q.q.q.q.r.r.0.0.r.0.m.q.x.x.#./ ` ` A A ' ~ B A A A A A A A A A A A A A A A A A A A A A A A A A A A A A A A A A C A A A A A E ~ ~ ;.,X).S.l.J.c.=.>.>.>.>.>.>.>.=.=.=.=.>.>.>.>.>.>.=.>.=.=.=.=.=.>.>.>.=.=.-.,.<X7X7X7X3X3X1X3X1X3X8X7X.XB.s.s.s.2.>.#.#.5.c.J.Z.T.T.T.m.1.8.#.>.>.=.=.>.>.,.,.$.e.<.<.8.x.M.U.Y.z.( ~ ( ~ Y M A A A A A A A A A A A A A A A A A A A A A A A A A A A A A A A A A A A A A A A A A B A C A A B ' m.q.q.q.q.r.q.q.q.q.q.q.x.L.!.(.`.`.`.!.!.W.E.E.W.W.E.E.E.E.E.E.!.!.!.).).).).).).).`.`.`.`.).).).).).).).).).).).).).).).).).).(.).`.).!.).`.`.W.W.!.J.!.U.&.&.&.@.@.| | ' | | ' ` A m 8 7 j B C B B B M m M T Y a 8 a a 5 5 y # # X X X X X X                                               ",
"                        X X       O X X X X @ @ # # : w 0 r u d v M U Y Q ! ^ _ _ ] ] +.*.:.,.,.g.g.i.l.g.g.c.6.l.&.| @.' | &.&.&.@.#.>.@.H A A A Z ~ ;.g.g.| m D N ' &.D N D N N B A A A A D D A A A A A A A A A A A A A E ( ..,.&.' ~ A B B C A A A A A A A A A A A A A A A A A A A A A A A A A A A A A A A A A A A A A A A A A A A A A A A A A A B A ~ ( ( ( =X5X1X8X1XfX8X1X1X;X<X-XW.W.!.!.).).).`.`.`.`.`.`.`.`.`.`.`.`.`.`.`.`.`.`.`.`.`.`.`.`.`.`.`.`.`.`.).).).).).`.`.`.).).).`.`.).!.E.W.*X).P.H.q.q.r.r.r.q.q.q.q.q.q.q.>./ ` ` H A A A Y Y A A C C A A A A A A A A A A A A A A A A A A A A A A A A A A A A A A A A B A E A N m U.*X*X*X:XJ./ 8 m ` Z 6.!.,X'.!.!.`.`.`.`.`.`.`.`.`.`.!.W.E.W.W.W.E.!.).`.`.).`.*X).`._.`.`.`.`.%X%X*X).`.*X`.`.`._._.I.q.q.q.q.q.q.q.q.q.q.q.q.q.q.q.q.r.r.r.0.0.0.r.0.m.q.x.x.#./ ` ` A A ' ~ B A A A A A A A A A A A A A A A A A A A A A A A A A A A A A A A A A B A A A B C A E ( ;.).J.3.=.6.>.=.=.>.>.>.>.>.>.=.=.=.>.>.>.=.=.=.=.=.=.=.=.=.=.>.>.=.=.=.=.-.-.<X7X7X7X3X3X1X3XrX4X=XXX.X~.~.+XZ.N.2.#.#.5.9.9.2.N./.T.6.#.<.$.>.>.>.=.;.>.:.=.>.<.9.8.x.x.M.U.Y.U.' ~ ' E E A A A A A A A A A A A A A A A A A A A A A A A A A A A A A A A A A A A A A A A A A A B A A A A B ' m.q.r.q.q.r.r.r.q.q.q.x.9.x.L.(.`.`.`.`.!.W.W.W.W.W.E.E.W.W.W.W.!.E.!.!.).`.`.).).).`.`.`.`.`.`.).).).).).).).).).).).).).).).).).).`.).!.!.W.E.!.W.!.U.J.l.=.&.&.&.&.@.| | | ' ' A m m m j m A ( ~ C M i 8 s M m 6 5 5 5 # < 5 # X X X X X X                                                 ",
"                      X X X X     O X X X X @ @ # # : w 0 r u d v M U Y Q ! ^ _ _ ] ] &.*.*.,.,.i.g.,.g.l.,.g.l.>.' ' @.' ' &.&.=.` @.1.@.N Z @.` @.=.;.~ ~ ~ A E A ~ ` A B A B A A B B A A A A A A A A A A A A A A E A E ~ ..-.&...` A B B A Y A A A A A A A A A A A A A A A A A A A A A A A A A A A A A A A A A A A A A A A A A A A A A A A A E A B E ~ ' ' ( Y.yX5X1X3X8X|.8X1X1X7X7X-X*X*X!.).).).`.`.`.`.`.`.`.`.`.`.`.`.`.`.`.`.`.`.`.`.`.`.`.`.`.`.`.`.`.`.).).).).).`.`.`.`.).).`.`.).E.F.W.:X:X!.I.r.r.q.r.r.q.q.q.q.q.q.q.$.` ` ` ~ ~ A A Y Y A A A A A A A A A A A A A A A A A A A A A A A A A A A A A A A A A A A A B A A A A A U.!.&.` &.&.~ C ~ ~ l.U.).W.!.'.W.`.`.`.`.`.`.`.`.`.`.!.W.E.W.W.W.E.R.).`.`.).`.`.).`.`.`.`.`.`.%X%X*X).`.*X).`.:X`.].L.q.q.q.q.q.q.q.q.q.q.q.q.q.q.q.q.q.0.0.0.r.r.r.0.m.q.x.x.#./ ` ` A A ' ~ B A A A A A A A A A A A A A A A A A A A A A A A A A A A A A A A A A B C A A B B A A ` ' c.3.=.,.6.@.=.=.>.>.>.>.>.>.=.=.=.>.>.>.=.=.=.=.=.=.=.=.=.=.>.=.=.=.>.,.=.*.<X7X3X3X8X3X1X1X8X3X@X@XOX.X~.~.^.Z.j.2.1.m.J.J.m.m.m.Z.M.N.m.#.<.>.>.>.=.;.;.>.#.e.9.x.x.x.c.J.B.U.' ~ ' A A C A A A A A A A A A A A A A A A A A A A A A A A A A A A A A A A A A A A A A A A A A B A A A A C ' m.q.q.q.r.r.r.q.u.q.r.H.9.9.H.`.`.'.'.`.`.!.W.W.W.W.E.E.W.W.W.W.E.E.E.!.).`.`.`.).).`.`.`.`.`.`.).).).).).).).).).).).).).).).).).).(.(.).`.).W.W.!.W.U.l.=.>.@.@.@.@.@.| | ' ' | Z m A ~ ~ E ( ~ C m j i i s M 4 8 4 5 5 4 5 # # # X X X X                                                   ",
"                          X O     X X X X X X X @ # # 5 w w u d M M Y Y T Q ^ ( _ ] +.&.*.:.:.3.i.g.,.l.l.g.z.>.' ' ' O.@.@.@.@.=.| &.,.@.A ~ =.,.>.>.>.( M m ~ A A C A A A C C ~ H A A C C C A C C A C A A A A m D A m A @.,.=.=.H h m A C B A A A E j E M A A A A A A A A A A A A A A A A A A A A A A A A A A A A A A A A A A Y Y Y Y A A A A A E A A ~ ( ( ]  X3X3X1X3X1X3X1X3X3X3X3X7X;X}.}.!.`.'.).).'.'.).`.`.`.`.`.`.`.`.`.`.`.`.`.`.`.`.`.`.`.`.`.`.`.`.).).).).).).`.`.).`.`.).).`.!.W.F.*X).).`.x.9.H.q.q.q.q.q.q.q.q.r.q.$./ ` ' ( ( A A A A A A A A A A A A A A A A A A A A A A A A A A A A A A A A A A A A A A A A C ~ C C C ~ c.*X~ m B C A ~ C ' *X`.!.!.!.).).!.`.`.`.`.`.`.`.`.`.`.).W.E.W.W.E.!.`.'.`.`.`.`.!.`.`.`.`.`.`.`.`.`.`.`.`.`.`.`.`.'.P.q.9.q.H.u.q.r.r.q.q.q.q.q.q.q.q.q.r.r.r.r.r.u.9.H.9.x.x.#.) ( ( A A ( ~ C A A A A A A A A Y A A A A A A A A A A A A A A A A A A A A A A A A A A A A A A A D ~ @.=.=.=.=.=.=.=.=.=.=.=.=.=.=.,.,.>.,.=.>.=.=.=.=.&.=.=.=.=.,.=.>.>.>.>.=.=.-.7X5X8X8X6X2X6X8X4X3X3X@XXX.XR.~.~.~.+X-.2.Z.R.j.8.8.m.M.M.T.M.#.2.#.#.>.#.$.>.$.%.e.9.8.j.x.J.U.W.c.&.~ ( ~ A N A A A A A A A A A A A A A A A A A A A A A A A A A A A A A A A A C C A A B B I I Y C C A A C H / q.q.q.q.q.q.q.q.H.q.r.u.q.9.I.].'.`.`.`.*X*X`.E.!.W.W.W.W.W.W.W.W.E.W.!.`.`.`.`.`.`.`.`.`.`.`.`.).).).).).).).).).).).).).).).).).).).).).).!.!.W.E.E.W.&.&.@.@.@.@.| | | | ' ' ' N m ~ ' ( ~ ( Y M s s a s 8 7 7 4 4 5 5 5 5 5 # # # # X X X       X                                         ",
"                            O O   X X X X X X X @ # # 5 w w u d M M Y Y T ~ ^ ( _ ] +.+.*.:.:.3.i.g.,.l.l.g.z.>.' ' ' @.@.@.@.@.&.@.&.=.&.' ' =.-.-.>.;.( C C ~ A C C C A A A Y C C C A A A A A A A A A A A A A A A A / @.=.=.=.| ' ' | ( A N N A N A M ~ M M A A A A A A A A A A A A A A A A A A A A A A A A A A A A A A A A A Y Y Y Y A A A A A E C A ~ ( ( '  X3X3X1X3X1X3X1X3X3X3X3X1X1X|.}.!._.`._.).'.'.).`.`.`.`.`.`.`.`.`.`.`.`.`.`.`.`.`.`.`.`.`.`.`.`.).).).).).).`.`.).`.*X%X*X*X!.R.F.:X).).(.x.9.q.q.q.q.q.q.q.q.q.r.q.$.` ` ' ( ( A A A A A A A A A A A A A A A A A A A A A A A A A A A A A A A A A A A A A A A A M ~ C A A A ;.>.A A ~ C A C s ' *X`.!.!.!.).).!.`.`.`.`.`.`.`.`.`.`.`.W.E.W.W.E.!.`.'.`.`.`.`.!.`.`.`.`.`.`.`.`.`.`.`.`.`.`.`.`.`.P.x.9.9.q.q.q.q.r.q.q.q.q.q.q.q.q.r.r.r.r.r.r.u.0.H.q.x.x.#.) ` ( A A ( ~ C A A A A A A A Y Y A A A A A A A A A A A A A A A A A A A A A A A A A A A A A A A D ~ | =.=.=.=.=.=.=.=.=.=.=.=.=.=.>.>.>.>.>.>.>.>.=.&.&.=.=.=.=.,.=.>.>.>.>.>.=.-.7X5X8X6X6X2X6X8X4X4X4X1X@X.X.X.X.XC.~.-.X.a.B.N.K.8.m.K.T.T.Z.6.k.j.m.m.5.4.5.5.5.7.q.x.x.M.U.c.i.*.( Y ( ~ A N A A A A A A A A A A A A A A A A A A A A A A A A A A A A A A A A C C A A B B B I Y B C A A ` #.,.q.q.q.q.q.q.q.q.r.q.q.r.q.0.I._.`.`.`.!.`.`.!.U.!.W.W.W.W.E.W.W.W.E.W.!.).`.`.`.`.`.`.`.`.`.%X`.).).).).).).).).).).).).).).).).).).).).).).!.!.W.E.E.W.&.&.@.@.@.@.| | | | ' ' @.~ A ~ ( ~ ~ ( ~ C s s s s 7 7 4 4 5 5 5 5 5 5 # # # # X X X                                                 ",
"                                  X X X X X X X @ # # 5 w r p d M M Y Y T Q ^ ( _ ] ] +.*.:.:.3.i.g.,.l.l.g.z.>.' ' ' O.@.@.@.@.@.&.&.&.&.&.;.&.;.-.;...~ A C A C A A A A A A A A A A A A A C C C C C A A A A C D m A &.6.,.&.&.,.,.,.=.' ~ D D B A E B A N A A A A A A A A A A A A A A A A A A A A A A A A A A A A A A A A A A Y A A A C C A A A E C A ~ ( ( '  X8X3X1X3X1X3X1X3X3X3X3X3X1X=X=X!.).).).).'.`.).`.`.`.`.`.`.`.`.`.`.`.`.`.`.`.`.`.`.`.`.`.`.`.`.).).).).).).`.`.).`.*X*X*X*XR.Y.S.*X%X).).I.H.9.q.q.q.q.q.q.q.q.r.q.$./ ` ' ( ( A A A A A A A A A A A A A A A A A A A A A A A A A A A A A A A A A A A A A A A A B A C Y Y C A C m ~ ~ M A ~ A ;.*X`.).!.!.).`.`.`.`.`.`.`.`.`.`.`.`.!.W.E.W.W.E.!.`.'.`.`.`.`.`.`.`.`.`.`.`.`.`.`.`.`.`.`.`.`.`.).Q.H.9.9.q.q.q.q.q.q.q.q.q.q.q.q.q.q.q.r.r.r.r.r.0.H.q.x.x.#.) ( ( A A ' ~ C A A A A A Y Y Y Y A A A A A A A A A A A A A A A A A A A A A A A A A A A A A A A D ~ | =.=.=.=.>.=.=.=.=.=.=.=.=.=.>.=.=.=.=.=.>.,.=.=.=.=.=.=.=.,.=.=.=.>.>.>.=.-.7X5X8X6X6X2X6X8X1X4X4X3X$XOX.X.X.XC.~.2. .X.s.T./.t.8.K.T.T.T.T.N.M.K.K.9.5.9.y.9.r.m.m.M.J.U.c.( ( Y Y ~ ~ A A A A A A A A A A A A A A A A A A A A A A A A A A A A A A A A A A C C A A B A I I B B A Z A @.x.c.q.q.q.q.q.q.q.q.q.9.9.q.q.q.H.P.!.'.*X!.!.`.`.E.!.W.W.W.E.E.E.E.E.E.W.!.!.`.`.`.`.`.`.`.`.`.%X`.).).).).).).).).).).).).).).).).).).).).).).!.!.W.E.E.W.&.&.&.&.@.@.| | | | ' ' &.' ( ( ( ~ ~ ~ ~ M s s s y y 8 4 4 4 5 5 5 1 5 # # # X X X X                                                 ",
"                      O           X X X X X X @ @ # : 5 0 r d k M M Y Y T Q ^ ( _ ] ] +.*.:.,.3.i.g.,.l.l.g.z.>.' ' ' ' @.@.@.@.&.&.&.&.&.&.&.&.-.>.&.( Y A C C C A D D A A C C D A C C C C C A C M B C A A A A D m C | ,.=.=.>.,.=.| H A A A m D E E N M W ( A A A A A A A A A A A A A A A A A A A A A A A A A A A A A A A A A A A C C C C A A A E B A ~ ( ( '  X8X3X1X3X1X3X1X1X1X3X3X3X1X=X=XW.).).).`.).).).`.`.`.`.`.`.`.`.`.`.`.`.`.`.`.`.`.`.`.`.`.`.`.`.).).).).).).).`.`.*X*X*X!.R.Y.c.c.*X`.).).!.Q.q.q.q.q.q.q.q.q.q.r.q.$./ ` ( ( ( C C A A A A A A A A A A A A A A A A A A A A A A A A A A A A A A A A A A A A A A C A C C A C C B C C A M A *.c.B.*X`.`.!.!.!.!.`.`.`.`.`.`.`.`.`.`.`.!.W.E.W.W.E.!.`.`.`.`.`.`.`.`.`.`.`.`.`.`.`.`.`.`.`.`.`.`.`.`.`.Q.H.9.q.q.r.q.q.q.q.q.q.q.q.q.q.q.q.r.r.r.r.r.0.H.q.q.q.%.) ( ( A A ' ~ C A A A A A A Y Y Y A A A A A A A A A A A A A A A A A A A A A A A A A A A A A A A A ~ | =.=.=.=.>.=.=.=.=.=.=.=.=.=.=.=.=.=.=.=.>.,.,.,.=.,.,.=.=.=.=.=.=.>.>.>.=.-.7X5X8X8X6X2X8X8X2X4X4X3X1XOX.X~.~.~.oXa.X.X.a.~./.m.5.m.Z.T.T./.N.2.1.6.<.5.q.H.q.q.q.x.M.U.U.c.~ ( ( ~ ( ~ A A A A A A A A A A A A A A A A A A A A A A A A A A A A A A A A A A C C A A B B I I B A A N Z &.J.A.q.q.q.q.q.q.q.q.q.9.9.q.q.q.u.I.E.`.*X!.!.'.'.!.!.W.W.W.E.E.E.E.E.E.W.W.!.!.`.`.`.`.`.`.`.`.%X`.).).).).).).).).).).).).).).).).).).).).).).!.!.W.E.E.W.&.&.&.&.@.@.| | | | ' ' ' ' ' ( ( ( ~ ~ M x 8 s s s y s 7 7 7 4 5 5 1 # # # # X X X X                                                 ",
"                      X       O   X X @ X X @ @ @ # : w 0 r d k M M Y Y T Q ^ ( _ ] ] +.*.:.:.3.i.g.,.l.l.g.z.>.' ' ' ' @.@.@.@.&.@.&.=.&.@.&.,.=.&.( A C C A A A A A C C C A ~ A A A A A A A A ~ A C A A A C A A A ~ ' =.=.>.,.&.=.| D Z A A N A m m A m B B j A A A A A A A A A A A A A A A A A A A A A A A A A A A A A A A A C C C C C C A A A A B A ` ( ~ (  X3X3X3X3X1X3X1X1X1X1X5X3X3X1X;X%X).).).`.`.).).`.`.`.`.`.`.`.`.`.`.`.`.`.`.`.`.`.`.`.`.`.`.`.`.`.).).).).).).`.`.`.*X%X!.Y.U.J.D.*X`.`.`.'.'.q.q.q.q.q.q.q.q.q.r.q.$./ ` ( ( ( A A C C A A A A A A A A A A A A A A A A A A A A A A A A A A A A A A A A A A A A A C A C C A A Q ~ m A Y m ,.<X*X`.`.`.).!.!.!.`.`.`.`.`.`.`.`.`.`.`.`.W.W.W.W.E.!.`.`.`.`.`.`.`.`.`.`.`.`.`.`.`.`.`.`.`.`.`.`.`.`.'._.I.q.q.H.r.q.q.q.q.q.q.q.q.q.q.q.q.r.r.r.r.r.0.H.q.x.x.%./ ( ( A A ( ~ C A A A A A A C C C A A A A A A A A A A A A A A A A A A A A A A A A A A A A C A A A ~ | =.=.=.=.>.=.=.=.=.=.=.=.=.=.=.=.=.=.=.=.=.=.=.;.=.=.,.=.=.>.=.=.=.>.>.>.=.-.7X5X6X6X6X2X8X8X4X4X4X3X1XOX.XC.~..XoX-.X. .2.T.T.M.8.6.N.T.T.T.8. .@.>.6.8.x.q.m.q.9.9.c.U.U.c.( ] ' ( ' ~ A A A A A A A A A A A A A A A A A A A A A A A A A A A A A A A A A A C A A A A A A I B B E A m &.J.9.q.q.q.q.q.q.q.q.q.q.0.q.q.q.q.q.L.).*X!.!.`.`.!.!.W.W.E.E.W.W.W.E.E.E.E.W.!.).`.`.`.`.`.`.`.%X`.`.).).).).).).).).).).).).).).).).).).).).).!.!.W.E.E.W.=.@.&.&.@.@.| | | ' ' ' ` ' ' ' ' ( ~ M s 8 8 s s y 8 s 7 7 7 7 4 4 5 5 5 # # X X X X X                                               ",
"                      X       X   X X @ X X @ @ # # : w 0 u d k M M Y Y T Q ^ ( _ ] ] +.*.:.:.3.i.g.,.l.l.g.z.>.' ' ' ' @.@.@.@.&.@.&.=.=.&.&.,.| ` A C C A A D A A C N B E ' ;.' ' &.;.&.( ~ A ;.( A A A C Z A C ` &.&.=.,.,.=.=.,.&.~ N A ` &.&.&.k.oXX.m N ` A A A A A A A A A A A A A A A A A A A A A A A A A A A A A A A A C C C C C C A A A A B A ( ( ~ ~  X3X3X3X3X1X3X1X1X1X1X3X3X3X1X;X>X).).).`.).).).`.`.`.`.`.`.`.`.`.`.`.`.`.`.`.`.`.`.`.`.`.`.`.`.`.`.).).).).).).).).).%X!.W.Y.Y.!.*X`.`._._.'.9.q.q.q.q.q.q.q.q.r.q.$./ ` ( ( ( A A C C A A A A A A A A A A A A A A A A A A A A A A A A A A A A A A A A A A A A C C ~ A C A C A ~ m A Y 7 ] <X!.`.`.`.`.!.!.!.`.`.`.`.`.`.`.`.`.`.`.`.!.W.W.W.U.W.!.`.`.`.`.'.`.`.`.`.`.`.`.`.`.`.`.`.`.`.`.`.`.`.'.`.J.9.q.r.q.q.q.q.q.q.q.q.q.q.q.q.q.q.r.r.r.r.0.H.q.q.x.%./ ( ( A A ( ~ C A C A A A C C C C A A A A A A A A A A A A A A A A A A A A A A A A A A A A C A A A ~ | =.=.=.=.>.=.=.=.=.=.=.=.=.=.=.=.=.=.=.=.=.=.| ' @.&.=.=.=.,.=.=.=.>.>.>.=.-.7X5X8X6X6X1X3X8X4X3X3X3X1X@X.XC..X.X~.X. . .2.T.T.].T.j.N.^.~.Z.j.>.>.M.K.L.H.9.m.x.x.x.c.U.U.c.( ' ' ( ( ~ C A A A A A A A A A A A A A A A A A A A A A A A A A A A A A A A A A A A A A A A I I B m D D N #.J.9.q.q.q.q.q.q.q.q.q.q.q.q.q.q.0.9.E.!.`.'.`.`.`.`.!.W.W.E.W.W.W.W.E.E.E.E.W.W.!.`.`.`.`.`.`.`.%X`.`.`.).).).).).).).).).).).).).).).).).).).).!.!.W.E.E.W.=.@.&.@.@.@.| | | ' ' ' ' ' ( ( ( ~ C 8 s s s m s 8 7 s 4 7 7 y s s p y 4 5 # # X X X                                                 ",
"                            X X X X X @ @ + @ @ # # 5 5 0 u d k M M Y Y T Q ^ ( _ ] ] &.*.:.:.,.i.g.,.l.l.g.z.>.' ' ' ' @.@.@.@.&.&.&.&.=.=.&.@.` A N C A A A A A D H H ~ ( &.,.,.,.1.1.,.&.( / ,.' ~ A D A A H ` @.,.,.=.>.>.=.=.=.| D m Z ' =...&.M.-X-.D j B A A A A A A A A A A A A A A A A A A A A A A A A A A A A A A A A Y Y C C C C A A C A B A ( ( E E  X3X3X3X3X1X3X1X3X3X1X3X3X3X1X;X<X*XW.!.).).).`.`.`.`.`.`.`.`.`.`.`.`.`.`.`.`.`.`.`.`.`.`.`.`.`.`.`.).).).).).).).!.!.).R.Y.Y.R.*X*X).`.).`.'.9.q.q.q.q.q.q.q.q.r.q.$./ ` ' ( ( A A C C A A A A A A A A A A A A A A A A A A A A A A A A A A A A A A A A A A A A A M ~ A C Q m C C C M Y ~ ,.=XR.).`.`.`.!.!.!.`.`.`.`.`.`.`.`.`.`.`.`.!.W.W.W.U.W.!.`.`.`.`.`.`.`.`.`.`.`.`.`.`.`.`.`.`.`.`.`.`.).`.(.J.9.q.q.9.q.q.r.q.q.q.q.q.q.q.q.q.q.q.r.r.r.0.H.q.q.x.%./ ( ( A A ( ~ C A C C Y Y Y A C C A A A A A A A A A A A A A A A A A A A A A A A A A A A A C A A D ~ | =.=.=.=.>.=.=.=.=.=.=.=.=.=.=.=.>.,.>.=.&.&.' ' | &.=.=.=.>.=.>.=.>.>.>.=.-.7X3X8X8X6X1X3X3X3X3X3X3X3X@XOX.XR..X~.a.k.=.1.^.^.wX^.N.N.T.T.N.8.1.x.Q.Q.J.x.8.9.9.c.c.J.U.U.c.~ ' ( ( ( ~ A A A A A A A A A A A A A A A A A A A A A A A A A A A A A A A A A A A A A A B A B B A j D H Z @.J.9.q.q.q.q.q.q.q.q.9.q.r.q.q.q.q.q.J.U.!.`.*X'.`.'.!.W.W.W.W.W.W.W.E.E.E.E.W.W.!.`.`.`.`.`.`.`.%X`.`.`.).).).).).).).).).).).).).).).).).).).).!.!.W.E.E.W.=.@.@.@.@.@.| | | ' ' ' | ' ( ` ~ m m 8 s s s s s 8 s m s s a x x x a a y 5 : # # X X                                                 ",
"                                O X @ @ @ + @ @ # # 5 5 0 u d k M M Y Y T ~ ^ ( _ ] ] &.*.:.:.3.i.g.,.l.l.g.z.>.' ' ' ' @.@.@.@.@.=.&.| &.,.@.D ~ C m A H Z N Z Z H ' @.&.&.;.=.>.=.=.=.=.&.&.&.,.' A A A A D ` &.=.,.,.=.&.=.>.,.=.&.&.&.&.&.&.1.....M.M.oXa.h A A A A A A A A A A A A A A A A A A A A A A A A A A A A A A A A Y Y C C C C A A B A B A ( ( A A  X3X3X3X3X1X3X1X3X3X3X3X3X3X3X5X7X*X!.!.).).).`.`.`.`.`.`.`.`.`.`.`.`.`.`.`.`.`.`.`.`.`.`.`.`.`.`.`.).).).).).).).!.!.!.W.U.U.W.*X).!.*X).).'.x.x.q.q.q.q.q.q.q.r.q.$./ ` ' ( ( A A C C A A A A A A A A A A A A A A A A A A A A A A A A A A A A A A A A A A A A ~ M Y B C ~ m A C ~ x ~ c.}.>X*X).`.`.`.!.!.!.).`.`.`.`.`.`.`.`.`.`.`.!.W.!.W.U.W.!.`.`.`.`.`.`.`.`.`.`.`.`.`.`.`.`.`.`.`.`.`.`.`.*X).J.x.x.q.9.q.q.q.q.q.q.q.q.q.q.q.q.q.q.r.r.r.0.u.q.q.q.%./ ( ( A A ( ~ C A C C Y Y Y C C C A A A A A A A A A A A A A A A A A A A A A A A A A A A A A A A D ~ | =.=.=.=.>.=.=.=.=.=.=.=.=.=.=.=.,.,.,.=.&.&.&.@.&.=.>.=.=.=.=.=.>.>.>.>.=.-.<X3X8X8X8X3X3X3X3X3X3X3X4X1X@X.XR.~.+XZ.^.2.=.^.T.-XR.j.j.N.s.j.=.=.j.K.x.,.,.6.>.6.x.J.U.Y.U.c.^ ' ( ' ' ( A C A A A A A A A A A A A A A A A A A A A A A A A A A A A A A A A A A A A A B B B A E j A H n } H.9.q.q.q.q.q.q.q.q.0.q.r.q.q.q.q.x.6.6.c.!.`.!.!.`.!.W.W.E.W.W.W.W.E.E.E.E.U.W.!.`.`.`.`.`.`.`.%X`.`.`.).).).).).).).).).).).).).).).).).).).).!.!.W.E.E.W.=.@.@.@.@.@.| | | ' ' ' ' ' ( ~ C 8 8 m s s s s s 8 m C M M M M M M a i a 0 : # # X X   X X                                           ",
"                                  X X + @ @ @ @ # # # w 0 u d k M M Y T Q ~ ^ ^ ] ] +.&.*.:.,.,.,.g.g.l.c.l.>.,.' ' ' @.@.@.@.&.@.&.&.@.| ' ` D A Z Z H ~ D D ~ H / ' &.=.,.,.=.=.=.,.,.=.,.,.@.;.| / A m C ~ ` =.=.=.=.=.=.=.=.@.1.1.=.=.=.=.,.1.,.&.-.Y.-Xj.A ( m E ~ B A A Y A A A A A A A A A A A A A A A A A A A A A A A A Y Y C C C Y A A A A D ~ ~ E E ~  X8X3X1X3X1X3X1X3X3X3X3X3X3X3X7X7X=XW.*X*X!.%X>X`.`.`.`.`.`.`.`.`.`.`.`.`.`.`.`.`.`.`.`.`.`.`.`.).).).).).).).).!.`.%XW.U.U.Y.R.*X%X).`.`.).!.L.c.x.q.q.q.q.q.q.q.q.#.K | ' ~ ( A A Y A A A A A A A A A A A A A A A A A A A A A A A A A A A A A A A A A A A A A A A A A A A A A M ~ ~ A W.*Xc.Y.U.J.U.).J.E.,XU.!.!.`.`.`.`.`.`.`.`.`.*X!.W.U.W.W.!.`.`.`.`.`.`.`.`.`.`.`.`.`.`.`.`.`.`.`.`.`.`.`.,X_.A.x.x.x.H.q.q.q.q.q.q.q.q.q.q.q.q.q.q.q.q.0.q.r.H.H.9.$./ ( ( A A ' ~ C A C C A A A A A Y A A A A A A A A A A A A A A A A A A A A A A A A A A A A C A A D ` ' &.=.=.=.=.=.=.=.=.=.=.=.=.=.=.,.,.=.=.=.&.` @.&.=.,.=.;.=.>.=.=.>.>.>.>.=.-.<XyX3X1X8X3X3X1X8X1X1X=X4X@XrXoX~..X~.+X-Xa.=.^.oX^.~.V.k.j.6.&.=.>.8.m.x.1.>.>.#.6.x.J.U.c.U.c.~ ' ' ( ~ Y A C A A A A A A A A A A A A A A A A A A A A A A A A A A A A A A A A C C A A A A A A E B Z Z Z #.P.9.q.q.q.q.q.q.q.q.q.q.r.r.q.q.q.A.6.&.g.).`.`.`.!.!.!.W.E.W.W.E.E.W.W.E.E.W.!.`.`.`.`.`.`.`.`.%X`.).).`.).).).).).).).).).).).).).).).).).).).!.!.U.`.c.c.,.=.@.&.@.@.| ' @.&.| ` ' ` ~ A m m m m m m m x s m M C C C M M M x a a y 0 5 : # X X X X X                                           ",
"                                  X X + @ @ @ @ # # : w 0 u d k M M Y T Q ~ ^ ^ ] ] +.&.*.:.,.,.,.g.,.g.l.,.O.' ' ' ' @.@.@.@.&.&.&.' H A A A m Z A / &.,.=.=.,.=.=.,.,.,.=.=.&.&.&.=.=.&.=.=.@.Z m m N D ' =.6.=.=.>.=.=.=.=.>.>.>.=.>.1.1.,.&. .&.=.-.=.-.B.;X' B ~ ( A A A A A A A A A A A A A A A A A A A A A A A A A A A A A Y C C C Y A A B A ~ ~ E A E (  X8X3X1X3X1X3X1X3X3X3X3X3X3X3X7X7X>X*X}.!.*X%X%X`.`.`.`.`.`.`.`.`.`.`.`.`.`.`.`.`.`.`.`.`.`.`.`.).).`.).).).).).!.).).W.c.U.Y.R.*X%X).`.`.`.).!.L.H.9.q.q.q.q.r.r.q.#.J ` ` ~ ( A A Y A A A A A A A A A A A A A A A A A A A A A A A A A A A A A A A A A A A A A A A A A A A A A C ' >X!.~ m Y C G H A Z b &.,X`.!.!.`.`.`.`.`.`.`.`.`.`.!.W.E.W.W.W.`.`.`.`.`.`.`.`.`.`.`.`.`.`.`.`.`.`.`.`.`.`.).:X).S.x.x.9.q.q.q.q.q.q.q.q.q.q.q.q.q.q.q.q.q.r.r.q.q.q.9.%.J ` ( A A ' ~ C A A A A A A A Y Y A A A A A A A A A A A A A A A A A A A A A A A A A A A A C A A D ` | =.=.=.=.=.=.=.=.=.=.=.=.=.=.=.=.=.=.,.=.@.` @.&.=.=.=.=.=.>.=.=.=.>.>.>.=.-.=X7X3X1X8X3X3X3X8X3X8X4X4XOXrXOX.XoXR.oX^.s.1.^.oX@X+XoXT.k.j.1.>.>.=.#.@.} =.1.>.=.@.,.c.J.Y.z.~ ( ' ~ Q A A B A A A A A A A A A A A A A A A A A A A A A A A A A A A A A A A A C C A A A A A A B B D D Z %.I.9.q.q.q.q.q.q.q.q.q.q.r.q.q.q.q.x.6.;.g.`.`.`.`.`.`.!.W.W.W.W.W.W.E.W.E.E.W.!.!.`.`.`.`.`.`.`.%X`.).).`.).).).).).).).).).).).).).).).).).).).!.!.E.W.=.=.@.@.@.&.@.@.| ' | | ' ~ m m m 8 8 8 m A ~ ~ ~ Y C C Y Y C C M M M x a a y r 5 : # X X     X X X                                       ",
"                              O   X X @ @ @ @ @ # # : w 0 u d k M M Y T Q ~ ^ ( ' ] +.&.*.:.,.,.d.g.g.g.l.>.' ( ' ' ' O.@.@.@.&.=.=.' N m A H A A D / =.,.=.=.=.,.,.>.=.=.=.=.=.,.,.1.1.@.@.&.' A A C A / ' &.&.=.=.>.>.>.>.>.>.<.#.=.>.>.>.>.&.1.-.,.-.&.&.M.wX' C ( ' A A A A A A A A A A A A A A A A A A A A A A A A A A A A A A A C A A A A M A ~ ~ A C E '  X8X3X1X3X1X3X1X3X3X3X3X3X3X3X7X;X7X<X}.W.%X*X!.`.`.`.`.`.`.`.`.`.`.`.`.`.`.`.`.`.`.`.`.`.`.`.`.).`.`.`.).).).).!.).!.Y.U.U.R.R.`.).).).*X:X`.`.`.J.9.q.H.0.0.r.0.q.>.%.` ) ~ ( A Y Y A C A A A A A A A A A A A A A A A A A A A A A A A A A A A A A A A A A A A A A A A A A A A A Y !.oXm 8 ~ C Z Z Z A H ,.`.!.!.!.`.`.`.`.`.`.`.`.`.'.`.W.W.W.W.!.!.`.`.`.`.`.`.`.`.`.`.`.`.`.`.`.`.`.`.`.`.`.).:X).J.J.c.9.9.q.q.q.q.q.q.q.q.q.q.q.q.q.q.q.q.r.r.q.0.q.9.$.' ` ( A A ' ~ C A A A A A Y Y Y Y A A A A A A A A A A A A A A A A A A A A A A A A A A A A C A A D ` | =.,.=.=.=.=.=.=.=.=.=.=.=.=.=.&.;.,.,.=.@.' &.&.=.=.=.=.=.>.=.=.>.>.>.>.=.-.;X7X3X3X8X8X7X8X1X=X3X1X4X@XeXR.V..X~.R.^.j.1.T.V.+X;X;XR.j.j.=.=.=.>.1.,.>.=.=.1.,.@.,.z.U.W.z.~ ( ( ~ A A C B A A A A A A A A A A A A A A A A A A A A A A A A A A A A A A A A C Y Y A I I A A M B A D Z } H.q.q.q.q.q.q.q.q.q.q.q.q.q.0.q.q.q.x.&.g.`.`.!.`.`.`.`.!.W.W.W.W.W.E.E.E.E.W.W.!.`.`.`.`.`.`.`.%X`.).).`.).).).).).).).).).).).).).).).).).).).!.!.!.E.@.@.' &.&.&.@.@.| ' ' ' ` H h m m m m m C ~ ( ( ( ~ Y A Y Y C C M M m x a a 4 5 5 # X X       X X X                                       ",
"                              X   X X @ @ @ @ @ # # : w 0 p d k M M Y Y Q ~ ^ ( ' ] +.&.*.:.,.,.i.g.g.l.z.,.' ' ' ' ' O.@.@.@.&.&.=.| A A ' &.@.=.@.&.>.>.=.=.>.=.=.&.&.=.=.>.>.=.=.>.@.~ D H Z A A A ~ | =.=.=.=.=.>.>.>.>.>.>.>.#.>.,.@.@.>.1.,.=...&.-.-.=...~ B ( ' A A A A A A A A A A A A A A A A A A A A A A A A A A A A A A A C A A A A B A ~ ~ E A ~ ]  X8X3X1X3X1X3X1X3X3X3X3X3X3X3X7X;X<X<X=X}.}.*X!.%X`.`.`.`.`.`.`.`.`.`.`.`.`.`.`.`.`.`.`.`.`.`.`.`.`.`.`.).).).).).`.!.W.U.Y.!.!.*X`.).`.`.*X*X:X`.H.9.q.H.q.0.r.7.q.9.5.#.` ~ ~ A Y Y A A A A A A A A A A A A A A A A A A A A A A A A A A A A A A A A A A A A A A A A A A A A A ~ C E ( M ( C A A b Z g.!.!.`.W.!.!.`.`.`.`.`.`.`.`.`.`.`.!.W.W.W.W.!.!.`.`.`.`.`.`.`.`.`.`.`.`.`.`.`.`.`.`.`.`.).:X`.!.!.J.9.q.q.q.q.q.q.q.q.q.q.q.q.q.q.q.q.q.q.q.q.q.q.q.9.>.` ( A A ( ~ C A A A A A A Y Y Y A A A A A A A A A A A A A A A A A A A A A A A A A A A A C A A A / ' =.,.=.&.&.=.=.=.=.=.=.=.=.=.,.=.=.,.=.| | &.&.=.=.=.=.=.=.=.=.=.=.>.>.>.=.=.7X7X1X3X3XaX=X3Xi.p.p.v.1X4XrXV.p.V..X~.^.j.=.s.a..XoX+XV.>.1.&.@.>.j.K.T.M.1.&.&.,.=.,.,.,.z.l.( ( ( ~ C C C C A A A A A A A A A A A A A A A A A A A A A A A A A A A A A A A A C C C C I I A A A F N Z Z } m.H.q.q.q.q.q.q.q.q.q.q.q.q.q.q.q.x.x.@.6.`.*X!.).`.'.`.!.E.E.W.W.!.E.E.E.E.W.W.!.`.`.`.`.`.`.`.%X`.).).`.).).).).).).).).).).).).).).).).).).).!.!.!.E.@.&.&.=.&.&.| @.@.| ' ' ` ~ N D ( ( ~ ~ ~ ~ ~ ~ ~ ~ Y A C C C C M M m x a s 5 # # # X X X X X X X X                                       ",
"                            O     X X @ @ + @ @ # # : w w p d k M M Y Y Q ~ ^ ( ' ] +.&.*.:.,.,.,.,.i.g.l.,.' ( ' ' ' ' @.@.@.&.' &.@.~ ` =.1.=.,.>.>.>.>.>.<.1.>.>.>.>.>.>.>.>.=.>.>.@.J H J D / / ` | =.,.,.=.=.>.>.>.>.>.>.>.>.=.>.<.=.=.=.>. .=.2.j.j.j.j.j.( B ( ( A A C A A A A A A A A A A A A A A A A A A A A A A A A A C C C C C C A A A A A E E E ~ '  X8X3X3X3X1X3X1X3X3X3X3X3X3X3X3X3X=X-X-X=XW.W.*X%X%X`.`.`.`.`.`.`.`.`.`.`.`.`.`.`.`.`.`.`.`.`.`.`.`.`.`.`.).).).`.).!.U.Y.R.!.*X*X*X`.).).).`.`.!.x.9.q.H.q.0.r.0.q.H.x.=.` ) ( C C C C C A A A A A A A A A A A A A A A A A A A A A A A A A A A A A A A A A A A A A A A A A A A m ~ M M A ~ 8 ~ >.O.O.U.,X'.*X!.!.!.`.`.`.`.`.`.`.`.`.`.`.!.!.E.W.W.!.!.`.`.`.`.`.`.`.`.`.`.`.`.`.`.`.`.`.`.`.`.).:X*X`.`.L.x.x.q.q.q.q.r.r.q.q.q.q.q.q.q.q.q.q.q.q.q.q.H.H.A.6.` ( A A ' ~ C A A A A A A C C C A A A A A A A A A A A A A A A A A A A A A A A A A A A A C A A A ` | =.,.=.=.=.=.=.=.=.=.=.=.=.=.=.=.=.&.' / ' =.=.=.=.=.=.=.=.=.=.=.>.>.>.>.=.=.;X1X1X8X1XeXV.Y.k.h.h.b.3X4X8Xv...V..X~.^.k. .&.-..X.X+XT.=.,.&.<.1.j.K.Q.T.j.=.&.3.,.,.;.;.z.c.~ ( ( ~ A C A A A A A A A A A A A A A A A A A A A A A A A A A A A A A A A A A A Y Y C C I B A A D D N H } $.H.q.q.q.q.q.q.q.q.q.q.q.q.q.q.r.r.x.6.@.g.*X*X!.`.`.`.`.W.E.E.E.W.W.E.E.W.E.W.W.!.!.`.`.`.`.`.`.%X`.).).`.).).).).).).).).).).).).).).).).).).).!.!.E.U.;.>.&.&.@.@.| @.@.| | | ' ` Z ~ ( ' ( ` ` ( ~ ~ ~ ~ ~ Y A A C C M M m x a s 5 : # # # X X X   X X X                                       ",
"                                  X X @ @ @ @ @ # # : w w p d k M M Y Y Q ~ ^ ( ' ] +.&.*.:.,.,.,.g.g.g.l.>.( ` ' ' ' ' @.@.@.&.| &.;.@.@.=.>.&.@.&.#.=.=.=.=.=.>.>.>.>.>.>.>.>.<.>.1.<.#.>.<.=.=.=.=.=.>.=.&.| >.>.>.>.>.>.>.>.@.>.=.@.1.,.&.&.=.-.M.;XwX^.oXpX..A ( ( A A C B A A A A A A A A A A A A A A A A A A A A A A A A C C C C C C A A E A B A ~ ~ ( '  X8X3X3X3X1X3X1X3X3X3X3X3X3X3X3X8X=X-X;X-XW.R.*X%X%X`.`.`.`.`.`.`.`.`.`.`.`.`.`.`.`.`.`.`.`.`.`.`.'.`.`.`.).).).).!.Y.F.U.R.`.*X`.*X`.).).).).`.E.A.9.9.q.r.q.0.r.q.m.8.@.~ ( ' A C C C C A A A A A A A A A A A A A A A A A A A A A A A A A A A A A A A A A A A A A A A A A A A M C ~ A m C M ' *X,X`.`.`.!.`.!.!.!.`.`.`.`.`.`.`.`.`.`.`.`.!.E.W.W.W.!.`.`.`.`.`.`.`.`.`.`.`.`.`.`.`.`.`.`.`.%X%X*X%X`.`.L.x.x.q.q.q.q.r.r.q.q.q.q.q.q.q.q.q.q.q.q.q.0.q.H.q.9.` ( A A ' ~ C A C A A A C C C C A A A A A A A A A A A A A A A A A A A A A A A A A A A A C A A A ( | &.=.=.=.=.,.=.=.=.=.=.=.=.=.=.=.&.| / H ' =.=.=.=.=.=.=.=.=.=.=.>.>.>.>.=.=.;X7X8XaX;X3Xi.h.7X7X8X3XrX1X3Xv...V.oXR.~.j. .=.X.@X.XOXR...,.=.5.8.m.K.T.T.g.&.>.3.&.;.>.,.U.U.( ( ( ~ A A A A A A A A A A A A A A A A A A A A A A A A A A A A A A A A A A A A Y Y C C B B A A A D Z } 9.8.H.0.q.q.q.q.q.q.q.q.q.q.q.q.r.u.q.q.6.&.g.`.*X`.'.`.`.`.!.E.E.E.E.E.E.E.W.W.W.W.!.!.`.`.`.`.`.`.%X`.).).`.).).).).).).).).).).).).).).).).).).).!.!.W.W.>.;.| @.@.&.| @.@.| | | | ' / ` ( ( ~ ~ ` ( ~ ~ ~ ~ ~ Y A C C C M M m x a s y 0 5 5 # X X X   X X X                                       ",
"                                  X X @ @ + @ @ # # : w w u d k M M Y Y Q ~ ^ ^ ] ] +.&.*.:.,.,.d.g.g.l.l.,.' ( ' ' ' ' @.@.@.&.&.;.;.=.=.=.=.=.>.>.>.>.<.>.>.>.#.#.=.>.>.>.>.>.=.@.=.=.@.>.1.=.&.=.=.=.=.,.>.>.>.=.>.>.>.>.>.>.=.M.6.| >.<.=.j.1.&.1.T.;X;X-X-X..A ~ ~ C A A B A A A A A A A A A A A A A A A A A A A A A A A A C C A C Y Y A A E B B A ~ ( ( '  X8X3X3X3X1X3X1X3X3X3X3X3X3X3X3X7X3X;X;X-X=X*X%X%X%X`.`.`.`.`.`.`.`.`.`.`.`.`.`.`.`.`.`.`.`.`.`.'.'.`.`.`.).).).).!.U.c.U.R.*X*X`.*X*X`.).).`.`.!.Q.J.q.q.r.r.0.m.9.x.x.| / ( ' A A C C A A A A A A A A A A A A A A A A A A A A A A A A A A A A A A A A A A A A A A A A A A C C ~ M C M ~ ( ' &.!.<X*X`.`.!.*X!.!.!.`.`.`.`.`.`.`.`.`.`.`.`.!.E.W.E.W.!.).`.`.`.`.`.`.`.`.`.`.`.`.`.`.`.`.`.`.%X%X%X).`.`.L.9.x.q.q.q.q.r.r.q.q.q.q.q.q.q.q.q.q.q.r.q.0.0.q.q.9.` ( A A ( ~ C A C C Y Y Y A C C A A A A A A A A A A A A A A A A A A A A A A A A A A A A C A A A ( ' | &.=.,.,.=.=.=.=.=.=.=.=.=.=.=.&.' ` ' &.=.>.=.=.=.=.=.=.=.=.=.>.>.>.>.=.=.<X7X8X3XV.R.X.v.=X;X3X1X4X1XrXC.X.V..XR.R.j.@.=.X.@X.X@XR...=.&.1.x.K.Q.U.c.,.&.,.g.,.,.,.g.z.j.~ ( ( ~ A A A C A A A A A A A A A A A A A A A A A A A A A A A A A A A A A A A A Y Y Y C B B A A B D Z @.x.m.H.9.q.q.q.q.q.q.q.q.q.q.q.q.u.q.9.9.6.&.6.W.!.`.*X`.`.`.!.W.W.W.W.E.E.E.W.W.E.W.W.!.`.`.`.`.`.`.%X`.).).`.).).).).).).).).).).).).).).).).).).).!.!.!.W.>.>.@.&.&.&.| &.@.| ' | @.' | ' ( ( ~ ~ ~ ~ ~ ~ Y Y Y A C C C C M M m x a s u r 0 5 # X X X   X X X X                                     ",
"                                  X X + @ X @ @ # # : w w u d k M C Y Y Q ~ ^ ( ] ] +.&.*.:.,.,.,.,.,.g.l.>.' ' ' ' ' ' @.@.@.&.&.| @.;.=.&.&.>.=.=.=.#.=.=.>.>.<.<.>.>.>.=.>.>.>.>.>.>.#.>.<.#.>.>.>.=.=.=.=.>.>.=.=.>.>.>.>.>.1.,X!.&.&.=.j.wXj.1...X.B.;X;X^...M A Y B Y A A A A A A A A A A A A A A A A A A A A A A A A A A A C A Y Y A A A Y C B A ~ ( ( ]  X8X3X3X3X1X3X1X3X3X3X3X3X3X3X3X=X3X3X=X;X7X<X*X*X%X`.`.`.`.`.`.`.`.`.`.`.`.`.`.`.`.`.`.`.`.`.`.`.`.`.`.`.`.).).`.!.U.S.U.!.*X*X).`.*X*X%X).`.:X`._.E.q.9.q.r.0.r.9.m.c.#.` ( ( A A A A A A A A A A A A A A A A A A A A A A A A A A A A A A A A A A A A A A A A A A A A A A C A M m C ~ *X>XW.>X`.`.E.`.,X!.!.!.!.!.`.`.`.`.`.`.`.`.`.`.`.`.!.E.W.E.E.!.).`.`.`.`.`.`.`.`.`.`.`.`.`.`.`.`.`.`.%X*X%X).`.`.J.x.A.x.q.q.q.q.r.r.q.q.x.q.q.q.q.q.q.q.r.q.0.0.q.q.9.` ( A A ( ~ C A C C Y Y Y C C C A A A A A A A A A A A A A A A A A A A A A A A A A A A A A A A A ` ` ` | &.=.=.=.=.=.=.=.=.=.=.=.=.,.=.' ' &.,.=.,.,.=.=.=.=.=.=.=.=.>.>.>.>.=.=.<X<X;X X*.s.( b.3X3X3X=X8X3X8Xv.X.V.^.^.^.k.} =.X.;X.X;XoX&.-.&.8.K.T.M.6.,.=.=.c.}.}.%XY.b.Y.c.~ ( ( ~ A A C C A A A A A A A A A A A A A A A A A A A A A A A A A A A A A A A A C C Y Y B B B A B A N } 8.q.m.q.q.q.q.q.q.q.q.q.q.q.q.q.q.q.7.5.,.@.6.J.L.!.*X!.`.`.!.!.!.!.E.E.E.E.W.W.W.W.W.!.`.`.`.`.`.`.%X%X).).`.).).).).).).).).).).).).).).).).).).).!.!.U.L.&.=.&.=.@.@.@.&.@.' ' ' | ' ' ' ( ( ' ' ~ ~ ~ ~ Y Y ~ ~ A C C C M M m x a a 0 5 5 : # X X X     X X                                       ",
"                                  X X X X X @ # # # 5 w r i k M M U Y Q ~ ^ ( ( ] ] +.&.*.*.,.,.,.d.g.,.z.g.~ ( ' ' ' @.@.@.@.&.&.&.&.=.=.=.=.=.=.=.=.=.=.=.=.=.>.>.=.=.=.=.=.=.>.>.>.>.>.>.=.>.=.>.>.=.,.=.&.-.&.-.1.=.=.<.,.&.1.+XR.B.k...a.eXV.k.s.B..X@X@XoX&.E B A A A E A A A A A A A A A A A A A A A A A A A A A A A A A Y A A C A A A A C A C A ~ Y h.h.1X1X3X3X8X8X3X3X3X3X3X3X3X3X3X3X3X3X3X3X;X=X=X*X!.!.`.`.)._._.'.`.).).).`.`.`.!.`.`.`.`.`.`.`.`.`.`.`.`.`.`.).!.).!.U.F.U.R.%X*X`.`.`.`.`.`.`.`.).'.E.9.q.H.r.q.r.q.q.m.' ` ` ( A A Y A A A A A A A A A A A A A A A A A A A A A A A A A A A A A A A A A A A A A C A A A A A A ~ &.;.;.,.U.`.).!.`.).).).`.`.).).).).).).).).`.`.`.).).`.*X`.!.W.W.W.E.W.!.`.`.`.`.`.`.`.`.`.`.`.`.`.`.`.`.`.`.`.*X).`.`.!.!.U.6.x.x.x.m.r.r.0.0.q.q.q.q.q.q.q.q.q.q.q.q.q.r.q.9.` ' ` ~ ( / A C A A A A A A A A A A A A A A A A A A A A A A A A A A A A A A A A A A A A A A A A ( ~ ~ ' &.,.>.>.=.>.>.>.=.=.=.,.,.=.| ( ' =.=.=.>.>.=.=.>.>.>.>.=.=.=.>.>.>.>.=.-X<XR.B.&.g.( b.6X2X2X8X3X3X8Xb...a.B.oXR.B.N...1.k.T.T.j.,.=.=.j.M.c.K.M.=.=.=.k.}.R.R.U.Y.g.i.( ( ( ~ A C C A A A A A A A A A A A A A A A A A A A A A A A A A A A A A A A A A C Y Y Y I B B A m D N &.M.8.q.q.q.q.y.q.q.q.y.y.q.0.q.A.9.9.6.>.#.>.6.x.E.'.'.!.).).%X).!.W.E.P.E.W.E.E.W.W.W.W.E.!.`.`.).`.*X%X*X`.).`.`.`.).).).).).).).).).).).).).).!.!.!.!.!.x.=.@.@.@.@.&.@.@.| | | ' ' ' ' ' ( ( ( ( ( ( ~ ~ ~ ~ Y A Y C C C M M M m a y y 0 5 : # X X X X X                                           ",
"                                  X X X X X X # # # 5 w r d k M M U Y Q ~ ^ ^ ( ] ] +.&.*.*.,.,.d.g.h.d.l.3.( O.' ' ' @.@.@.@.&.&.&.&.=.&.=.=.=.=.=.=.=.=.=.=.=.>.>.=.=.=.=.=.=.>.>.>.>.=.>.=.=.>.>.=.#.&.=.=.&.=.-.=.=.>.>.>.>.-.@X+X[.R.a.k.@X@XOX.X.XOX@X@XOX*.~ B A A A A A A A A A A A A A A A A A A A A A A A A A A A A A A A C C A A A A C A C A ' ' }.=X5X1X3X3X8X8X3X3X1X3X3X3X3X3X3X3X3X3X3X3X1X=X=X=XoX*X`.`.`._.'.).`.`.).).`.*X`.`.`.`.`.`.`.`.`.`.`.`.`.`.`.`.).!.W.W.U.U.Y.W.%X*X%X`.`.`.`.`.`.`.`.'.E.9.9.m.r.r.m.q.9.H.' ` ` ` A A Y Y C C B B A A A A A A A A A A A A A A A A A A A A A A A A A A A A A A A A B A A C A A A ~ R.!.!.!.:X:X*X*X`.).).).`.`.).).).).).).).).`.`.*X).).`.*X`.!.W.W.W.E.W.!.`.`.`.`.`.`.`.`.`.`.`.`.`.`.`.`.`.`.`.`.!.`.*X).).!.c.x.x.x.m.m.r.0.0.q.q.q.q.q.q.q.q.q.q.q.q.q.r.q.9.` ' ` ~ ` / A C A A A A A A A A A A A A A A A A A A A A A A A A A A A A A A A A A A A A A A A A ( ( ` | =.>.>.=.>.>.>.>.=.=.=.>.=.&.( ~ ' =.,.,.>.>.>.=.>.>.>.>.=.=.=.=.>.>.>.>.dX,Xl.g.;.g.' i.6X2X6X6X1X1X8XV.*.-.2.T.oX^.T.1.=.,.1.1.=.=.=.=.j.T.M.j.1.=.=.&.h.oX[.Y.b.k.] ^ ( ( ( ~ Y C C A C A A A A A A A A A A A A A A A A A A A A A A A A A A A A A A A Y Y Y Y I I B A B D m | x.q.x.r.y.y.y.y.q.y.y.y.q.9.q.q.9.x.6.>.>.>.5.x.K./.`.`.).*X&X%X!.W.P.P.Q.E.W.E.W.W.W.W.E.!.`.`.).`.*X%X*X%X).`.`.`.).).).).).).).).).).).).).).!.!.!.!.!.c.,.&.&.&.&.&.@.@.| | | ' ' ' ' ' ( ( ( ( ( ( ~ ~ ~ ~ Y A Y C C C M M M m a y y 0 w 5 # X X X X X X                                         ",
"                            X O   X X X X X X # # # : w r i k M M U Y Q Q ~ ^ ( ' ] +.&.*.*.,.,.i.g.l.,.>.;.) ' ' ' ' O.@.@.@.&.&.&.&.&.&.=.=.=.=.=.=.=.=.=.=.=.>.>.>.>.>.>.=.>.>.>.=.=.=.=.=.=.1.>.>.&.=.k.T.k.-.=.=.=.>.=.>.>.-.@X;X;X;XV.V.@X;X;X3X@X@X@X@X@X-.~ C A A A A A A A A A A A A A A A A A A A A A A A A A A A A A A C C C C A A A A A C C ~ _ =XaX5X1X3X3X3X8X3X3X1X1X1X3X3X3X3X3X3X3X3X1X1X=X=X=X*X*X`.`.'.'.'.).`.`.`.`.`.`.*X*X`.`.`.`.`.`.`.`.`.`.`.`.`.`.).!.W.Y.U.Y.W.!.%X*X%X`.`.`.`.`.`.`.`.'.E.9.9.q.q.u.m.q.9.H.' ` ` ` A A C C C C B B A A A A A A A A A A A A A A A A A A A A A A A A A A A A A A A A B A A C A C A ~ R.>X*X).).).!.).`.).).).`.`.).).).).).).).).`.`.*X).).).`.`.!.!.!.W.W.W.!.!.`.`.`.`.`.`.`.`.`.`.`.`.`.`.`.`.`.`.`.).`.*X`.`.!.J.l.c.H.H.m.0.0.r.q.q.q.q.q.q.q.q.q.q.q.q.q.r.q.9.` ' ) ~ ` / A C A A A A A A A A A A A A A A A A A A A A A A A A A A A A A A A A A A A A A A A A ( ( ' | =.>.=.=.>.>.>.>.=.=.=.=.=.@.~ ~ ' &.,.=.>.>.=.=.>.>.>.>.=.=.>.>.>.>.>.>.j.x.=.&.;.,.U.;X8X2X8X1X8X1XrXV.*.-.&.M.oXT.j.=.>.=.@.@.&.=.=.=.g.^.T.g.,.,.6.=.k.=XoX[.R.V.] ( ( ' ( ~ Y C C A C A A A A A A A A A A A A A A A A A A A A A A A A A A A A A A A Y Y Y Y I I I A A A m ` 6.8.x.r.y.y.q.y.q.q.q.y.q.9.q.q.9.x.9.>.,.>.6.x.H.I.!.*X*X*X&X%X!.W.E.P.Q.E.E.E.W.W.W.W.W.!.`.`.).`.*X%X*X%X).`.`.`.).).).).).).).).).).).).).).!.!.!.!.M.6.=.&.&.&.@.@.@.@.| | | ' ' ' ' ' ( ( ( ( ~ ~ ~ ~ ~ ~ Y A Y C C C M M M m a i y 0 w 5 # X X X X   O                                         ",
"                                  X X X X X X # # # 5 w r d k M M U Y Q Q ~ ^ ( ' ] +.&.*.*.,.,.,.,.g.;.' ' / ' ' ' ' O.@.@.@.&.&.&.&.&.&.=.=.=.=.=.=.=.=.=.=.=.>.>.>.>.>.>.>.>.=.=.=.=.=.=.=.=.=. .=.=.&.B.-XB.=.&.=.=.>.>.#.=.-.@X;X;X;XoX@X;X.XOX@X@X@XOX@X@X-.~ A A A B A C A A A A A A A A A A A A A A A A A A A A A A A A A A C C A ~ D A A A C C Y Q }.7X5X1X3X3X8X8X3X3X1X3X3X3X3X3X3X3X4X4X3X1X1X=X=X;X;X=X!.).`.'.'.).`.`.`.`.`.).`.*X`.`.`.`.`.`.`.`.`.`.`.`.`.`.).!.U.U.U.W.W.%X%X%X`.`.`.`.`.`.`.`.`.`.E.x.q.q.9.q.m.q.q.H.' ` ` ` A A A C C C B B A A A A A A A A A A A A A A A A A A A A A A A A A A A A A A A A B A A C A A A ~ U.!.`.!.).).).:X`.).).).`.`.).).).).).).).).`.`.%X).!.).`.`.`.!.).!.W.W.W.!.!.`.`.`.`.`.`.`.`.`.`.`.`.`.`.`.`.`.*X).`.*X).`.!.S.c.m.J.H.q.0.0.r.q.q.q.q.q.q.q.q.q.q.q.q.q.r.q.9.` ' ) ~ ` / A C A A A A A A A A A A A A A A A A A A A A A A A A A A A A A A A A A A A A A A A A ~ ~ ' | =.>.=.=.>.>.>.=.=.>.=.&.=.| ~ ~ ' &.=.&.>.>.=.>.>.>.>.>.>.=.>.>.>.>.>.>.@.,.>.;.,.*.=XaX8X1X8X1X8X1XaXb.] -.,.T.^.2. .#.>.>.=.>.>.,.>.=.U.<X`.c.1.=.=.' a.}.V.R.}.Y.] ( ' ' ( ~ Y C C A A A A A A A A A A A A A A A A A A A A A A A A A A A A A A A A A C Y Y Y I I I A B B A / >.5.9.q.q.y.q.y.q.q.y.y.q.0.q.q.x.c.x.>.>.$.5.q.x.9.L.,X*X*X&X%X!.W.E.E.Q.E.E.E.W.W.W.W.W.!.`.`.).`.*X%X*X%X).`.`.`.).).).).).).).).).).).).).).!.!.!.!.1.&.@.@.&.&.@.@.@.@.| | | ' ' ' ' ' ( ( ( ( ~ ~ ~ ~ ~ ~ Y A Y C C C M M M m a i r 0 w 5 # X X X X X O O                                       ",
"                                  X X X X X # # # # 5 w r i k M M U Y Q Q ~ ^ ^ ' ] +.&.*.*.,.,.i.,.l.;.( ' ( ' ' ' ' ' @.@.@.&.&.&.&.&.&.=.=.=.=.=.=.=.=.=.=.=.>.>.>.>.>.>.>.>.=.=.=.=.=.=.=.>.=.1.M.M.j.~.;Xk...=.=.=.>.>.>.@.-.oX;X@X@XoX;X7X@X@X@X@X@X@XOXoX-.( A A C B A B A A A A A A A A A A A A A A A A A A A A A A A A C A A C A ~ H A C A Y ~ ( ^ &XaX5X1X3X3X3X8X3X3X3X3X3X3X3X3X3X3X8X3X3X1X1X=X;X;X-X*X!.).`.:X'.).`.).).`.!.W.!.*X`.`.`.`.`.`.`.`.`.`.`.`.`.`.).!.J.J.U.R.!.%X%X).`.`.`.`.`.`.`.`.`.`.!.L.I.q.9.q.H.q.q.H.' ` ` ` C C C C C C A A A A A A A A A A A A A A A A A A A A A A A A A A A A A A A A A A B A A A A C A ~ R.>X*X`.:X*X`.*X`.).).).`.`.).).).).).).).).`.`.%X).).).).`.`.`.`.!.E.W.E.E.!.`.`.`.`.`.`.`.`.`.`.`.`.`.`.`.`.`.*X).`.*X).`.!.J.c.H.H.m.q.0.r.r.q.q.q.q.q.q.q.q.q.q.q.q.q.r.q.9./ ( ~ ~ ' / A C A A A A A A A A A A A A A A A A A A A A A A A A A A A A A A A A A A A A A A A A E ~ ` | &.=.=.=.>.>.>.=.=.>.=.@.&.' ` ' &.=.=.&.>.>.=.=.>.>.>.>.>.>.>.>.>.>.>.>.,.=.&.,.Y.G.yX1X5X1X8X1X8X3XaXb.( -.a.R.-Xs. .2.=.=.>.>.>.=.=.=.6.K.x.6.1.=.1.a.V.oXY.R.}.R.] E ' ( ( ~ E A C C A A A A A A A A A A A A A A A A A A A A A A A A A A A A A A A A C C Y Y I I B A B A ' | #.<.9.q.y.y.y.y.q.q.q.q.q.q.x.q.x.H.c.>.>.#.<.q.q.9.I.,X`.*X*X*X!.!.E.Q.E.E.E.E.W.W.W.W.W.!.`.`.).`.*X%X*X%X).`.`.`.).).).).).).).).).).).).).).!.!.!.!.,.&.@.&.=.&.&.&.@.@.| | | | ' ' ' ' ( ( ( ( ~ ~ ~ ~ ~ ~ Y A Y A C C M M M m a y y 0 w 5 # # @ X X X                                           ",
"                            X X   X X X X X X # # # 5 w r i k M M U Y Q Q ~ ^ ^ ' ] +.&.*.*.,.,.g.,.z.>.~ ' ' ' ' ' ' ' @.@.@.&.&.&.&.&.&.=.=.=.=.=.=.=.=.=.=.=.>.>.>.>.>.>.=.=.=.>.=.=.=.=.=.=.=.k.-X;X+X<X;XB.-.-.=.=.>.>.>.<.a.oX;X;X;XoX;X@X@X@X@X@X@X@X@XoX-.( A A C C A C A A A A A A A A A A A A A A A A A A A A A A A A C A A C ~ ~ ~ A C A ~ ' ] ^ }.8X5X1X3X8X3X3X3X3X3X3X3X3X3X3X3X3X3X3X3X3X1X1X;X;X=X*X}.!.`.`.`.`.).).).).!.U.W.*X`.`.`.`.`.`.`.`.`.`.`.`.`.`.).!.S.J.U.R.!.%X%X).`.`.`.`.`.`.`.`.`.'._._.Q.H.9.m.u.q.q.H.' ` ` ` A A C C A C A A A A A A A A A A A A A A A A A A A A A A A A A A A A A A A A A A B A A C A C A ~ R.*X!.!.`.`.).).`.).).).`.`.).).).).).).).).`.`.%X%X).).).`.`.`.`.W.E.W.E.E.!.'.`.`.`.`.`.`.`.`.`.`.`.`.`.`.`.`.`.).`.*X`.*X`.E.J.m.c.x.q.r.r.r.q.q.q.q.q.q.q.q.q.q.q.q.q.r.q.9./ ( ~ ~ ' / A C A A A A A A A A A A A A A A A A A A A A A A A A A A A A A A A A A A A A A A A A C A ~ | &.>.>.>.>.>.>.=.=.>.=.| ' ` ( &.>.,.>.=.>.>.=.=.>.>.>.>.>.>.>.=.>.>.=.=.,...,.c.5X5XfX5X5X8X3X1X|.3XrXV.i.-.&.N.^.k.2.>.=.>.>.=.=.=.>.,.@.=.| =.,.,.M.^.W.OX[.}.Y.B.*.^ ' ( ~ E A A C C A A A A A A A A A A A A A A A A A A A A A A A A A A A A A A A A C C Y Y A A B A B D =.>.#.5.9.x.y.y.y.y.q.q.q.q.q.q.x.x.x.J.c.>.>.$.5.q.m.q.J.`.).).*X*X).!.Q.E.E.E.E.E.W.W.W.W.W.!.`.`.).`.*X%X*X%X).`.`.`.).).).).).).).).).).).).).).!.!.!.!.,.=.&.&.&.&.@.@.@.@.| | | | ' ' ' ' ( ( ( ( ~ ~ ~ ~ ~ ~ Y A Y A C C M M M x a y 0 0 w 5 # # @ @ X X X   O                                     ",
"                              O   X X X X X X # # # 5 w r d k M M U Y Q ~ ~ ^ ^ ] ] +.&.*.*.,.,.i.>.l.*.~ ' ' ( ' ' ' ' @.@.@.&.&.&.&.&.&.=.=.=.=.=.=.=.=.=.=.=.>.>.=.>.=.=.=.=.>.>.>.>.>.>.>.=./ s.oX;X@X@XoXR.V.2.&.>.>.#.5.U.Y.@X@X;X;XoX@XoXOXOXOX@X@X;X@X@X-.( A Y A C A A A A A A A A A A A A A A A A A A A A A A A A A A C A A C ~ ( / A A A ~ ' ] ^  X3X5X1X3X8X3X3X3X3X3X3X3X3X3X3X3X3X3X3X3X3X3X3X;X;X;X-X=X*X).).).).`.).).`.W.J.W.`.`.`.`.`.`.`.`.`.).`.`.).`.`.).!.J.J.U.W.!.%X%X%X`.`.`.`.%X%X`.`.`.`._.'._.H.9.H.u.q.q.H.} ` ` ` A A A A A A A A A A A A A A A A A A A A A A A A A A A A A A A A A A A A A A A A B A A A A A A ~ R.*X`.!.*X:X`.*X`.).).).`.`.).).).).).).).).`.`.%X%X`.`.`.).`.`.!.E.E.!.W.E.!.'.`.`.`.`.`.`.`.`.`.`.`.`.`.`.`.`.*X).`.*X`.*X`.E.J.c.x.8.q.r.r.r.q.q.q.q.q.q.q.q.q.q.q.q.q.r.q.9./ ( ~ / ' / A C A A A A A A A A A A A A A A A A A A A A A A A A A A A A A A A A A A A A A A A A C A ` @.=.>.>.>.>.<.>.#.=.,.=.' ~ ~ ' ;.,.>.=.,.=.=.=.=.>.>.>.>.>.>.=.=.=.=.=.=.,.,.W.;X5X5X5X5X5XfX1X=Xh.}.7X=X Xg...6.j.1.=.} >.>.>.=.=.=.,.1.1.6.@.=.>.@.1.j.c.Y.R.Y.*.] ( ^ ' ( E A A A A A A A A A A A A A A A A A A A A A A A A A A A A A A A A A A A A A C C C C A A A A A D ,.>.#.8.q.q.y.y.q.q.q.q.q.q.q.q.x.q.x.L.c.>.>.$.<.q.m.q.m.L.!.).*X*X%X!.!.E.E.E.E.E.W.W.W.W.W.!.`.`.).`.*X%X*X%X).`.`.`.).).).).).).).).).).).).).).!.!.!.!.1.=.&.&.&.@.| @.@.@.| @.| | ' ' ' ' ( ( ( ( ` ~ ~ ~ ~ ~ Y A Y A C C M M M m a y 0 0 w 5 : # # @ X X X X O                                     ",
"                                  X X X X X X # # # 5 w r d k M M U Y Q ~ ~ ^ ^ ] ] +.&.*.*.,.,.d.>.h.>.~ ' @.( ' ' ' ' @.@.@.&.&.&.&.&.&.=.=.=.=.=.=.=.=.=.=.=.>.>.=.=.=.=.=.=.>.>.>.>.>.>.>.=.| B.-X-XoXoX@XwX;Xa.| 1.,.| 6.,X;X7X@X;X;X@X;XOX@X;X;X;X@XOXOX@X-.~ A Y A A A A A A A A A A A A A A A A A A A A A A A A A A A A C C C C ~ ` ~ Z C A A ( ] ( }.aX5X1X3X8X3X8X3X3X3X3X3X3X3X3X3X3X1X3X3X3X3X3X1X=X7X;X;X=X}.!.).`.`.).`.`.W.S.U.*X`.`.`.`.`.`.`.`.).`.`.).`.`.).!.U.U.U.W.W.).%X`.`.`.`.`.%X%X`.`.).`.`._.(.x.9.A.m.0.q.H.' ` ` ` A A A A A A A A A A A A A A A A A A A A A A A A A A A A A A A A A A A A A A A A B A A A A A A ~ Y.*X`.!.`.).).`.`.).).).`.`.).).).).).).).).`.`.).*X*X`.`.).).`.!.E.E.!.!.U.!.'.`.`.`.`.`.`.`.`.`.`.`.`.`.`.`.`.*X).`.`.!.`.!.J.J.c.8.9.q.r.r.0.q.q.q.q.q.q.q.q.q.q.q.q.q.r.q.9./ ( ` / ` / A C A A A A A A A A A A A A A A A A A A A A A A A A A A A A A A A A A A A A A A A A C ~ ` @.=.>.>.>.>.<.>.#.=.>.=.' ` ` | =.=.=.=.=.=.=.=.=.>.>.>.>.>.>.=.=.=.=.=.=.;.*.=XyX5XyX5XyX3XfX=X}.*.Y.7X7X7Xc.&.=.&. .1.=.=.=.=.>.>.>.=.&.@.>.@.=.1.=.=.&.c.W.=X!.E B E ( ' ~ E A A A Y Y A A A A A A A A A A A A A A A A A A A A A A A A A A A A A A A A C C C C A A A A A A >.=.@.8.q.q.y.q.q.q.q.q.q.q.q.q.x.x.x.L.M.>.>.$.>.9.r.0.9.x.!.).*X*X*X`.!.E.E.E.E.E.W.W.W.E.W.!.`.`.).`.*X%X*X%X).`.`.`.).).).).).).).).).).).).).).!.!.!.!.1.=.&.&.&.&.&.&.@.@.| @.| | ' ' ' ' ( ( ( ( ` ~ ~ ~ ~ ~ Y A Y A C C M M M m a i 0 0 w 5 # # # @ X X X X X X                                   ",
"                                  X X X X X X # # # : w r i k M M C Y Q Q ^ ( _ ] ] +.&.*.:.,.i.d.,.z.&.( &.` ' ' ' ' @.@.@.&.&.&.&.&.=.=.=.=.=.=.=.=.=.=.=.=.=.>.=.=.=.=.=.=.=.=.>.>.>.>.>.>.=...a.<X;X@X+X;X@X@XV.^.j.| #.>.,X-X@X@X;X@X@X@X@X@X@X@X;X.XoX7XoX-.( E A B B Y A A A A A A A A A A A A A A A A A A A A A A A A A C C A A A C A A A A ~ ' _ ^ &X7X3X3X3X3X3X3X3X3X3X3X3X3X3X3X3X3X1X3X3X3X3X3X1X;X3X;X;X<X-X%X).%X*X).`.`.!.U.W.*X`.`.`.`.`.`.`.`.*X*X*X*X`.!.W.U.U.W.!.!.).).).`.`.`.`.`.%X%X%X`.`.).`.'.Q.9.9.H.q.q.H.9.%.J ` ` ( ~ Y A A A A B A A A A A A A A A A A A A A A A A A A A A A A A A A A A A A A A B A A A B C A ~ R.>X!.!.).).).`.`.`.`.`.`.`.`.`.).).).).).).).`.%X%X`.`.`.`.`.`.`.`.!.W.E.E.W.W.).).`.`.`.`.`.`.`.`.`.`.`.`.`.`.*X!.!.*X).U.L.!.!.x.m.q.9.r.0.r.q.q.q.q.q.q.q.q.q.q.q.q.q.r.q.9./ ` ` ( ` / A C A A A A A A A A A A A A A A A A A A A A A A A A A A A A A A A A A A A A A A A A A A ` | =.>.>.=.=.>.>.>.>.>.&.' ' ~ ` =.,.&.&.,.=.=.>.=.=.>.>.>.>.=.=.=.=.=.=.=.;.;.g.G.yX8XyX}.p.W.aX}.]  XaX-X<Xc.-.-.=.=.>.=.=.=.=.=.=.>.=.=.>.>.>.>.=.=.>.=.B.W.a.] ( ~ ( ( ' ( E A A A A A A A A A A A A A A A A A A A A A A A A A A A A A A A A A A A A A C C B B A I A B B E  .<.8.q.q.q.9.5.5.9.q.q.0.0.m.m.9.>.>.6.6.=.6.8.x.q.q.r.r.q.E.).*X*X).!.!.E.E.E.W.W.W.W.E.E.W.W.W.!.).`.%X%X%X%X`.`.`.`.`.`.).).).).).).).).).!.!.).).).!.!.6.&.@.&.=.@.@.&.@.| | | ' ' ' ' ( ( ( ( ( ( ~ ~ ~ ~ ~ Y Y A A C C C M M M m a i r 0 w 5 # # @ @ X X X X   X X X                               ",
"                              X   X X X X X X # # # : w r i k M C C Y Q Q ~ ^ _ ] ] +.&.*.:.,.i.,.g.c.;.( ' ) ' ' ' ' @.@.@.&.&.&.&.&.=.&.=.=.=.=.=.=.=.=.=.=.=.=.=.=.=.=.=.=.=.=.=.>.>.>.>.>.=.&.a.;X+X+X+X;X@X;XoX<Xc.=.6.6.^.@X@X;X@X@X@X@X@XOX3X@XOX@X@X;X;X-.( A A B A Y C A A A A A A A A A A A A A A A A A A A A A A A A C C A A A A A A A A ~ ' _ ^ &X7X3X3X3X3X3X3X3X3X3X3X3X3X3X3X3X3X1X3X3X3X3X3X1X1X3X;X;X<X>X%X).%X).!.).`.W.J.U.`.`.`.`.`.`.`.`.`.!.!.%X*X`.!.W.J.J.E.!.).).).).`.`.`.`.`.%X%X%X%X*X).`.`.!.H.x.H.q.9.q.9.$.%.' / ' ~ Y A A A A B A A A A A A A A A A A A A A A A A A A A A A A A A A A A A A A A B A Y A B A A ~ U.!.*X*X*X).).).`.`.`.`.`.`.`.`.).).).).).).).`.%X%X`.`.`.`.`.`.`.`.!.W.E.E.W.W.).).`.`.`.`.`.`.`.`.`.`.`.`.`.`.*X).).`.!.W.E.!.).x.c.q.9.r.0.r.q.q.q.q.q.q.q.q.q.q.q.q.q.r.q.9.` ` ( ( ` / A C A A A A A A A A A A A A A A A A A A A A A A A A A A A A A A A A A A A A A A A A A A ` | =.>.>.=.>.>.>.=.=.=.@.` ' ` | =.,.=.&.=.>.>.>.>.>.>.>.>.>.=.=.=.=.=.=.=.l.*.*.i.=X5XyX&X-.c.-XR.*.}.aX7X<Xc.-.-.=.=.>.=.=.=.=.=.>.>.>.>.>.>.>.>.=.=.>.=.M.Y.-.( ~ ~ ' ' ( ~ E A A A A A A A A A A A A A A A A A A A A A A A A A A A A A A A A A A A A A C C B B A A A A A ` =.8.8.8.q.q.H.5.$.9.u.q.0.r.q.q.9.>.=.>.>.&.5.8.q.0.0.r.r.q.E.!.*X*X).!.!.W.E.E.W.W.W.W.E.E.W.W.W.!.!.`.%X%X%X%X`.`.`.`.`.`.).).).).).).).(.).).).).!.W.W.W.6.&.@.&.=.@.@.&.@.| | | ' ' ' ' ( ( ( ( ( ( ~ ~ ~ ~ ~ Y Y A A C C C M M M m a i r 0 w 5 # # @ @ X X X X     X X                               ",
"                                  X X X X X X # # # 5 w r i k M C C Y Q Q ~ ^ ^ ' ] +.&.*.:.,.,.,.g.z.>.' ' ) ' ' ' ' @.@.@.&.&.&.&.&.&.&.=.=.=.=.=.=.=.=.=.=.=.>.=.=.=.=.=.>.>.>.>.>.>.=.=.=.=.=.2.+XoX+X+X;X@X;X;X;Xs.&.M.T.-X@X@X@X@X@X@X@X@X@X3X@XOX;X@X.X@X-.~ A A C A A B A A A A A A A A A A A A A A A A A A A A A A A A A C C A ~ ~ D A A A ~ ' _ ^ }.7X3X3X3X3X3X3X3X3X3X3X3X3X3X3X3X3X1X1X3X3X3X3X1X1X=X=X;X7X<X*X%X}.).`.*X*XW.U.W.*X`.`.`.`.`.`.`.`.W.!.).*X*X!.Y.J.J.E.!.).`.).).`.`.`.`.`.%X%X%X%X*X`.)._.(.Q.I.x.u.q.m.9.5.6.=./ ' ~ A A A A A B A A A A A A A A A A A A A A A A A A A A A A A A A A A A A A A A A A Y A A A A ~ ' g.!.`.:X`.`.`.`.`.`.`.`.`.`.`.).).).).).).).`.%X%X`.`.`.`.`.`.`.`.!.W.E.E.W.W.).).`.`.`.`.*X`.`.`.`.`.`.`.`.`.).`.).!.U.U.E.!.`.x.x.x.q.r.0.r.q.q.q.q.q.q.q.q.q.q.q.q.q.r.q.9.` ( ' ' ` / A A A A A A A A A A A A A A A A A A A A A A A A A A A A A A A A A A A A A A A A A A A A ` | =.>.>.=.>.>.>.=.=.@.| ` ( | =.>.=.=.=.=.>.>.>.>.>.>.>.>.=.=.=.=.=.=.>.=.;.,.U.}.yX8X1X}.*.>.z.z.&.W.7X7X<Xc.-.>.=.=.>.>.=.=.>.>.>.>.>.>.>.>.>.>.=.=.>.=.,.l.=.| ' ( ( ~ ( ~ Y B B A A A A A A A A A A A A A A A A A A A A A A A A A A A A A A A A A A A C C A A A A A A m E =.5.8.q.q.m.I.>.$.9.m.0.9.H.8.x.8.<.=.=.=.=.5.9.q.0.0.r.r.q.E.!.*X%X!.).).!.E.E.E.E.W.W.W.E.W.W.W.!.!.`.%X%X%X%X`.`.`.`.`.`.).).).).).).).(.!.).).).!.!.!.`.,.&.@.&.&.@.@.&.@.| | | ' ' ' ' ( ( ( ( ( ( ~ ~ ~ ~ ~ Y Y A A C C C M M M m a y y 0 w 5 # # @ @ X X X X     X   X                             ",
"                                  X X X X X X # # # 5 w r i k M C U Y Q Q ~ ^ ^ ' ] +.&.*.:.,.,.,.g.g.;.( ( ( ' ' ' ' @.@.@.&.&.&.&.&.&.&.=.=.=.=.=.=.=.=.=.=.=.>.=.=.=.>.>.>.>.>.>.>.>.=.=.=.=.&.1.oX^.*X=X;XOX@X@X@Xk.s.~.;XeX@X@X@X@X@X@X@X;X@XV.oXeX7X;X@X7X-.( A A C A A B A A A A A A A A A A A A A A A A A A A A A A A A A C C A ~ ~ ~ A A A ~ ' _ ^ }.7X3X3X3X3X3X3X3X3X3X3X3X3X3X3X3X3X1X2X3X3X3X3X1X1X1X=X;X3X7X-X&X}.*X`.*X).W.J.W.*X`.`.`.`.`.`.`.`.U.W.).*X*X!.U.J.J.E.!.`.`.).).).`.`.`.`.%X%X%X%X*X*X`.).`._.L.9.u.r.H.q.9.x.1./ ' ~ A A A A A B A A A A A A A A A A A A A A A A A A A A A A A A A A A A A A A A A A A A A A A E m ( E.).*X).*X*X`.`.`.`.`.`.`.`.).).).).).).).).%X%X`.`.`.`.`.`.`.`.!.W.E.E.W.W.).).`.`.`.`.`.`.`.`.`.`.`.`.`.`.!.`.).U.S.U.W.!.`.x.9.x.q.r.0.r.q.q.q.q.q.q.q.q.q.q.q.q.q.r.q.9.` ( ( ` ~ ~ A A A A A A A A A A A A A A A A A A A A A A A A A A A A A A A A A A A A A A A A A A A A ` | =.>.>.=.>.>.>.>.=.| ` / ` &.,.>.=.=.=.;.=.=.>.>.>.>.>.>.>.=.=.=.>.>.>.>.@.,.R.-X7X7X=X=X=.&.>.>.&.W.<X7X<Xc.-.>.=.>.>.>.=.=.>.>.>.>.>.>.=.>.=.=.=.=.>.>.@.,.&.| ..( ( E ( ~ Y A B A A A A A A A A A A A A A A A A A A A A A A A A A A A A A A A A A A A A C A A A A A D A / #.1.8.q.x.q.x.5.<.9.q.q.q.m.q.q.6.<.=.=.=.=.6.q.q.0.0.r.r.q.Q.).*X%X).).`.`.E.E.E.E.W.W.W.W.W.W.W.!.).`.%X%X%X%X`.).`.`.`.`.).).).).).).).(.!.).).).`.!.W.U.,.&.&.&.&.@.@.&.@.| | | ' ' ' ' ' ' ( ( ( ( ~ ~ ~ ~ ~ Y Y A A C C C M M M x a y y 0 w 5 # # @ @ X X X X   O X X X                             ",
"                                  X X X X X # # # # 5 w r d k M M U Y Q ~ ~ ^ ^ ' ] +.&.*.:.,.i.g.,.&.( ( ( ' ' ' ' ' ' @.@.&.&.&.&.&.&.;.=.=.=.=.=.=.=.=.=.=.=.>.>.=.=.=.=.>.>.=.=.>.>.>.>.=.=.=.1.*X^.-X;X;XoXOX@X3X@XoX@X@X+X@X@X@X@X@X@X@X;Xk.E s.;XoXoX=X;X-.( A A B A E B A A A A A A A A A A A A A A A A A A A A A A A A A A C C ~ ( / A A A ~ ' _ ^ }.7X3X3X3X3X3X3X3X3X3X3X3X3X3X3X3X3X5X6X3X3X3X1X1X1X1X1X1X3X<X;X=X}.%X).!.U.S.S.W.*X`.`.`.`.`.`.`.`.S.W.%X*X%XR.U.U.J.W.!.`.`.).!.!.`.`.`.`.%X%X%X%X).*X`.).`.'.E.9.9.0.q.q.9.x.,.H ' ~ A A A A A B A A A A A A A A A A A A A A A A A A A A A A A A A A A A A A A A A A A A A A A A C ( `.`.*X).`.).`.`.`.`.`.`.`.`.).).).).).).).).%X%X`.`.`.`.`.`.`.`.!.W.E.E.W.W.).).`.`.`.`.`.`.`.`.`.`.`.`.`.`.`.*X`.U.J.W.`.`.`.x.x.q.q.r.0.r.q.q.q.q.q.q.q.q.q.q.q.q.q.r.q.9./ ` ` ) ~ A A A A A A A A A A A A A A A A A A A A A A A A A A A A A A A A A A A A A A A A A A A A A ` | =.>.>.=.>.>.<.>.&.| ` ` ` &.,.=.&.=.,.=.>.>.>.>.>.>.>.>.>.=.=.=.>.>.>.>.g.g.T.>X<X-Xi.] ,.=.=.=.;.=X7X7X<Xc.>.>.=.>.>.>.>.>.>.>.=.=.>.>.=.=.=.=.=.>.>.>.=.,.( ~ ` / ( ( ( ~ E A A A I I A A A A A A A A A A A A A A A A A A A A A A A A A A A A A A A A A C A A A B A E =.=.>.5.x.m.q.7.5.9.q.9.9.q.r.q.8.5.>.>.>.=.=.=.6.q.r.0.r.r.r.q.Q.`.*X*X%X%X`.`.E.W.E.E.W.W.W.W.W.W.W.!.!.`.%X%X%X%X`.`.`.`.`.`.).).).).).).).(.).).).!.!.E.l.;.=.&.&.&.&.@.@.&.@.| | | | ' ' ' ' ' ( ( ( ( ~ ~ ~ ~ ~ Y Y A A C C C M M M m a y y 0 w 5 # # @ @ X X O O   O     X                             ",
"                                  X X X X X # # # # 5 w r i k M M U Y Q ~ ^ ^ ^ ] ] +.&.*.:.,.i.g.,.( ~ ( ( @.( ' ' ' ' @.@.&.&.&.&.&.&.;.=.=.=.=.=.=.=.=.=.=.=.>.>.=.=.=.=.>.>.=.=.>.=.>.>.=.=.=.1.*X`.*X=X;X@X@X@X;X3X1X@XOXOX@X@X@X@X@X@X;X;XV.E a.;X<XeX<X+X&.~ A A B C E A A A A A A A A A A A A A A A A A A A A A A A A A A A C C ~ ( / A A A ~ ' _ ^ }.7X3X3X3X3X3X3X3X3X3X3X3X3X3X3X3X3X5X6X3X3X3X1X1X1X1X1X1X1X<X<X=X}.*X).W.U.J.U.!.*X`.`.`.`.`.`.`.`.F.W.%X*XW.W.U.U.U.W.!.`.`.!.!.).`.`.`.`.%X%X%X%X).*X`.`.`.`.!.c.m.0.q.q.q.x.>.H ' ` A A A A A B A A A A A A A A A A A A A A A A A A A A A A A A A A A A A A A A A A A A A A A A A ~ :X*X`.).`.).`.`.`.`.`.`.`.`.`.).).).).).).).%X%X`.`.`.`.`.`.`.`.!.W.E.E.!.!.).).`.`.`.`.`.`.`.`.`.`.`.`.`.`.`.`.!.U.U.W.`.`.`.m.H.x.9.r.0.r.q.q.q.q.q.q.q.q.q.q.q.q.q.r.q.9./ ` ` / H A C A A A A A A A A A A A A A A A A A A A A A A A A A A A A A A A A A A A A A A A A A A A ` | =.>.>.=.=.>.>.>.@.` ` ' ' &.>.=.=.=.,.=.>.>.>.>.>.>.>.>.=.=.>.>.>.>.>.>.` &.T.<X<X<Xg.*.,.>.>.=.;.}.-X7X<Xc.>.,.=.>.>.>.>.>.>.>.=.>.>.>.=.=.=.=.=.=.>.>.=.,.` ~ ( / ( ( ~ ~ E A A A A A A A A A A A A A A A A A A A A A A A A A A A A A A A A A A A A A A C A A A M A E 2.=.>.<.q.m.q.7.#.9.H.q.9.r.m.9.q.<.#.=.>.>.=.>.6.x.r.0.0.r.r.q.I.!.`.*X%X*X*X).W.E.E.E.E.W.W.W.W.W.W.!.!.`.%X%X%X%X`.`.`.`.`.`.).).).).).).).(.).).).!.).W.6.' &.&.&.&.&.&.@.@.@.| | | | ' ' ' ' ' ( ( ( ( ~ ~ ~ ~ ~ Y Y A C C C C M M M m a i r 0 w 5 # # @ @ X X       O   X X X                           ",
"                                  X X X X X X # # # : w r d k M M C Y Q ~ ~ ^ ( ] ] +.&.*.:.,.i.g.,.~ ( ( ~ @.` ' ' ' ' @.@.&.&.&.&.&.&.;.=.=.=.=.=.=.=.=.=.=.=.>.>.>.=.=.=.>.>.=.=.=.=.>.>.>.=.>.5.*X!.!.oX;X@X@X@X.XXX@XOX$X$X@X@X@X@XOX@X;X3Xs.I ^ X.V.;Xs...( Y A Y B A A A A A A A A A A A A A A A A A A A A A A A A A A A C A A C ~ ~ / Z A A ~ ' _ ^ }.7X3X3X3X3X3X3X3X3X3X3X3X3X3X3X3X3X1X6X1X1X3X1X1X1X1X1X1X=X7X7X;X&X*X).W.U.W.!.`.*X`.`.`.`.`.`.`.`.U.W.%X%XW.F.U.U.U.W.!.`.).!.!.).`.`.`.`.%X%X%X%X).%X`.`.`._.).Q.L.r.q.H.m.x.>./ ' ` D A A A A B A A A A A A A A A A A A A A A A A A A A A A A A A A A A A A A A A A A A A A C C C A :X).`.).*X`.`.`.`.`.`.`.`.`.`.).).).).).).).%X%X`.`.`.`.`.`.`.`.!.W.E.E.!.W.).).`.`.`.`.`.`.`.`.`.`.`.`.`.`.).!.U.S.U.W.).`.`.P.Q.m.9.r.0.0.q.q.q.q.q.q.q.q.q.q.q.q.q.r.q.9./ ` ` / D A C A A A A A A A A A A A A A A A A A A A A A A A A A A A A A A A A A A A A A A A A A A A ` | =.>.>.=.>.=.=.@.' / ' &.&.;.=.=.>.>.=.=.>.>.=.=.=.=.>.>.=.=.>.>.>.>.>.>.^.^.,X!.,.g.( ,.>.#.=.,.&.z.c.W.<Xc.>.,.=.>.>.>.>.>.=.=.=.=.>.>.>.>.=.=.=.=.=.=.&.=.` ' @.` ` ~ E D A A A A A B A A A A A A A A A A A A A A A A A A A A A A A A A A A A A A A A A C A E A M A / =.&.=.<.8.m.q.9.$.9.m.m.q.q.q.8.q.<.>.>.,.>.,.g.8.q.r.0.0.r.r.q.x.L.).%X*X*X%X!.W.E.E.E.E.E.W.W.W.W.W.!.).`.`.`.%X%X`.`.`.`.`.`.).).).).).).).(.!.).).).`.!.l.@.&.&.&.&.&.&.@.@.@.| @.| | ' ' ' ` ( ( ( ( ( ~ ~ ~ ~ ~ Y Y A C C C C M M M m a i 0 0 w 5 # # @ @ X X       X X X X X                           ",
"                                  X X X X X @ # # # : w r d k M M C Y Q ! ~ ^ ( ] ] +.&.*.:.,.i.g.g.( ' ' / @.` ' ' ' ' @.@.&.&.&.&.&.&.;.=.=.=.=.=.=.=.=.=.=.>.>.>.>.>.=.=.>.>.=.=.=.=.>.>.>.>.>.6.'.W.W.!.;X;X@X3X;X$X;X@X1XXXOX@X@XOXOX@X;X3Xs...W E R.aX-.^ E B A E A A A A A A A A A A A A A A A A A A A A A A A A A A A A C A A C A ~ ~ Z A A ~ ' _ ^ }.7X3X3X3X3X3X3X3X3X3X3X3X3X3X3X3X3X1X5X1X1X3X1X1X1X1X3X1X=X1X7X;X=X%X!.Y.U.W.).`.).`.`.`.`.`.`.`.`.U.R.%XW.U.S.S.U.U.W.!.).!.!.!.`.`.`.`.`.`.%X%X%X*X).`.`.).).`.,X(.0.7.q.m.9.=.H ' ~ Y A A A A B A A A A A A A A A A A A A A A A A A A A A A A A A A A A A A A A A A B A A A C C A A ,X`.`.).*X).`.`.`.`.`.`.`.`.`.).).).).).).).`.%X`.`.`.`.`.`.`.`.!.W.W.E.W.W.).).`.`.`.`.`.`.`.`.`.`.).).`.`.*XW.J.J.W.!.).`.:X`.'.H.9.m.r.0.q.q.q.q.q.q.q.q.q.q.q.q.q.r.q.9.` ' ` ~ D A A A A C A A A A A A A A A A A A A A A A A A A A A A A A A A A A A A A A A A A A A A A A ` | =.=.>.=.>.=.&.| / H ' =.,.=.=.=.,.>.=.=.>.=.&.@.@.&.=.=.=.=.>.>.=.>.>.>.Q.J.T.l.&.g.' 1.>.#.=.6.&.;.&.z.<Xc.>.,.=.>.>.>.=.=.=.=.=.=.>.>.>.>.=.=.=.=.=.=.=.=.` / ' ~ ( ' A B B B A A B B A A A A A A A A A A A A A A A A A A A A A A A A A A A A A A A A A C A E A M A / =.>.1.6.x.m.q.9.<.5.q.m.m.q.8.q.8.>.=.>.>.#.>.x.9.m.r.0.0.r.r.q.9.J.!.).*X*X%XW.W.E.E.E.E.E.W.W.W.W.W.!.).`.`.).%X%X`.`.`.`.`.`.).).).).).).).).!.`.`.).!.U.g.@.&.&.&.&.&.&.@.@.@.@.@.| | ' ' ' ( ( ( ( ( ( ~ ~ ~ ~ ~ Y Y A C C C C M M M m a s r 0 w 5 # # @ @ X X       X X X X X                           ",
"                                  X X @ X X X X # # : w u d k M P U Y T ~ ^ ( ^ ' ] +.&.:.,.,.,.g.,.( ~ ' ( ' ' ' ' | | @.@.&.&.&.&.&.;.&.=.=.=.=.=.=.=.>.>.>.>.=.=.=.=.>.>.=.=.>.>.=.=.=.>.>.=.&.c.`.^.!.*X*X<X;X;X@X@X@X@X@X;X@X@X@X@X@X@X@X@Xk.W ( W R.eXh.E E A B A A A A A A A A A A A A A A A A A A A A A A A A A A A A A C C Y A Z C A A M A ~ ( ' ( }.3X3X3X3X3X3X3X3X3X3X3X3X3X3X3X3X3X3X3X3X3X3X3X3X3X1X1X1X1X1X3X3X<X<XoX!.U.W.*XW.U.).).).).).).`.*XU.Y.=XW.U.U.c.R.*X`.).!.).).).).).).`.*X*X*X`.`.`.`.`.`.`.`.`.`.P.7.u.u.q.x.>.~ ' ( Y Y A A B B A A A A A A A A A A A A A A A A A A A A A A A A A A A A A A A A A A A A A A A A C ~ *X`.).`.`.).`.`.`.`.`.`.`.`.`.`.).).).).).).).).`.`.`.`.`.`.).`.*X`.!.W.W.!.U.W.).`.`.`.).).).`.%X%X*X*X*X*X*XE.D.E.%X*X*X`.'.`.(.H.9.q.y.y.q.q.y.y.y.y.q.q.9.I.w.y.I.0.u.9.` ` ` / D A A A C C C A A Y A A A A A A A A A A A A A A A A A A A A A A A A A A A A A A A A A A A A A A ( &.>.=.=.=.=.' ( ~ A =.,.=.=.>.,.>.=.=.,.=.@./ Z Z ' 6.=.,.1.,.=.>.>.=.>.>.>.>.,.>.>.>.>.>.>.=.>.=.=.=.=.*X<Xl.&.&.,.=.>.>.>.>.>.>.>.>.=.=.&.&.=.=.=.=.>.&.' ( ` ` ( ~ A A A A A A A A A A A A A A A A A A A A A A A A A A A A A A A A A A A A A A A A A ~ A B E A C ' >.=.>.>.>.8.M.x.#.x.H.8.9.m.q.$.>.=.=.>.=.#.<.q.r.q.q.q.q.q.q.q.x.x.!.`.*X*XW.:X`.!.W.W.W.W.W.W.E.E.E.W.!.!.`.`.`.`.`.`.`.`.`.`.).).).!.!.!.!.!.).).!.).!.`.,.;.&.&.&.&.&.&.@.@.| | | | ' ' ' ' ' ' ( ( ` ~ ~ ~ ~ ~ ~ Y Y A C C C M M M M m a p y y 0 5 1 # X X X X         X X X                             ",
"                                  X X @ X X X X @ # : w u d k M P U Y ! ~ ^ ( ( ' ] &.&.:.:.,.,.g.,.( ~ ' ( ' ' ' ' | | @.@.&.&.&.&.&.;.&.=.=.=.=.=.=.=.>.>.>.>.=.=.=.=.>.>.>.=.>.>.>.=.=.>.=.=.@.l.`.!.W.^.oX-X;X;X;X@X@X@X@X@X@X@X@X@XOXOX@X@XB.X.X.E c.}.i.( E A B A A A A A A A A A A A A A A A A A A A A A A A A A A A A A A C ~ ~ A C D A C ~ ~ ( ' ( }.8X3X3X3X3X3X3X3X3X3X3X3X3X3X3X3X3X3X3X3X3X3X3X3X3X1X1X1X1X1X3X3X3X*XW.W.U.R.*XW.F.%X%X`.).).).`.`.U.Y.*XR.U.F.c.R.*X*X).).).).).).).).`.`.*X*X`.`.`.`.`.`.`.`.`.`.L.9.m.r.9.x.>./ ' ( T Y Y A B B A A A A A A A A A A A A A A A A A A A A A A A A A A A A A A A A A A A A A A A A C ~ *X`.).`.`.).`.`.`.`.`.`.`.`.`.`.).).).).).).).).`.`.`.`.`.`.).`.*X).!.W.W.!.U.W.).`.`.`.).`.`.`.%X).).).).W.).E.E.).%X%X).).)._.(.H.9.q.y.y.q.q.y.y.y.y.q.q.q.L.0.y.u.q.u.7.J / / J D A C C C C C A Y Y A A A A A A A A A A A A A A A A A A A A A A A A A A A A A A A A A A A A A A ( &.>.>.>.,.,.| ` D C ;.=.=.=.=.=.=.=.,.&.| ` D Z C / @.| @.@.@.&.,.,.>.>.>.>.>.>.>.>.>.>.>.>.>.>.>.>.>.=.T.!.g.&.;.=.=.>.>.>.>.>.>.>.>.>.>.,.,.=.=.=.=.;.@.' ` ` ( ( ~ A A A A A A A A A A A A A A A A A A A A A A A A A A A A A A A A A A A A A A A A A E B B A C Z ` ,.=.>.>.>.6.x.6.=.<.9.8.q.q.5.>.>.=.>.>.>.#.<.0.q.q.q.q.q.q.q.q.q.x.!.`.`.).W.*X`.!.!.W.W.W.W.W.E.E.E.W.!.!.`.`.`.`.`.`.`.`.`.`.).).).!.!.!.!.!.).).!.).!.`.,.;.&.&.&.&.&.&.@.@.| | | | ' ' ' ' ' ' ( ( ` ~ ~ ~ ~ ~ ~ Y Y A C C C M M M M m a s y y 0 5 1 # X X X X         X X X                             ",
"                                  X X @ X X X X @ # : w r d k M M U Y ! ~ ^ ( ( ' ] &.&.:.,.,.,.g.,.( ~ ' ( ' ' ' ' | | | @.&.&.&.&.&.;.&.=.=.=.=.=.=.=.>.>.>.>.=.=.>.>.>.>.=.=.=.=.>.>.>.>.=.=.>.c.`.!.U.W.W.oX*X;X;X;X@X@X@X@X@X@X;X@X@XOX@X@X@X.XV.( ( ] Y ~ E A B A A A A A A A A A A A A A A A A A A A A A A A A A A A A A A A ~ ~ D A H A ~ ( ( ( ' ( }.8X3X3X3X3X3X3X3X3X3X3X3X3X3X3X3X3X3X3X3X3X3X3X3X3X1X1X1X1X1X3X3X3XoXV.U.c.R.*XW.U.).*X*X*X`.).`.`.F.Y.=XW.U.c.c.W.*X*X`.).).).).).).).`.`.*X`.`.`.`.`.`.`.`.`.`.`.L.9.H.q.0.x.>./ ' ( T Y C A B B A A A A A A A A A A A A A A A A A A A A A A A A A A A A A A A A A A A A A A A A C ~ *X`.).*X`.).`.`.`.`.`.`.`.`.`.`.).).).).).).).).`.`.`.`.`.`.).*X`.).!.W.W.W.E.W.`.`.`.`.`.`.*X*X%X*X*X*X).!.F.F.E.).*X*X%X`.)._.!.I.x.x.r.r.q.q.q.q.q.q.q.q.9.H.9.9.q.0.u.0.J / / H D A C C C C C C Y A A A A A A A A A A A A A A A A A A A A A A A A A A A A A A A A A A A A A A A ( &.>.>.=.>.,.| / D D =.=.=.>.=.=.=.=.,.' ~ A A A A A D H D A H ' =.,.=.=.=.>.>.>.>.>.=.>.>.>.>.>.>.=.=.@.6.6.=.=.=.=.,.=.>.>.>.>.=.=.>.,.=.&.&.,.,.,.=.@.' ` ` ` ( ( ~ A A A A A A A A A A A A A A A A A A A A A A A A A A A A A A A A A A A A A A A A A E A A A A A / ,.=.=.=.=.,.6.>.>.#.>.8.q.<.>.>.,.,.,.>.>.$.5.0.q.q.r.q.q.q.q.q.q.x.`.`.`.*X!.*X`.).!.W.W.W.W.W.E.E.E.W.!.!.`.'.`.`.`.`.`.`.`.`.`.).).).!.!.!.!.).).!.).!.`.,.&.&.&.&.&.&.&.@.@.| | | ' ' ' ' ' ' ( ( ( ` ~ ~ ~ ~ ~ ~ Y Y A C C C M M M M m a s y y 0 5 1 # X X X X         X X X                             ",
"                                  X X + X X X X @ # : w r d d M M U T ! ~ ~ ^ ( ] ] &.&.:.,.,.,.g.,.( ~ ' ( ' ' ' ' | | | @.&.&.&.&.&.;.&.=.=.=.=.=.=.=.>.>.>.>.=.=.>.>.>.>.=.=.>.>.>.,.>.=.=.=.;.x.`.`.W.R.Y.!.oX*X;X;X@X@X@X@X@X@X;X;X@XOXOXOXOX@XV.W E ( ~ ] E A B A A A A A A A A A A A A A A A A A A A A A A A A A A A A A A A ~ ( ~ A D A ~ ( ( ( ' ^ }.7X3X3X3X3X3X3X3X3X3X3X3X3X3X3X3X3X3X3X3X3X3X3X3X3X1X1X1X1X1X3X3X3XoXY.U.b.R.*X!.W.).).).*X`.).`.`.F.Y.>X!.U.U.c.R.*X*X`.).).).).).).).`.`.*X`.`.`.`.`.`.`.`.`.`.`.Q.H.H.0.q.x.#./ ' ( T Y C A B B A A A A A A A A A A A A A A A A A A A A A A A A A A A A A A A A A A A A A A A A C ~ *X`.).*X`.).`.`.`.`.`.`.`.`.`.`.).).).).).).).).`.`.`.`.`.`.).`.`.).!.W.W.W.E.!.!.`.`.`.`.`.`.).!.).*X%XW.W.S.U.!.).*X%X%X%X`.`.).E.H.x.q.r.q.q.q.q.q.q.q.q.9.x.q.q.9.r.u.7.#.@.` / A A C C C C C Y Y A A A A A A A A A A A A A A A A A A A A A A A A A A A A A A A A A A A A A A A ( &.>.>.=.=.,.| H A D =.=.=.=.=.=.=.&.@./ A Z A D A A Z C N m Z / | =.=.=.=.>.>.>.>.>.=.>.>.>.>.>.>.=.=.@.&.&.&.=.&.&.,.=.>.>.>.>.>.=.=.=.=.=.=.@.@.;.,.' ' ` ` ` ` ~ ~ A A A A A A A A A A A A A A A A A A A A A A A A A A A A A A A A A A A A A A A A A A C A A C A ~ ,.=.=.>.=.>.>.#.,.>.<.9.9.$.#.>.>.>.>.>.>.<.5.0.q.q.r.q.q.q.q.q.q.H.'.'.`.:X).:X`.).!.!.W.W.W.W.E.E.E.W.!.!.`.'.`.`.`.`.`.`.`.`.*X).!.).).!.!.!.).).!.).!.`.,.&.&.&.&.&.&.&.@.@.| | | ' ' ' ' ' ' ( ( ( ( ~ ~ ~ ~ ~ ~ Y Y A C C C M M M M m a s y y 0 5 1 # X X X X         X X X                             ",
"                                  X X + X X X X @ # # w r d d M M U Y ! ! ! ^ ^ ] ] &.&.:.,.,.,.g.i.( ~ ' ( ' ' ' ' ' | | @.&.&.&.&.&.;.&.=.=.=.>.>.=.=.>.>.>.>.=.>.>.>.=.=.=.=.>.=.>.,.,.=.=.,.&.6.!.).!.!.Y.!.!.*X;X;X@X@X@X@X@X@X@X;X@XOXOXOX@X.Xk.( ( &.' ' E A B A A A C A A A A A A A A A A A A A A A A A A A A A A A A A A C ~ ( ~ A A A ~ ( ( ( _ ^ }.8X3X3X3X3X3X3X3X3X3X3X3X3X3X3X3X3X3X3X3X3X3X3X3X3X1X1X1X1X1X3X3X3X;XR.R.Y.W.*XW.).E.W.).%X`.`.`.`.U.Y.*XW.U.U.c.R.*X*X`.`.).).).).).).`.`.`.`.`.`.`.`.`.`.`.`.`.`._.P.L.q.q.m.#./ ( ^ T Y C A B B A A A A A A A A A A A A A A A A A A A A A A A A A A A A A A A A A A A A A A A A C ~ *X`.).`.`.).`.`.`.`.`.`.`.`.`.`.).).).).).).).).`.*X*X`.`.`.).`.`.).!.W.W.E.W.!.!.).`.`.`.`.).!.!.!.!.!.U.F.E.!.%X*X).).).).*X*X`._.I.x.q.q.q.q.q.q.q.q.x.x.H.9.H.H.q.u.u.7.9.<.@./ A Z C C Y Y Y Y C C A A A A A A A A A A A A A A A A A A A A A A A A A A A A A A A A A A A A A A ~ &.=.>.,.=.=.( A A D | >.>.=.=.,.,.@./ H A A A A A A A A A A A H ` @.=.=.>.>.>.>.>.>.>.>.>.>.>.>.>.=.=.,.=.&.=.=.~ ~ &.>.>.=.=.=.=.=.=.&.6.j.,.~ D ' 1.' ( ` ` ` ~ ~ A A A A A A A A A A A A A A A A A A A A A A A A A A A A A A A A A A A A A A A A A B B B A B B D ~ ,.&.=.>.=.>.>.#.>.5.q.9.<.$.$.>.=.=.=.=.,.5.8.r.q.q.q.q.q.q.q.q.9.x.(.).).:X).*X`.`.!.!.W.E.E.E.W.W.W.W.!.!.`.`.`.`.`.`.`.`.`.`.`.!.!.).`.!.!.!.).).!.).!.`.,.&.&.&.&.&.&.&.@.@.| | | ' ' ' ' ' ' ` ( ( ~ ~ ~ ~ ~ ~ Y Y Y A C C C M M M m m a s y y 0 5 1 # X X X X           X X                             ",
"                                  X X + X X X X @ # # w w d d k M Y T ! Q ! ^ _ ] ] &.&.:.,.,.,.g.a.( ~ ' ( ' ' ' ' ' | | @.&.&.&.&.&.;.&.=.=.=.>.>.=.>.>.>.>.>.>.>.>.>.>.>.=.>.>.=.=.,.>.=.=.1.c.J.*X*X`.`.Y.W.R.*X;X;X@X@X@X@X@X@X@X@X@XOXOXOX;X3XR.k.' ( ~ ~ E A B A A A C A A A A A A A A A A A A A A A A A A A A A A A A A C B ~ ( ~ A A C ~ ( ( ( _ ^ }.8X3X3X3X3X3X3X3X3X3X3X3X3X3X3X3X3X3X3X3X3X3X3X3X3X1X1X1X1X1X3X3X3X7XoX}.W.!.*X%X*XF.E.!.).`.`.`.`.U.U.R.Y.U.U.c.Y.%X%X`.`.`.).).).).).`.*X`.`.`.`.`.`.`.`.`.`.`.`._._.P.9.m.m.@./ ( ( Y Y A A B B A A A A A A A A A A A A A A A A A A A A A A A A A A A A A A A A A A A A A A A A C ~ *X`.).`.`.).`.`.`.`.`.`.`.`.`.`.).).).).).).).).`.*X`.`.`.`.).`.`.`.).!.W.W.W.W.!.!.`.`.`.).`.*X*X*X).W.U.S.U.W.%X%X).%X*X*X`.*X:X_.P.x.9.q.q.q.q.q.q.q.x.x.5.%.9.H.q.u.r.q.J.8.#./ A Z C C Y Y Y Y C Y A A A A A A A A A A A A A A A A A A A A A A A A A A A A A A A A A A A A A A ~ &.=.=.>.' ' ~ Z / ' &.>.>.=.=.,.,.| A A A A A C C A ~ D A A A A A ~ ` =.>.>.>.>.>.>.>.>.>.>.>.>.>.=.=.,.=.=.,.=.D A &.>.>.=.=.=.=.=.=.| ' ` ` ` ' | &.' ( ` ` ` ~ ~ C A A A A A A A A A A A A A A A A A A A A A A A A A A A A A A A A A A A A A A A A A C E ~ A A ` | ,.&.=.>.>.>.,.>.>.x.M.5.$.$.<.>.=.=.=.=.1.8.q.r.q.q.q.q.q.q.q.q.9.9.L.L.!.*X).).`.`.`.!.W.E.E.E.W.W.W.W.W.!.!.`.`.`.`.`.`.`.`.`.).W.W.).`.).!.!.).).!.).!.`.,.&.&.&.&.&.&.&.@.@.| | | ' ' ' ' ' ' ( ( ` ~ ~ ~ ~ ~ ~ Y Y Y A C C C M M M M m a s y y 0 5 5 # X X X X         X X X                             ",
"                                  X X @ X X X X @ # # w 0 u d k P Y T ! Y Q ^ ] ' ] &.&.:.,.,.,.g.,.( ~ ' ( ' ' ' ' ' | | @.&.&.&.&.&.;.&.=.=.=.>.>.>.>.>.>.>.>.=.>.>.>.>.>.>.>.>.=.=.,.>.&.>.g.*X`.,X*X`.`.U.T.Y.*X;X;X+X@X@X@X@X@X@X@XOXOX@X@X.X@X<X;X&.~ ' &.E A B A A A C A A A A A A A A A A A A A A A A A A A A A A A A A A B ~ ' ~ C A A ~ ( ( ( ' ^ }.7X3X3X3X3X3X3X3X3X3X3X3X3X3X3X3X3X3X3X3X3X3X3X3X3X1X1X1X1X1X3X3X3X3XoX+X}.}.=XW.*XS.E.!.%X`.`.).).U.c.Y.B.F.Y.U.Y.).).`.`.`.`.`.).).).`.`.`.`.`.`.`.`.`.`.`.`.`.`._.'.P.9.m.m.@./ ( ( Y Y A A B B A A A A A A A A A A A A A A A A A A A A A A A A A A A A A A A A A A A A A A A A C ~ *X`.).`.`.).`.`.`.`.`.`.`.`.`.`.).).).).).).).).`.*X`.`.`.`.).).`.`.`.).!.W.W.W.W.!.).`.).).!.`.>X*X).W.Y.U.S.E.).).%X*X:X*X).).'._.P.x.9.q.q.q.q.q.q.q.x.x.%.L $.m.q.r.q.m.H.6.#./ A A C A A Y A C C C A A A A A A A A A A A A A A A A A A A A A A A A A A A A A A A A A A A A A A ~ &.=.=.=.H D A Z | =.,.=.=.=.=.,.,.' A Z A A A C C ~ ' H A Z C C Z Z A =.=.=.=.>.>.>.>.>.>.>.>.>.=.=.=.=.&.&.1.>.~ H =.>.>.>.>.=.=.=.=.` Z h C @.,.&.~ ( ` ` ( ( ~ A C A A A A A A A A A A A A A A A A A A A A A A A A A A A A A A A A A A A A A A A A E A ( ( A E &.,.,.&.=.,.>.>.<.>.>.j.x.5.$.$.<.>.=.=.=.=.1.8.m.q.q.q.q.q.q.r.q.q.9.9.H.A.E.*X).).`.`.`.!.W.E.E.E.W.W.W.E.W.W.!.!.`.`.`.`.`.`.`.`.!.W.U.).*X).!.).).).!.).!.`.,.&.&.&.&.&.@.@.@.@.| | | | ' ' ' ' ' ( ( ( ~ ~ ~ ~ ~ ~ Y Y Y A C C C B M M M m a s y y 0 5 5 # X X X X         X X X                             ",
"                                  X X @ X X X X @ @ # w 0 u d k P Y T T Y T ^ ] ' ] &.&.:.,.,.,.g.i.( ~ ' ( ' ' ' ' ' | | @.&.&.&.&.&.;.&.=.=.=.>.>.>.>.>.>.>.>.=.>.>.>.>.>.>.>.>.=.=.>.=.&.>.j.:X!.`.!.!.).W.R.Y.*X>X;X+X@X@XoX@X@X@XOXOXOX@X@X3XoX+XeXg.&.&.~ E A B A A A C A A A A A A A A A A A A A A A A A A A A A A A A A A C ~ ' ~ A A A ~ ( ( ' ' ^ }.8X3X3X3X3X3X3X3X3X3X3X3X3X3X3X3X3X3X3X3X3X3X3X3X3X1X1X1X1X1X3X3X3X@X[.@X+XoX=XW.*XF.W.).%X`.`.).).Y.c.U.b.U.W.U.Y.).).`.`.*X`.`.`.).).`.`.`.`.`.`.`.`.`.`.`.`.`.`.`.'.P.7.m.m.@./ ' ~ Y C A A B B A A A A A A A A A A A A A A A A A A A A A A A A A A A A A A A A A A A A A A A A C ~ *X`.).`.`.).`.`.`.`.`.`.`.`.`.`.).).).).).).).).`.*X`.`.`.`.).).`.`.`.`.!.!.W.W.W.!.).`.`.!.S.W.).%X!.Y.U.Y.E.).:X*X).).!.E.E.).`.`.E.x.9.x.q.q.q.q.q.q.x.x.#.L $.I.x.q.9.q.x.1.@./ D A C C A A A C C C A A A A A A A A A A A A A A A A A A A A A A A A A A A A A A A A A A A A A A ~ &.=.=.g./ D Z Z @.=.&.=.=.=.&.=.=.| D Z A A D A A ~ ' ` D C A D A Z A &.&.=.=.=.=.>.>.>.>.>.>.>.>.=.=.=.&.&.1.>.~ D &.=.>.>.>.>.=.=.=.~ D D ~ @.&.| ` ` ` ` ' ' ` ~ C A A A A A A A A A A A A A A A A A A A A A A A A A A A A A A A A A A A A A A A A C B ~ ( B A &.1.,.&.=.>.>.=.>.>.>.5.6.<.$.$.>.<.=.>.=.=.1.x.m.8.q.q.q.q.q.r.q.q.q.9.x.x.L.:X`.`.`.`.`.`.!.E.E.E.!.W.W.E.E.W.W.W.`.`.`.`.`.`.`.`.!.U.U.!.*X).!.).).).!.).!.`.,.&.&.&.&.&.&.@.@.@.| | | | ' ' ' ' ' ( ( ( ~ ~ ~ ~ ~ ~ Y Y Y A C C C M M M M m a s y y 0 5 5 # X X X X         X X X                             ",
"                                  X X @ X X X X @ @ # 5 w d d M M Y T Y Y ! _ ] ] ] +.&.:.,.,.,.l.>.' ( ( ' ' ' ' | | | | @.&.&.&.&.&.;.&.=.=.=.=.=.>.>.>.>.>.>.=.=.>.>.>.>.>.>.>.=.>.=.>.>.=.x.*X*X`.`.).).!.W.!.U.U.*X;X+XoX@X@X@X@X.X.X@X@X@X7XOX<X;X-XsXi.( ' ~ E A A A A B A A A A A A A A A A A A A A A A A A A A A A A A C A A ( ( C A A ~ ( ( ( ' ^ }.8X3X3X3X3X3X3X3X3X3X3X3X3X3X3X3X3X3X3X3X3X3X3X3X3X3X1X1X1X3X3X1X1X;XOXoX}.oX=X%X!.W.S.W.*X).).:X!.U.b.U.b.b.!.>X*X:X:X!.!.:X*X!.:X!.*X*X!.W.).`.).`.`.`.`.`.`.`.`.,X`.H.I.9.H.>.H ' ( ( ( A C A B A A A A A A A A A A A A A A A A A A A A A A A A A A A A A A A A A A A A A A A A m ~ *X!.).*X).*X`.`.`.`.`.`.`.`.).).`.`.`.).).!.!.!.).).!.).).).`.`.`.`.`.).!.W.W.W.E.!.`.*X`.E.V O.<XW.F.U.F.).*X!.:X).*X*X!.A z W.*X<XE.,.I.q.q.0.r.H.m.q.q.H.$.n $.x.9.9.H.9.x.x.` / A A A A A A C C A A A A A A A A A A A A A A A A A A A A A A A A A A A A A A A A A A A A E C C A ~ ..,.=.,.~ A A N ' 1.&.=.,.,.=.;.| ~ Z A A ~ ( ' ( ( ( ` ~ ~ A A A A A Z N &.,.&.,.,.=.<.>.#.=.>.1.,.>.1.&.,.6.,.~ C =.6.,.| =.=.,.,.m Z N ' 1.>.;.&.( D D ~ ' ' ~ A C A A A A A A A A A A A A A A A A A A A A A A A A A A A A A A A A A A A A A A A A A A ~ ~ B E &.,.=.&.=.,.>.>.<.>.x.<.#.>.<.>.>.>.&.=.,.J.T.x.M.m.q.q.q.q.q.q.q.q.q.q.9.c.L.`.`.).`.`.`.!.!.!.W.W.W.W.W.W.E.W.W.!.!.!.).`.`.`.`.`.!.U.W.).*X!.!.).`.!.).`.!.E.l.@.&.&.&.&.&.@.@.@.@.| | | ' ' ' ' ' ` ( ( ~ ~ ~ ~ ~ ~ Y Y Y A C C C M M M M m s s u 0 4 5 5 1 X X X X         X X X                             ",
"                                  X X @ X X X X @ @ # 5 w p d k M Y Y Y Y ! _ ] ] ] +.&.:.,.,.,.;.' ( ~ ( ' ' ' ' ' | | | @.&.&.&.&.&.;.&.=.=.=.=.=.>.>.>.>.>.>.=.=.>.>.>.>.>.>.>.=.>.=.>.>.=.x.*X`.`.`.).).).!.!.U.T.oX;X;X@X;X@X@XOX.X.XOX@XOX@X.XR.a.Y.sXh.Y ' ~ E A A A A A A A A A A A A A A A A A A A A A A A A A A A A A C Y A ( ( C A A ~ ( ( ' ' ^ }.7X3X3X3X3X3X3X3X3X3X3X3X3X3X3X3X3X3X3X3X3X3X3X3X3X3X3X1X1X1X1X1X=X@XOX@X@X;X;X=X}.E.S.W.*X).).:X).Y.U.U.b.b.R.!.U.' l.:X!.:XE.).).!.!.).:XtX,X`.!.`.`.`.`.`.`.`.`.).`.!.Q.9.q.#.J ' ~ ( ( A C A B A A A A A A A A A A A A A A A A A A A A A A A A A A A A A A A A A A A A A A A A V ( :X*X:X:X!.).`.`.`.`.`.`.`.`.).).`.`.).).!.!.!.!.).).!.).).`.`.`.`.`.`.!.!.W.W.W.E.W.`.*X`.E.V ' >X!.W.W.U.U.).:X*XU.*Xg.;.z.U.%X*XW.!.!.J.m.H.0.7.7.9.9.q.H.@.n <.H.m.9.m.8.x.x.` / A D A A A A C C A C A A A A A A A A A A A A A A A A A A A A A A A A A A A A A A A A A A A C C A ~ ..,.,.,.~ A A Z | 1.=.,.,.&.' ~ ~ D A A A ~ ( ' ( ( ( ' ~ E A C C A A ~ H =.,.&.=.=.=.#.>.<.>.=.@.@.=.,.&.&.' ` D D ,.@.>.=.6.@.H ` A ` ` ' ' ~ ~ ( ~ D D ~ ( ' / A A A A A A A A A A A A A A A A A A A A A A A A A A A A A A A A A A A A A A A A A A B E ' ( B A &.6.1.=.,.=.@.6.K.x.1.>.=.>.$.$.>.>.>.,.,.J.K.6.8.q.q.q.q.q.q.q.q.q.q.q.9.x.P._.'.).`.`.`.).!.!.W.E.W.W.W.W.E.W.W.!.*X`.`.`.`.).!.!.W.W.!.`.*X).!.).).!.).!.J.l.3.@.&.&.&.&.&.@.@.@.@.| | ' ' ' ' ' ( ` ( ( ~ ~ ~ ~ ~ ~ Y Y Y A C C C M M M M m s s u 0 4 5 5 1 X X X X         X X X                             ",
"                                  X X @ X X X X @ @ # 5 0 p d M M Y Y Y Y ~ _ ] ] +.&.&.:.,.3.,.~ ~ ~ ( ( ( ' ' | | | | | @.&.&.&.&.&.;.&.=.=.=.=.=.>.>.>.>.>.>.=.=.=.>.=.=.>.=.>.=.>.=.>.>.=.x.`.`.`.`.`.`.).).!.W.R.^.+X;X-X@X@X@XOX.XOXOX@XOX3X@XV.( B.eXh.( ' ( E A A A A A A A A A A A A A A A A A A A A A A A A A A A A A A ~ Y ( ~ C A A ~ ( ( ( ' ^ }.7X3X3X3X3X3X3X3X3X3X3X3X3X3X3X3X3X3X3X3X3X3X3X3X3X3X3X1X1X1X1X=XOXXXXX@X1X8X7X-X%XU.F.!.*X).).`.).Y.U.U.U.U.R.R.z.8 ;.*X*X*X*X<X).).W.W.).).!.).:X`.`.`.`.`.`.`.`.).*X'.'.x.q.#.J ' ~ ( ( A C A B A A A A A A A A A A A A A A A A A A A A A A A A A A A A A A A A A A A A A A A A C ( !.!.:X:X).).`.`.`.`.`.`.`.`.).`.`.`.).).!.E.W.W.!.).`.`.`.`.`.`.`.`.`.).!.!.W.W.E.W.).`.).E.H &.>XW.S.U.W.U.).).:X>XuX&.m ).!.).*X!.,XdXE.H.r.r.0.r.m.r.x.x.@.H ,.8.H.9.q.x.x.x.` / A A A A A A C C C C A A A A A A A A A A A A A A A A A A A A A A A A A A A A A A A A A A C C A A A ( =.=.,.~ A A A ' ,.=.,.=.| H N Z A A A A Y ~ ( ( ( ' ' ~ A C C A A A ( ` =.=.&.,.=.=.>.>.<.1.,.>.>.,.=.=.=.H Z A H =.&.=.&.=.@.Z Z D @.&.( C C A ~ ( H H ~ ` ` ~ E A A A A A A A A A A A A A A A A A A A A A A A A A A A A A A A A A A A A A A A A A B E ( ~ B A | ,.=.=.6.=.@.J.'.m.=.>.>.>.#.$.>.=.>.>.,.J.K.6.q.m.q.q.q.q.q.q.r.r.q.q.9.x.E.'.'.).`.`.`.`.!.!.W.E.W.E.W.W.E.W.W.!.*X*X`.`.`.`.R.U.U.!.*X`.`.`.`.).!.!.`.!.6.;.=.;.&.&.&.&.&.@.@.@.@.| | ' ' ' ' ' ( ` ( ( ~ ~ ~ ~ ~ ~ Y Y Y A C C C M M M M m s s u 0 4 5 5 1 X X X X         X X X                             ",
"                                  X X + X X X X @ @ # : 0 p d M M Y Y Y Y ^ _ ] ] +.&.&.:.,.,.,.~ ~ ( ' ( ( ' ' | | | | | @.&.&.&.&.&.;.&.=.=.=.=.=.>.>.>.>.>.>.=.=.=.=.=.=.=.=.>.=.>.=.>.>.=.x.`.`.`.`.'.'.).).E.!.R.W.~.+X+X.X@X@XOXoXOXOX@XOX@X@XB.E a.a.' ( ' ~ E A A A A A A A A A A A A A A A A A A A A A A A A A A A A A A ~ ~ ' ~ C A C ~ ( ( ( ' ^ }.7X3X3X3X3X3X3X3X3X3X3X3X3X3X3X3X3X3X3X3X3X3X3X3X3X3X3X1X1X1X=X=XOX[.XX@X1X3X3X=X}.U.E.).*X`.).`.).Y.U.U.U.U.W.!.Y.3.g.;.6.` !.).).`.).`.*X`.).`.*X`.`.`.`.`.`.`.`.*X`.(.'.H.m.#.H ' ` ( ( A C A B A A A A A A A A A A A A A A A A A A A A A A A A A A A A A A A A A A A A A A A A C ~ 6.g.).:X`.*X`.`.`.`.`.`.`.`.).`.`.`.).).!.!.W.W.W.).*X`.).`.`.`.).`.`.).!.!.W.W.E.W.!.`.).W.Z @.:X!.c.S.).).,XW.W.g.;.~ A W.*X<X!.:XW.' ,.m.0.r.r.r.m.q.x.m.@.S / ' x.9.8.H.x.x.` / A D A A A A C C A A A A A A A A A A A A A A A A A A A A A A A A A A A A A A A A A A A A A C A C B ~ | | ,.~ A A A ' >.=.=.=.@./ A C A A A A A ~ ~ ( ( ( ` ~ A C A A D A ` ~ &.=.=.,.=.>.` J H / &.,.>.=.=.,.,.` A D D &.,.,.| ' ' A C ` &.,.' C A ~ ~ ~ ~ / ` ` ~ D A A A A A A A A A A A A A A A A A A A A A A A A A A A A A A A A A A A A A A A A A A E A ~ ~ A ~ @.=.=.&.,.>.@.J.].M.&.,.1.>.$.,.,.=.>.l.l.U.K.x.M.m.q.q.q.q.q.r.r.r.q.q.9.x.P.'.'.).`.`.`.`.`.!.W.E.E.W.W.W.E.W.W.!.*X*X).).`.`.!.J.J.).:X`.!.`.`.!.).).`.!.6.@.;.>.&.&.&.&.&.@.@.@.@.| | ' ' ' ' ' ( ` ( ( ~ ~ ~ ~ ~ ~ Y Y Y A C C C M M M M m s s u 0 4 5 5 1 X X X X         X X X                             ",
"                                  X X @ X X X X @ @ # 5 0 u d M P Y Y Y T ^ _ ' ] +.&.;.:.,.,.,.~ ( ' ' ( ( ' ' ' ' ' | | | @.@.&.&.&.;.&.=.=.=.=.=.=.>.>.>.>.>.=.=.=.=.=.=.=.=.>.=.>.=.>.>.=.x.*X*X`.`.'.`.).).E.!.Q.T.R.+X+X+X@XOXOXOXOXOXOXOX@X@Xv.A ' ( ~ ' ( ~ Y C A A A A A A A A A A A A A A A A A A A A A A A A A A A A A ( ~ ' ~ C A Z ~ ( ( ( ' ^ }.8X3X3X3X3X3X3X3X3X3X3X3X3X3X3X3X3X3X3X3X3X3X3X3X3X3X3X1X1X1X1XOX|.{.XX@X1X3X;X=X=XU.W.).).`.`.).`.U.b.U.Y.U.R.*X*X<Xz.V Z z z.!.,X).).).!.).:X:X!.`.`.`.`.`.`.`.`.*X`.!.`.m.r.$.` ` ` ( ( A C A B A A A A A A A A A A A A A A A A A A A A A A A A A A A A A A A A A A A A A A A A A A ` O.W.*X*X*X`.`.`.`.`.`.`.`.).`.`.`.`.).).).W.U.W.).*X`.).`.*X`.).).`.`.).!.W.W.W.W.!.`.).W.A ' U.U.U.W.>X*X*X`.W.~ s ~ ( c.=X*XW.*Xl.b H 6.r.r.r.0.5.8.x.M.} n n Z 5.x.8.x.x.x.` / A A A A Y Y C C C C A A A A A A A A A A A A A A A A A A A A A A A A A A A A A A A A A A A A A A B H ' ' =.` A A H ` =.,.;.=.&.` A C C C C C C A ~ ~ ( ( ~ A C A A A A C ( ' ;.=.>.,.| @.Z Z Z / &.,.,.=.,.=.=.' ` H D =.&.,.&.D A A / ,.>.,.( C ~ ( A C / ` ( ~ D A A A A A A A A C C C A A A A A A A A A A A A A A A A A A A A A A A A A A A A A A A A E E ( ~ A ~ &.,.6.&.=.,.>.c./.K.=.,.,.>.>.<.<.&.>.U.U.Y.J.c.m.5.q.q.q.q.q.q.q.r.q.q.9.x.I._._.).`.`.`.`.`.!.!.W.E.E.W.W.E.W.W.!.`.`.).).`.*X!.J.S.).:X`.!.`.`.!.).).`.!.g.&.=.>.&.&.&.&.&.@.@.@.@.| | ' ' ' ' ' ( ` ( ( ~ ~ ~ ~ ~ ~ ~ Y Y A C C C M M M M m s s u 0 4 5 5 1 X X X X         X X X                             ",
"                                  X X @ X X X X @ @ # 5 0 u d k P Y Y Y T ^ _ _ ] +.&.;.,.,.,.,.~ ~ ( ( ( ( ' | ' ' ' | | | &.@.&.&.&.;.&.=.=.=.=.=.>.>.>.>.>.>.=.=.=.=.=.=.>.>.>.=.>.=.>.>.=.x.*X`.`.`.`.`.).).E.!.W.T.R.+XwX@X@XOXOXOXOXOXoX@X@XeXB.I ~ ' ] ' ~ E A C A A A A A A A A A A A A A A A A A A A A A A A A A A A A A ( ( ' ~ C A Z ~ ( ( ( ' ^ }.8X3X3X3X3X3X3X3X3X3X3X3X3X3X3X3X3X3X3X3X3X3X3X3X3X3X3X3X3X3X1X=X|.OX@X#X1X1X;X;X-XW.!.!.W.`.*X).`.U.b.U.U.c.Y.*X*X:Xc.6.6.c.,.,.&.;.E.:X`.!.`.*X).`.`.`.`.`.`.`.`.).`.`.'.q.9.<.<.` ` ( ( A C A B A A A A A A A A A A A A A A A A A A A A A A A A A A A A A A A A A A A A A A A A A Z G ` !.:X`.).`.`.`.`.`.`.`.`.).`.`.`.`.`.`.`.W.U.U.!.*X`.).*X`.`.).).`.`.`.).W.!.W.W.!.`.).!.l.=.&.&.U.!.*X).!.J.>.~ ~ C m W.%X%X*X;.&.J.1.8.7.r.m.r.q.q.x.x.@.Z Z S 8.m.x.x.x.x.` / A A A A Y Y C C C C A A A A A A A A A A A A A A A A A A A A A A A A A A A A A A A A A A A A A A C ~ ' ` ( H A A A H ' =.,.,.&.` A C C C A A A C A ~ ~ ~ A A A A C C C C &.&.,.=.,.=.H H N H @.>.,.>.>.,.,.' ' ' ` H D ,.=.| / m A ' @.1.&.' A B ~ ( Q m ~ ' ' ~ A C A A A A A A A C C C A A A A A A A A A A A A A A A A A A A A A A A A A A A A A A A A M Y ( ( B A @.1.,.&.,.c.J.m.x.j.=.>.>.#.$.,.>.&.;.c.U.U.c.x.H.9.q.q.q.q.q.q.q.q.q.q.q.q.H.P._.`.`.`.`.`.`.!.!.!.E.E.W.W.E.W.W.!.!.).).).`.*X!.J.J.!.*X).!.).).!.).!.).!.l.=.;.;.&.&.&.&.&.@.@.@.@.| | | ' ' ' ' ( ` ( ( ~ ~ ~ ~ ~ ~ ~ Y Y A C C C M M M M m s s u 0 4 5 5 1 X X X X         X X X                             ",
"                                  X X @ X X X X X @ # 5 0 u d d P Y Y Y T _ _ _ ] +.&.:.,.,.,.>.~ ~ ( ( ( ' ' ' ' ' ' | | @.&.&.&.&.&.;.&.=.=.=.>.>.>.>.>.>.>.>.=.=.>.=.>.>.>.>.>.=.>.=.>.>.=.x.!.!.).).`.`.).).(.!.W.T.T.~.+X@X@XOXoX@X@XOXOX@X.X;XB.X.~ ( ( ~ E A C C A A A C A A A A A A A A A A A A A A A A A A A A A A A A A ( ( ' ~ C D A ~ ( ( ( ' ^ }.8X3X3X3X3X3X3X3X3X3X3X3X3X3X3X3X3X3X3X3X3X3X3X3X3X3X3X3X3X3X1X=XXXXXOX#X1X1X3X7X<X}.*XW.U.).*X).`.Y.b.U.U.b.Y.).*X%X!.<X:XtX;.Z 8 ) l.`.:X*X`.`.).`.`.`.`.`.`.`.`.).).`.].H.H.q.8.` ` ( ( A C A B A A A A A A A A A A A A A A A A A A A A A A A A A A A A A A A A A A A A A A A A A A Z ) ).*X`.).`.`.`.`.`.`.`.`.`.`.`.`.).).).).W.J.J.!.`.).).`.`.).).).`.`.`.`.!.!.!.!.!.`.`.).,Xl.G G U.R.W.).:X=.8 Z m m ~ U.=X%XY.C ` <X!.K.0.r.8.0.8.m.x.8.#.Z H H >.5.8.x.x.x.` / A D A C Y Y A C C Y A A A A A A A A A A A A A A A A A A A A A A A A A A A A A A A A A A A C A A C ~ ` H A A Z C Z Z H @.,.,.=.' ~ ~ ~ A A A A C C Y Y A A A A A C A ~ ` >.,.,.&.,.&.A D D ` =.>.=.@.@.=.=.' ` ` ` H A &.=.Z Z A ' ,.=.=.( A B A ~ ( ~ C ~ ` ' / A A A A A A A A A A C C A A A A A A A A A A A A A A A A A A A A A A A A A A A A A A A A B A ~ ~ A ~ &.,.&.=.,.c.Q.x.=.>.=.>.=.>.$.#.>.1.,.z.c.Y.c.6.x.m.q.q.q.q.q.q.q.q.q.r.r.9.x.I.(._.`.`.`.`.`.`.`.!.W.W.W.W.E.E.W.!.W.).`.).).*X!.U.U.!.*X`.).`.`.).).!.).!.l.=.&.;.&.&.&.&.&.@.@.@.@.| | ' ' ' ' ' ( ` ( ( ~ ~ ~ ~ ~ ~ ~ Y Y A C C C M M M M m s s u 0 4 5 5 1 X X X X         X X X       X                     ",
"                                  X X @ X X X X X @ # : 0 u d d P Y Y Y T _ _ _ ] +.&.:.:.,.,.>.( ( ( ' ' ' ' ' ' ' ' | | @.&.&.&.&.&.;.&.=.=.=.>.>.>.>.>.>.>.>.=.=.>.>.>.>.>.>.>.=.,.=.>.>.=.x.!.!.!.).).`.).).).).W.T.T.T.~.+X@XoXoX@X@XOX.X@X@X7XoXoX,.^ ~ ' A C B B A A A C A A A A A A A A A A A A A A A A A A A A A A A A A ( ( ' ~ Z D A ~ ( ( ( ' ^ }.8X3X3X3X3X3X3X3X3X3X3X3X3X3X3X3X3X3X3X3X3X3X3X3X3X3X3X3X3X3X1X@XXX{.XX#X1X3X7X7X7X&X*XW.S.).*X).`.Y.c.b.U.U.R.*X!.).*XW.!.:X).E.:XJ.;.A A &.U.`.*X`.`.`.`.`.`.`.%X:X).!.'.Q./.H.q.` / ' ( A C A B A A A A A A A A A A A A A A A A A A A A A A A A A A A A A A A A A A A A A A A A C A m H W.).*X:X`.`.`.`.`.`.`.`.`.`.`.).).).).!.!.J.J.!.`.).!.`.`.).).).`.`.`.`.!.!.!.!.!.`.`.).W.,.V ~ *X%XR.*X`.&.D ~ s z.%X~ Y ~ ( J.,X`.W.`.K.q.%.K } <.m.m.@.Z H N H ` >.8.x.x.` / A A C C Y Y A C C A A A A A A A A A A A A A A A A A A A A A A A A A A A A A A A A A A A A Z C C C A D N C A A D D Z D &.=.>.>.=.;.&.( ~ A A A B C A A B A A D A A H ' =.=.,.>.&.,.=.D H #.>.>.>.>.>.>.>.=.' ' ` ` ~ m / ` 8 ~ &.&.>.;.,.( C A ( ( ( ~ m A ` ' / A C A A A A A A A A C C A A A A A A A A A A A A A A A A A A A A A A A A A A A A A A A A ( A A ~ ' =.,.=.=.1.&.&.j.1.@.<.>.>.>.,.>.#.,.l.U.U.b.R.c.=.<.q.q.q.q.q.q.q.q.q.q.u.H.9.9.H.Q.'.`.`.`.`.`.`.`.`.W.W.W.W.E.E.W.!.U.).*X`.).`.!.J.R.!.`.*X`.`.`.`.`.!.).!.l.&.&.=.&.&.&.&.&.@.@.@.@.| | ' ' ' ' ' ( ` ( ( ~ ~ ~ ~ ~ ~ ~ Y Y A C C C M M M M m s s u 0 4 5 5 1 X X X X         X X X       X                     ",
"                                X X X @ X X X X X X # 5 0 u k M Y U Y Y Q ^ _ ] ] &.*.;.;.>.,.,.~ ( ( ( ( ' ' ' ' ' ' O.@.@.@.&.&.&.&.&.&.=.=.=.=.=.=.=.=.=.=.>.>.=.=.=.=.=.=.=.>.=.>.=.>.>.=.l.^.`.`.`.*X:X*X).*XW.U.U.Q.Q.^.].+XoXoX;X@XoXoX@X@X@X;X<X-.~ ' ( A A A A A A A A A A A A A A A A A A A A A A A A A A A A A A A A A ` ` ' ~ Z A Z / ` ` ( ' ^ }.7X3X3X3X3X3X3X3X3X3X3X3X3X3X3X3X3X3X3X3X3X3X3X3X3X7X3X3X1X1X;X@X[.XXOX@X1X3X3X3X5X=X&XY.G.W.>X%X!.U.U.c.c.U.W.!.`.).).).`.`.).).`.!./ m 9 ` *X<X`.).<X!.`.:X).>X!.%X).<XE.,X,XM.5.' } ` H A C C A A A A A A A A A A A A A A A A A A A A A A A A A A A A A A A A A A A A A A A A A A m D ~ !.).<X`.`.*X'.).!.`.*X).`.`.`.`.%X*X).!.W.U.U.R.`.).).`.`.`.`.`.`.`.`.`.!.).).).`.).pXW.c.c.x ( <X*XU.-XoXg.A j A c.>X( C Z C !.,X`.`.!.E.T.1.n J 8.m.x.@.C Z E Z D =.x.x.m.` J A C C Y Y Y C C A A A A A A A A A A A A A A A A A A A A A A A A A A A A A A A A A A A A A A A A A A A A A C A D A B ~ &.>.&.>.;.-.g.&.A m A A C C E ~ A A Z D N N H ' ,.,.@.1.,.>.=.D H =.>.>.=.=.=.=.=.&.' ` ( ( A m A A D H &.,.&.=.>.` D A ( ' ~ A C ~ ( ' ( E B B A A A A A A A A A A A A A A A A A A A A A A A A A A A A A A A A A A A A C C C C C ( ` ~ A ,.>.=.=.=.=.>.>.>.>.>.>.=.&.=.,.>.;.g.U.U.b.Y.R.c.>.>.q.8.r.r.r.r.r.r.0.q.q.q.9.9.H.(.'.`.`.`.`.`.`.`.`.E.E.E.W.W.W.W.!.!.!.`.*X*X).R.U.Y.W.*X*X).`.`.!.!.W.`.!.x.&.&.=.&.&.&.&.&.@. .| | | | ' ' ' ' ( ( ` ( ( ~ ~ ~ ~ ~ ~ Q Q Y A C C C M M M M m s s y w 5 : # # X X X X X X X X X X                               ",
"                                X X X @ X X X X X X # 5 0 u k M U U U Y ! _ _ ] ' +.;.*.>.,.,.,.~ ( ( ( ( ' ' ' ' ' ' O.@.&.@.&.&.&.&.&.&.=.=.=.=.=.=.=.=.=.=.=.>.=.=.=.=.=.=.=.>.=.>.=.>.=.=.l.`.).!.).%X*X%X!.W.W.W.!.E.L.Q./.oXoX+X@X@XoXoX@X@X@X;X<X-.~ ' ( A A A A A A A A A A A A A A A A A A A A A A A A A A A A A A A A A ` / ` ~ Z A Z / ` ( ( ' ^ }.7X5X1X3X3X3X3X3X3X3X3X3X3X3X3X3X3X3X3X3X3X3X3X3X3X7X7X3X1X;X;X@X[.|.OX@X1X3X3X3X1X1X;XY.b.W.%X*X*XU.U.M.J.U.W.).`.`.!.!.).`.`.).).!.j.J.x.' / ' | =.!.*X,X).).*X:X*XW.z.' J.'.K.q.} } ` / D A C C A A A A A A A A A A A A A A A A A A A A A A A A A A A A A A A A C C A A A A A A E M A D !.^.:X).'.!.!.'.*X!.!.`.`.*X).!.!.).%X!.!.W.Y.Y.!.).).).`.`.`.`.`.`.).).`.,X).D.:X!.R.W.!.,.m A ' c.<XF...W M E A ~ &.N C z.c.*X).E.).tXc.@.D n } x.x.M.@.C B D N D >.M.9.q.` ' ~ ~ A Y Y C C A A A A A A A A A A A A A A A A A A A A A A A A A A A A A A A A A A A A A A A A A A A A A A C A Y A B E ..,.>.,.' ( ;.;.&.&.&.( A B A A N A D ' ' | &.&.,.,.&.,.@.` / A ` =.>.>.=.=.=.=.=.=.&.( ( ' ~ C A A N Z =.1.@.=.,.` H E ~ ~ A B B ~ ( ( ~ Y B B A A A A A A A A A A A A A A A A A A A A A A A A A A A A A A A A A A A A A A A A A ~ / D A ,.>.=.>.=.=.>.>.>.>.>.>.1.>.=.,.>.;.,.z.U.F.c.6.=.#.<.q.r.r.r.r.r.r.r.0.q.q.q.q.q.H.(.'.`.`.`.`.`.`.`.`.E.E.W.W.W.W.W.!.W.!.`.`.).!.R.W.R.%X*X%X).).`.`.`.!.).!.l.=.&.=.&.&.&.&.&.@. . .| | ' ' ' ' ' ( ( ` ( ( ~ ~ ~ ~ ~ ~ Y Y Y A C C C M M M M m s y y w 5 : # # X X X X X X X X X X                               ",
"                                  X X @ X X X X X # # 5 0 u k M M M U T ~ _ ^ _ ' ] *.*.,.,.,.,.~ ( ( ( ( ' ' ' ' ' ' @.@.@.@.&.&.&.&.&.&.=.=.=.=.=.=.=.=.=.=.=.>.=.=.>.=.=.>.>.>.=.>.=.>.>.=.x.`.!.!.!.!.W.!.R.Y.Y.W.!.!.P.L.L.T.oX@X@XoXoX+X@X;X@X=X<X;.~ ( ~ A A A A A A A A A A A A A A A A A A A A A A A A A A A A A A A A A ` ` ' ~ Z A Z / ` ( ( ' ^ }.7X5X3X3X3X3X3X3X3X3X3X3X3X3X3X3X3X3X3X3X3X3X3X3X3X7X3X3X1X;X@XOX.X|.OX@X1X3X3X3X1X3X7X}.Y.W.}.!.!.U.U.U.U.W.W.).`.:XW.J.!.:X`.).).,XT.).*X6.` ` b ' c.R.Y.c.*XR.*X>XW.;.m c.,XK.6.` ` ` / H A C C A A A A A A A A A A A A A A A A A A A A A A A A A A A A A A A A C C A A A A A A D A A D `.*X`.!.`.!.!.`.*X).).*X`.*X!.U.U.W.*X).!.!.W.U.U.).`.`.`.`.`.`.`.`.).).E.E.*X!.,X*X).>XR.&.C A m &.!.' m M M Y A m C C Z ,X,X`.`.`.).!.=.Z N / >.j.1.1.' C B D B D &.8.8.q.} | ` ~ C M Y Y C A A A A A A A A A A A A A A A A A A A A A A A A A A A A A A A A A A A A A A A A A A A A A A C A Y C B Y ( &.@.| D D &.>.,.,.,.@./ ~ / ~ D A D @.&.=.1.=.=.,.=.,.' A N N ` =.>.>.=.=.=.=.=.&.@.( ~ ( ~ C C A H / =.1.&.=.&./ ~ ~ ~ ~ A A ~ ( ( ~ E A A C A A A A A A A A A A A A A A A A A A A A A A A A A A A A A A A A A C C A A A A A A ~ ~ D A ,.>.=.>.=.=.>.>.>.>.>.>.>.>.=.=.=.>.g.U.F.Y.c.>.#.1.8.8.r.r.8.0.0.r.r.0.q.q.q.q.q.H.P.(.`.`.`.`.`.`.`.`.!.!.W.W.W.W.E.E.W.!.`.`.!.W.W.!.W.%X*X).!.).`.`.*X!.).!.j.=.=.&.&.&.&.&.&.@.| | | | | ' ' ' ' ' ( ` ( ( ~ ~ ~ ~ ~ ~ Y Y Y A C C C M M M M m s y y w 5 5 # # X X X X X X X X X X                               ",
"                                  X X @ X @ X X X # # 5 w u k M v M U Y ! _ _ _ ' +.;.;.*.,.,.-.~ ( ( ( ( ' ' ' ' ' ' @.@.@.@.&.&.&.&.&.&.=.=.=.=.=.=.=.=.=.=.=.=.>.=.>.=.=.=.>.>.=.>.=.>.>.=.l.).!.!.).).R.W.W.!.W.U.W.`.!.L.c.M.R.;X+XoXoX@X+X;X@X=X<X;.E ~ Y A A A A A A A A A A A A A A A A A A A A A A A A A A A A A A A A A ` ` ' ~ Z A Z / ` ( ( _ ^ }.7X3X1X3X3X3X3X3X3X3X3X3X3X3X3X3X3X3X3X3X3X3X3X3X3X7X3X3X1X;X@XXX.XXXOX#X3X3X3X3X1X1X3X=X}.=X}.Y.U.U.U.U.Y.R.!.`.`.:XW.J.!.`.`.).`.:XJ.l.!.W.!.T.m m A ~ ~ &.<X!.!.!.*X,.Z U.<XL.6.` ` / H H A A Y A A A A A A A A A A A A A A A A A A A A A A A A A A A A A A A A C C A A A A A A N A D ~ `.>X`.).`.`.`.!.).*X*X*X).*X).U.U.!.%X).R.!.R.J.U.).*X`.`.`.`.`.`.`.).).' m D.`.U.W.>X!.U.>.B Q ~ A ( A m W A M A A C A m !.*X!.*X:XE.` / A | 9.5.x.#.H ~ A A E A B H } q.8.` ` / ~ C M Y Y C A A A A A A A A A A A A A A A A A A A A A A A A A A A A A A A A A A A A A A A A A A A A A C C A A A B A ~ ~ D D m ~ ,.>.,.>.=.;.&.&.&.' / D A ` ` @.,.&.=.=.,.,.| A m N ~ =.>.>.=.=.>.=.&.` ' ~ A Y Y C C N &.=.&.=.,.=.D / ` ( ( ~ A ~ ' ( ( ~ Y A A A A A A A A A A A A A A A A A A A A A A A A A A A A A A A A A A A A C C A A A A A A ~ / ~ A ,.>.=.=.=.=.>.>.>.>.>.>.#.>.<.,.=.,.z.R.U.Y.c.,.>.8.m.9.8.8.5.<.7.0.r.r.q.r.q.q.0.q.H.J.).`.`.`.`.`.`.`.!.!.!.W.W.W.E.E.W.!.).).!.Y.U.W.W.%X*X).).`.`.`.`.!.`.!.g.=.&.&.&.&.&.&.&.@.| | | | | ' ' ' ' ' ( ` ( ( ~ ~ ~ ~ ~ ~ Y Y Y A C C C M M M M m s y y 0 5 5 # # X X X X X X X X X X                               ",
"                                  X X @ X X X X X X # 5 w u k k M M U U T ^ _ ] ] &.&.&.*.,.,.,.~ ` ( ' ( ' ' ' ' ' ' @.@.@.@.&.&.&.&.&.&.=.=.=.=.=.=.=.=.=.=.=.>.>.=.=.=.=.>.>.>.=.>.=.>.>.=.x.).!.).*X%XW.U.U.*X).W.E.E.E.J.c.c.R.+XoXoX+X@X+X;X@X@X<X*.E ~ C A A A A A A A A A A A A A A A A A A A A A A A A A A A A A A A A A ` ` ' / Z D Z / ` ( ( ' ^ }.7X3X3X3X3X3X3X3X3X3X3X3X3X3X3X3X3X3X3X3X3X3X3X3X3X3X3X3X1X;XOX.X.X|.OX@X1X3X3X3X1X=X3X;XoX=X!.U.c.U.U.U.Y.!.*X`.).*X!.W.!.).).).'.(.S.l.(.).*X'.` / ~ D m ~ W.W.*X!.>Xd.C g.J.m.x.@.| ` ~ D A A A A A A A A A A A A A A A A A A A A A A A A A A A A A A A A A A A A A A A A A A A m D D ~ c.R.).:X`.).`.*X`.!.W.!.).*X%XR.W.!.).!.W.!.R.J.U.!.*X).`.`.`.`.`.`.).).` 8 z.`.).`.:XW.R.l.m C ( s m ~ B E E B E A m ~ ' U.`.*X!.).!.Z Z Z @.J.8.m.J n A C C Y A B N D x.8./ ` / ( ~ Y Y Y C A A A A A A A A A A A A A A A A A A A A A A A A A A A A A A A A A A A A A A A A A A A A A A A A A A B C A N D H m ~ &.@.=.=.,.=.=.,.=.&.` / A H H ' ,.=.,.=.,.&.' D A ~ ` =.>.>.>.>.>.=.&.~ ' ( A C C C ~ Z =.,.=.&.&.@.Z ~ ( ( ~ D A ~ ' ' ~ E A A A A A A A A A A A A A A A A A A A A A A A A A A A A A A A A A A A A A A A A A C C B B ( ` ~ A ,.=.=.=.=.=.=.>.>.>.>.>.>.>.>.>.1.g.l.z.U.c.6.,.<.8.m.m.m.8.5.<.5.0.r.0.q.r.q.q.0.q.q.x.).`.`.`.`.`.`.`.`.!.W.W.W.E.E.E.W.W.!.).!.Y.F.S.U.W.%X%X).`.`.`.!.).*X!.g.&.&.&.&.&.&.&.&.@.| | | | | ' ' ' ' ` ' ` ( ( ~ ~ ~ ~ ~ ~ Y Y Y A C C C M M M M m s y y 0 5 5 # # X X X X X X X X X X                               ",
"                                  X X @ X X X X X X # 5 w u k k M M U U Y ^ _ ] ] ..&.;.>.i.a.,.~ ` ( ( ( ' ' ' ' ' ' O.@.@.@.&.&.&.&.&.&.=.=.=.=.=.=.=.=.=.=.=.>.>.=.=.=.=.>.>.>.=.>.=.>.>.=.l.`.!.).*X).W.U.W.`.*X`.U.l.x.c.J.c.R.oX+XoXoX@X@X@X@X@X<X-.~ ~ C A A A A A A A A A A A A A A A A A A A A A A A A A A A A A A A A A ` ` ' ~ Z A Z / ( ( ( ' ^ }.7X3X3X3X3X3X3X3X3X3X3X3X3X3X3X3X3X3X3X3X3X3X3X3X3X7X3X3X1X;XXX.X.X|.OX@X1X3X3X3X1X3X3X=X}.&X}.U.b.U.U.U.Y.!.*X`.).).`.).!.!.!.`.`._.S.x.!.).!.`.E.`.!.l.A m ~ k.<X>X>X,.m / / 6.!.j.1.@./ D A C C A A A A A A A A A A A A A A A A A A A A A A A A A A A A A A A A C C A A A A A A B A A C ' l.!.:X*XW.!.<X*Xl.g.U.`.`.%X%XW.W.R.W.!.`.!.U.J.W.!.!.`.`.`.`.`.`.).).H m G O.W.W.S.c.R.g.M A Y M ~ B A M B A E B A z.!.!.`.:X*X*X:XG Z b H m.x.m.K S A Y B M C B B H x.x.} | ` ` ~ Y Y Y C A A A A A A A A A A A A A A A A A A A A A A A A A A A A A A A A A A A A A A A A A A A A A A A A A A C C A Z | &.A A H ~ =.,.=.=.=.=.=.=.&.` A A D ' ,.=.=.=.=./ D A H &.&.>.>.>.>.>.>.=.@.~ ' ( ~ A C ~ &.&.=.=.1.&.D A A A A A A A A ~ ' ( ~ E A C C A A A A A A A A A A A A A A A A A A A A A A A A A A A A A A A A A A A A A A B A A A ` ` ~ A ,.=.=.=.=.=.>.>.>.>.>.>.<.>.#.>.j.J.l.,.,.=.1.x.H.m.8.8.M.m.8.<.7.q.r.0.q.q.q.q.q.q.A.x.`.`.`.`.`.`.`.`.'.!.W.E.W.W.W.E.!.E.W.`.).W.S.c.U.R.%X*X`.`.`.).`.`.*X!.g.=.=.=.&.&.&.&.&.@.| | | | | ' ' ' ' ` ' ` ( ( ~ ~ ~ ~ ~ ~ Y Y Y A C C C M M M M m s y y 0 5 5 # # X X   X X X X X X X                               ",
"                                  X X @ X X X X X X # 5 0 u k k M M U Y Q ^ _ ] ] &.;.*.>.,.>.&.~ ) ( ( ( ' ' ' ' ' ' ' @.@.@.&.&.&.&.&.&.=.=.=.=.=.=.=.=.=.=.=.>.>.=.=.=.>.>.>.>.=.>.=.>.=.=.l.*X).!.).!.U.U.!.).).W.S.x.l.J.K.U.Y.!.+X+XoX+X;X@X+X+X<X-.~ ~ B A A A A A A A A A A A A A A A A A A A A A A A A A A A A A A A A A ` ` ' / Z A Z ~ ( ( ( ' ^ }.7X3X3X3X3X3X3X3X3X3X3X3X3X3X3X3X3X3X3X3X3X3X3X3X3X7X3X3X3X;XoX[.XXXXXX@X1X3X3X3X3X3X3XOX}.=XoXY.b.U.U.U.Y.!.*X`.).).:X`.E.J.!.).(.).L.S.L.).`.`.tX*X`.J.' D 9 &.Y.U.U.&.m Z b 6.-XJ.g.&./ A A A A A A A A A A A A A A A A A A A A A A A A A A A A A A A A A A A A C A A A A A A A D B A A H ,.).*X`.!.!.).U.g.l.W.*X).).*X).U.U.!.`.!.W.U.J.U.W.!.`.`.`.`.`.`.).).H ~ Z H c.c.U.R.R.3.C A Y A ( j E m A B B C ~ U.!.oX*X`.`.J.U.A / } @.q.8.M.J D C ~ C M Y Y C ~ ,.6.` | ` ~ A C C C C C A A A A A A A A A A A A A A A A A A A A A A A A A A A A A A A A A A A A A A A A A A A A A A A A A A A C A =.,.D Z Z Z =.=.=.=.=.=.>.,.1.` A Z A ' ,.=.=.=.=.A N Z H =.=.>.>.>.=.>.,.=.| / ` ~ D A C ~ >.g.;.( ;.| m m A C C C C C Y ~ ( ( ~ E A B B A A A A A A A A A A A A A A A A A A A A A A A A A A A A A A A A A A A A A A A A E E ~ ~ D A ,.=.=.>.>.>.>.>.>.>.>.>.>.5.6.6.l.c.j.=.@.&.6.m.I.M.8.9.x.j.1.<.9.q.r.0.q.q.q.q.r.u.u.x.`.`.`.`.`.`.`.`.'.`.W.E.W.!.W.E.!.W.!.`.).W.U.Y.W.!.*X%X).`.`.).*X).!.J.,.=.=.&.&.&.&.&.&.@.| | | | | ' ' ' ' ` ' ` ( ( ~ ~ ~ ~ ~ ~ Y Y Y A C C C M M M M x s y y 0 5 5 # # X X   X X X X X X X                               ",
"                                  X X @ X X X X X X # 5 0 u k k M M U Y ~ ^ ^ _ ] &.*.*.*.*.' ~ ~ ) ( ( ( ' ' ' ' ' ' ' @.@.@.&.&.&.&.&.&.=.=.=.=.=.=.=.=.=.=.=.>.>.=.=.>.>.>.>.>.=.>.=.>.=.=.l.:X).!.!.U.S.U.!.).W.c.l.S.E.W.J.Y.Y.W.*X;X+X+X;X@X+X+X<X,.~ ~ B A A A A A A A A A A A A A A A A A A A A A A A A A A A A A A A A A ( ` ' / Z A C ~ ( ( ' ' ^ }.8X3X3X3X3X3X3X3X3X3X3X3X3X3X3X3X3X3X3X3X3X3X3X3X3X3X1X3X3X;X.X[.XXXXXX@X1X3X3X3X3X1X1X=XOX<X-XY.c.U.U.c.Y.!.*X`.).).:X`.J.S.).).E.A.(.:X!.).:XU.).`.!.`.U.T.N E A ~ ( A A / m j.wXK.g.&.~ A A A E A A A A A A A A A A A A A A A A A A A A A A A A A A A A A A A A C C A A A A A A A N A / ~ g.:X`.!.,X*Xl.,.c.).).:X!.!.>X%XF.F.).!.R.U.U.J.J.W.`.`.`.`.`.`.`.).`.Z V Z H ) ) U.c.*Xz.s m ~ M C A C M ~ B M Y m E ~ U.,X!.c.~ ~ m | E.K.m.<.H.J Z m ~ Y B E Y M A D ' A ( ( ~ A C C C C C A A A A A A A A A A A A A A A A A A A A A A A A A A A A A A A A A A A A A A A A A A A A A A A A A A A C Z @.&.D D H A &.,.,.,.,.=.=.=.=.| A Z Z ' 1.=.=.>.,.D Z Z D =.&.>.>.>.>.>.,.=.| / ~ A A A m ~ >.&.` m A H Z D A ( ~ ~ C C A A C ~ ~ E A B B A A A A A A A A A A A A A A A A A A A A A A A A A A A A A A A A A A A A A A A E ~ ~ A D A Z =.=.=.,.>.>.>.>.>.>.>.>.>.H./.K.8.,.>.=.1.,.>.>.<.8.q.m.5.1.>.=.5.x.m.r.q.q.0.q.q.q.q.9._.`.`.`.`.`.`.`.'.!.W.E.W.!.W.E.W.W.!.`.).Y.W.%X!.*X*X%X!.).`.`.,X!.J.g.=.=.=.&.&.&.&.&.@.@.| | | | | ' ' ' ' ` ( ` ( ( ~ ~ ~ ~ ~ ~ Y Y Y A C C C M M M M x s y y 0 5 5 # # X X   X X X X X X X                               ",
"                                  X X @ @ X X X X X # 5 0 u d k M P Y ! ! _ _ ] ] &.&.;.,.*.( ~ ) ( ( ( ' ' ' ' ' ' O.@.@.@.@.&.@.&.&.&.&.&.=.=.=.=.=.=.=.=.=.=.=.=.=.=.>.>.>.>.>.=.>.=.>.=.&.j.).).!.Y.U.J.J.U.U.S.g.c.!.W.J.Y.B.Y.W.R.!.;X;X+X+XeXR.i.&.' Y A A A A A A A A A A A A A A A A A A A A A A A A A A A A A A A A A A ( ~ ~ A Z H A ~ ] ' ' _ ^ &X3X5X3X3X3X3X3X3X3X1X3X3X3X3X3X3X3X3X3X3X3X3X3X3X3X7X3X7X4X1XXX.XXX[.oX@X$X1X1X3X4X3X3XOXOX7X;XY.c.c.U.U.Y.).*X).`.).).:XE.S.).'.S.A.).'.).).).!.`.).!.`.*XU.=.~ A A Q A A A A | c.&. .( E A B B A A A A A A A A A A A A A A A A A A A A A A A A A A A A A A A A A C C A A A A A A B B A ~ / 6.:X`.`.!.c.l.S.U.*X`.*X).*X*X!.F.U.).*X!.Y.U.U.U.!.`.!.).*X*X).).).*X@.3.H m A A W.M.*Xc.&.&.m C ~ m A A A A A A A A A R.^.`.M.A N Z 1.T.!.q.m.8./ A A C Y Y Y C A A N H ` ' ' ~ C A A C A A A A A A A A A A A A A A A A A A A A A A A A A A A A A A A A A A A A A A A A A A A A A A A A A A A A A A D | =./ N Z H ` &.=.&.&.,.,.;.=./ A A A | ,.&.,.' / H H / ' &.1.@.1.,.=.,.=.` ' ` A Z D D A H ' ' ` ` ( ~ m B A ~ ~ A A C C A Y E Y A A A C B B A A A A A A A A A A A A A A A A A A A A A A A A A A A A A A A A B A A A A E ~ ( A Z ' @.&.,.=.&.=.=.=.=.>.>.>.>.=.Q.-Xm.=.>.<.=.>.>.>.$.$.<.9.m.6.>.=.>.9.q.r.0.0.q.q.r.r.q.q.9.H.U.!.`.*X`.`.`.`.!.W.E.E.W.W.E.U.W.W.U.Y.U.U.%X).).%X%X`.!.`.`.).*XS.;.=.=.&.&.&.&.&.&.@.@.| | | | | ' ' ' ' ` ` ` ` ~ ~ ~ ~ ~ ~ ~ ~ ~ Y A C C M M M M m x s i 0 5 5 : # # X X X X X X X X                                   ",
"                                  X X @ @ X X X X X # 5 0 u d k v U Y ! ~ _ _ ] ] &.&.;.,.*.( ~ ) ( ( ( ' ' ' ' ' ' O.@.@.@.@.&.@.&.&.&.&.&.=.=.=.=.=.=.=.=.=.=.=.=.=.=.>.>.>.>.>.=.>.=.>.=.=.j.U.W.!.R.U.J.S.c.c.c.l.J.W.W.U.W.U.Y.Y.Y.W.*X;X+X+X;Xb.' ~ ~ A A A A A A A A A A A A A A A A A A A A A A A A A A A A A A A A A A A ( ~ ~ A N A N Y ' ' ( ~ Q }.3X3X3X3X3X3X1X1X3X3X3X3X3X3X3X3X3X3X3X3X3X3X3X3X3X7X3X7X4X;XXX.XXX[.XX@X$X1X1X3X4X3X3XOXOX3X=XY.b.c.U.U.U.).*X`.*X`.`.:X!.S.).'.D.A.).:X).).).).`.:X:X).!.*X>Xa.j M A A m m Z A A A A A A B A A Y A A A A A A A A A A A A A A A A A A A A A A A A A A A A A A A A C C A A A A A A B B A D / 6.:X).`.J.3.c.).!.*X`.!.!.W.*X).F.U.!.*X!.R.U.S.J.!.*XtX:X<X*X).:X`.!.tX,X=.Z Z A Y.!.!.>X>X!.E m A B A A A A A A A A A R.*X-XM.A N A ` `.Q.5.J.m.} D A C Y Y Y C A C Z H / ( ' ~ C A A A A A A A A A A A A A A A A A A A A A A A A A A A A A A A A A A A A A A A A A A A A A A A A A A A A A A A A A Z &.=.A b A H Z ` &.=.&.=.=.;.>.` A H ` &.,.&.=.~ A A / &.=.=.=.,.1.=.&.&.~ N D ' H A Z N m N A / ' =.,.' ~ ~ ' ~ ~ A A C C A Y Y A A A A C C B A A A A A A A A A A A A A A A A A A A A A A A A A A A A A A A A A A A A C Y ~ ' D A @.;.&.,.=.=.>.>.=.=.>.>.>.>.,.T.`.m.>.>.>.=.>.>.>.>.$.<.8.q.6.>.=.>.9.q.x.q.q.q.r.q.0.0.q.q.,.l.E.`.`.!.).`.`.!.W.E.W.W.W.W.U.W.W.U.U.F.U.*X%X%X%X*X`.`.`.`.).*XS.;.=.=.&.&.&.&.&.&.@.@.| | | | | ' ' ' ' ` ` ` ( ~ ~ ~ ~ ~ ~ ~ ~ ~ A A C C M M M M m x s i 0 5 5 : # # X X X   X X X X                                   ",
"                                  X X @ X X X X X X # 5 0 u d k v M Y ! ~ _ _ ' ] &.&.;.,.;.( ~ ) ( ( ( ' ' ' ' ' ' O.@.@.@.@.&.@.&.&.&.&.&.=.=.=.=.=.=.=.=.=.=.>.>.=.=.>.>.>.>.>.=.>.=.>.>.=.j.U.U.W.W.U.S.c.c.g.J.L.L.W.E.U.U.U.U.U.B.Y.oX;X=X=X;Xk.W E ~ E E A A A A A A A A A A A A A A A A A A A A A A A A A A A A A A A A C ~ ~ ~ A C A C ~ ' ( ' :.:.=X3X8X3X3X1X1X1X1X1X3X3X3X3X3X3X3X3X3X3X3X3X3X3X3X3X7X3X7X3X;XXX.X.X.XoX@X@X1X1X3X4X3X3XOX|.;X@XR.V.U.U.U.Y.%X*X).`.`.:X*XW.S.E.).D.A.(.'.).).).).`.W.*X`.Y.!.>Xc.~ ~ ~ A A D ~ E m N B B A A A A B A A A A A A A A A A A A A A A A A A A A A A A A A A A A A A A A C C A A A A A A B A A D ~ ,.`.!.*Xl.&.J.,X`.*X`.!.,X%X:X).F.!.!.!.`.!.U.S.J.W.`.).z.!.).).:X).).U.c.' Z A A ,.z.!.^.U.k.A B E C A A A A A A A A B !.-XT.,.D A N ' dXQ.<.m.<.J Z C C Y Y Y C A A C A A ~ ' ~ C C A A A A A A A A A A A A A A A A A A A A A A A A A A A A A A A A A A A A A A A A A A A A A A A A A A A A A A A A A ' &.~ A D D m ~ ,.g.=.=.>.>.,.| Z / @.&.,.=.=.A m m / =.1.=.@.&.&.=.,.=.~ N H / D Z N Z A ~ ` ~ ] ,.g.' C M ~ Y A Y A C C Y Y A A A A A A A A A A A A A A A A A A A A A A A A A A A A A A A A A A A A A A A A Y A A B B Y ~ ' A D ;.,.=.,.=.,.>.>.>.>.>.>.>.>.>.x.K.j.=.=.=.=.>.>.>.>.>.>.<.5.1.>.=.>.9.q.x.q.q.q.r.q.0.0.y.H.@.6.W.*X`.).`.*X`.).!.W.W.W.W.W.E.!.W.U.U.F.U.*X%X%X*X%X`.`.`.`.).*XJ.;.=.>.&.&.&.&.&.&.@.| | | | | | ' ' ' ' ( ` ` ( ~ ~ ~ ~ ~ ~ ~ ~ ~ A A C C M M M M m x s i 0 5 5 : # # X X X X X X X X X                                 ",
"                                  X X @ X X X X X X # 5 0 u d k v M U ! ^ _ ^ _ ] &.&.;.,.;.( ~ ) ( ( ( ' ' ' ' ' ' O.@.@.@.@.&.@.&.&.&.&.&.=.=.=.=.=.=.=.=.=.=.>.>.=.=.=.>.=.=.>.=.>.=.>.>.=.j.%X!.U.U.J.S.J.J.l.!.`.!.!.E.J.U.U.U.U.b.Y.oX=X;X=X;Xk.( ( ' E A A A A A A A A A A A A A A A A A A A A A A A A A A A A A A A A A C ~ ~ ~ ~ C ~ A ( ( ~ +.W.&XyX1X3X3X3X1X1X1X=X=X3X3X3X3X3X3X3X3X3X3X3X3X3X3X3X3X7X3X3X1X@XXX.XoXoX@X@X;X1X1X3X3X3X1XOX|.3X;XoX}.U.Y.U.Y.%X*X!.`.`.`.).W.J.E.E.S.A.(.'.).).).).`.).`.:X*X).!.W.!.>.A m A A C A A A A D D D B B M A A A A A A A A A A A A A A A A A A A A A A A A A A A A A A A A C C A A A A A A A A A D ~ ,.).W.`.c.=.J.*X`.*X`.*X,X!.*X).c.!.).!.*X!.U.J.U.W.U.3.~ c.`.`.:X).:XA A Z V ~ A A ( ^.g.B C j Y ~ A A A A A A A A A B W.R.&.A A ~ j =.,XK.8.<.S S N C C Y Y Y A A A A A C ~ ( ~ C C A A A A A A A A A A A A A A A A A A A A A A A A A A A A A A A A A A A A A A A A A A A A A A A A A A A A A A A A A A ~ &.&.H C A ~ ,.i.;.*.,.>.;.' N ' ,.&.=.=.=.H Z Z / &.,.&.@.A ` =.1.,.' / ` A A Z A ~ | ;.=.;.>.a.,.' A M Y A A C C C C Y Y A A A A A A A A A A A A A A A A A A A A A A A A A A A A A A A A A A A A A A A A Y A B B C E ~ ( A D =.,.=.=.=.=.>.>.>.>.>.>.>.>.=.,.6.,.=.=.=.,.>.>.,.>.>.>.>.,.,.=.=.>.9.q.x.q.q.q.q.q.q.q.q.q.>.l.!.*X*X`.`.*X`.`.!.!.W.W.W.W.E.!.W.U.U.F.U.*X%X%X%X!.).`.`.`.).*XJ.>.=.>.&.&.&.&.&.&.@.| | | | | | ' ' ' ' ( ` ` ( ~ ~ ~ ~ ~ ~ ~ ~ ~ A A C C M M M M m x s i 0 5 5 : # # X X X X X X X X X                                 ",
"                                  X X @ X X X X X X # 5 0 u d k v M U ! ~ _ ^ ^ ] &.&.*.,.;.( ~ ) ( ( ( ( ' ' ' ' ' O.@.@.@.@.&.@.&.&.&.&.&.=.=.=.=.=.=.=.=.=.=.>.>.>.>.=.=.=.=.>.=.>.=.>.=.&.j.<X).U.S.J.J.c.c.x._.,X`.!.E.J.U.W.U.U.b.Y.!.*X;X+X;Xk.( ( ' E M A A A A A A A A A A A A A A A A A A A A A A A A A A A A A A A A A ~ ~ ( ~ C E A ( ( ~ ] =X7XaX=X5X3X3X3X1X1XOX|.3X3X3X3X3X3X3X3X3X3X3X3X3X3X3X3X7X3X3X@XXXoX.XoXoX@X=X;X1X1X3X3X3X3XXX|.;X@XoX+XU.U.c.Y.*X*X).*X).`.).).!.E.S.c.A.).'.).).).).`.<X).!.*X:X).*X<XY.>.~ A B m M A A A B B B A A A A A A A A A A A A A A A A A A A A A A A A A A A A A A A A A A A C A A A A A A A A A A D ~ ,.).U.c.J.c.W.`.!.*X).*Xz.;.W.:Xc.F.).!.*X!.U.U.U.l.&.;.;.W.:X).*X).*X,.,.~ C D A m ~ *Xa.m Y C A A A A A A A A A A A A ,.-.D j B E N ' ,.g.^.1.n H D A A Y Y C A A A A Y C Y ( ~ C C C C A A A A A A A A A A A A A A A A A A A A A A A A A A A A A A A A A A A A A A A A A A A A A A A A A A A A A A C m C ( ' A m A ~ ' ( ~ &.>.&.~ / N &.6.&.&.@.' H H / | &.=.&.&.m ( >.;.' ' ` H A A A ~ ' &.=.>.>.&.( ( ~ A A ~ A A A A C Y Y Y A A A A A A A A A A A A A A A A A A A A A A A A A A A A A A A A A A A A A A A A A C B A E E E E C A =.,.&.=.&.=.=.=.=.>.>.>.>.=.&.&.=.=.=.=.=.,.>.>.,.>.>.>.>.>.,.=.>.>.5.q.q.q.r.q.9.q.H.H.0.5.6.l.U.!.`.`.).!.`.`.).!.!.!.!.!.E.!.E.J.U.F.U.*X%X%XW.R.!.`.`.).).*XS.;.=.=.&.&.&.&.@.@.@.| | | | | | ' ' ' ' ( ` ` ( ~ ~ ~ ~ ~ ~ ~ Y Y A A C C M M M M m x s i 0 5 5 : # # X X X X X X X X X                                 ",
"                                  X X X X X X X X X # 5 0 u d k M M U ! ~ _ ~ ~ ] &.&.*.,.;.( ~ ) ( ( ( ( ' ' ' ' ' O.@.@.@.@.&.@.&.&.&.&.&.=.=.=.=.=.=.=.=.=.=.>.>.>.>.=.=.=.=.>.=.>.=.>.=.&.j.:XR.S.J.U.J.l.x.c.!.'.`.!.U.J.W.W.Y.U.F.U.W.oXoX;X<Xk.^ W ( E B A A A A A A A A A A A A A A A A A A A A A A A A A A A A A A A A ~ ( ~ ' ~ C A C ( ' _ ]  X5X8X3X5X1X3X3X3X1X=X|.3X3X3X3X3X3X3X3X3X3X3X3X3X3X3X3X7X3X1XOXoXoX.XoXXX=X;X;X1X1X1X3X3X3XOX[.@XXX[.oXY.U.z.U.*X*X).*X).`.`.`.`.E.l.S.S.).'.).`.`.).).`.).).).).).).).*X*Xg.A B E A B A A B B B A A D A A A A A A A A A A A A A A A A A A A A A A A A A A A A A A A A A A A A A A A A A A C D ~ ,.!.J.&.J.!.*X*X).*X!.:X' G F.<XU.z.*X`.*X!.c.J.U.=.m >.).<X).E.:X,X).:X*X' Z A A C ( -Xg.B ~ E A M B A A A A A A A A A A D E D N B E C m =.,Xj.N ~ A A A Y Y C A A A A A C Y ( ~ C A C C A A A A A A A A A A A A A A A A A A A A A A A A A A A A A A A A A A A A A A A A A A A A A A A A A A A A A A C A C C C A A B C Y C C ' ;.' A A Z &.6.=.@.~ Z A H | >.,.=.&.&.Z ' ,.' A ~ ' D A Z D | =.=.&.=.&.~ m m C C C C C A C A C C A A A A A A A A A A A A A A A A A A A A A A A A A A A A A A A A A A A A A A A A A A A B B A ~ ~ E A C D =.,.=.,.=.>.=.=.>.>.>.>.>.=.=.=.=.=.=.=.=.=.>.>.>.>.>.>.>.=.>.>.>.,.9.9.q.q.q.0.9.q.r.q.7.$.x.l.J.W.`.'.`.!.`.`.`.!.!.W.W.W.E.!.E.U.U.F.U.*X%X%X!.U.W.).`.).).*XJ.>.=.=.&.&.&.&.&.@.@.| | | | | | ' ' ' ' ( ` ` ( ~ ~ ~ ~ ~ ~ ~ Q Y A A C C M M M M m x s i 0 5 5 : # # X X X X X X X X X                                 ",
"                                  X X X X X X X X X # 5 0 u d k M U U ! ~ _ ~ T ' &.&.;.,.;.( ~ ) ( ( ( ' ' ' ' ' ' ' @.@.@.@.&.@.&.&.&.&.&.=.=.=.=.=.=.=.=.=.=.=.=.>.>.>.=.>.>.>.=.>.=.>.=.&.j.W.U.F.U.U.c.c.c.P._.`.`.).U.J.W.W.Y.U.U.U.Y.R.R.+X<Xb.( W ' ~ A A A A A A A A A A A A A A A A A A A A A A A A A A A A A A A A A A ~ ~ ' ~ C C C ~ ' ] '  X5X7X7X5X1X1X1X1X1X=X=X3X3X3X3X3X3X3X3X3X3X3X3X3X3X3X3X7X7X1XXX[.oXXX.X@X;X;X;X1X1X3X3X3X3XOX[.XX[.[.}.!.Y.c.Y.*X).W.!.`.*X).`.:XE.l.D.S.).'.).`.`.).).).,XtX,X).'.:X*XR.>Xg.m B E B B E E E A A A A A A A A A A A A A A A A A A A A A A A A A A A A A A A A A A A A A A A A A A A A B A A C D / ,.).J.O.c.).:X*X`.*X!.*X6.,.>.z.W.S.*X`.*X!.c.U.U.;.8 @.,X:X).).).,X).).<X~ C A C A ~ a.&.j B A E A B A A A A A A A A A j N E D B B D C m ' j.@.S D Z A A C A A A A A C Y C Q ( ~ C A C C A A A A A A A A A A A A A A A A A A A A A A A A A A A A A A A A A A A A A A A A A A A A A A A A A A A A A A Y ~ Y M M Y Y C C Y C C ( ' ~ A A Z ` ' @.&.H m Z A / &.,.=.' / A ( >.| Z A ` H A N D &.,.&.' ' ' ~ C A Y A A Y C Y C C C C C C A A A A A A A A A A A A A A A A A A A A A A A A A A A A A A A A A A A A A A A A A B B A ~ ~ Y B A A ;.,.=.,.=.,.=.=.>.=.>.>.>.=.>.,.,.=.=.=.=.=.>.=.=.>.>.>.=.=.=.=.>.>.5.9.q.q.q.q.q.q.9.5.4.>.c.c.J.W.`.*X*X`.`.`.`.!.!.E.E.E.U.W.W.U.U.F.U.*X*X*X!.U.U.`.*X`.).*XS.;.=.=.&.&.&.&.&.&.@.@.| | | | | ' ' ' ' ' ` ` ( ~ ~ ~ ~ ~ ~ ~ Q Y A A C C M M M M m x s i 0 5 5 : # # X X X X X X X X X                                 ",
"                                  X X X X X X X X X # 5 0 u d k U U U ! _ _ ~ Y ' &.&.;.,.;.( ~ ) ( ( ( ' ' ' ' ' ' O.@.@.@.@.&.@.&.&.&.&.&.=.=.=.=.=.=.=.=.=.=.=.=.=.=.>.>.=.>.>.=.>.=.>.=.&.l.W.U.J.E.J.c.S.E.`.'.`.`.`.U.S.W.W.U.U.U.U.Y.Y.R.R.;XM.( ~ ' E B A A A A A A A A A A A A A A A A A A A A A A A A A A A A A A A A M Y Y ' ( C A A ~ ~ ( ^ &XaX5X1X3X3X1X1X=X1X1X1X3X3X3X3X3X3X3X3X3X3X3X3X3X3X3X3X3X7X1XXX[..XXXoX@X=X;X1X1X1X3X3X3X3XOX|.OXoX[.oX=X!.B.Y.%XR.F.U.`.'.).).'.L.l.D.D.`.:X).`.`.).).).).).).).).).:X%X-X>.m Y E m ~ M M B A A D A A A A A A A A A A A A A A A A A A A A A A A A A A A A A A A A A A A A A A A A A B A A A D / ,.!.J.=.S.W.*X`.!.*X`.!.,X<XG m F.W.!.!.*X!.J.U.!.,.x O.:XE.*XdXE.`.*XW.wX~ C A B A B 7 E M A B A A A A A A A A A A A A B E N m D D m Y C A m m A A A A C C A A A A A C Y A Y ( ~ C A C C A A A A A A A A A A A A A A A A A A A A A A A A A A A A A A A A A A A A A A A A A A A A A A A A A A A A A A Y B C Y ~ C C Y C E Y C Y C M C A A C m ( =./ A A m N ~ &.| H m Z ~ >.=.A N A N H N A &.=./ m N m m C ~ A B B A A A A A C C C C A A A A A A A A A A A A A A A A A A A A A A A A A A A A A A A A A A A A A A A A A B B A ~ ~ Y B A A &.=.=.,.=.=.=.=.>.>.>.>.>.=.;.>.>.;.=.,.,.=.>.=.=.=.,.>.=.>.=.=.=.<.5.8.q.q.q.m.H.q.5.$.$.>.x.x.J.W.).`.`.`.).`.`.!.!.E.E.E.U.W.W.U.Y.U.U.%X*X*X!.U.U.`.*X`.).*XS.&.=.=.&.&.&.&.&.&.@.@.| | | | | ' ' ' ' ' ` ` ( ~ ~ ~ ~ ~ ~ ~ Q Y A C C C M M M M m x s i 0 5 5 : # # X X X X X X X X X                                 ",
"                                  X @ @ X X X X X @ # 5 0 u d d M M Y ! _ ^ ^ Q ] &.;.i.( ' ~ ~ ( ( ( ( ( ' ' ' ' | | @.@.@.&.&.&.&.&.;.&.=.=.=.>.>.=.=.>.>.>.>.=.=.=.=.=.=.>.>.=.=.=.=.=.>.,.6.E.J.E.J.A.A.A.W.`.).:X!.S.W.U.U.U.U.U.U.Y.Y.T.T.*X<XM.( ^ ' E B A A A A A A A A A A A A A A A A A A A A A A A A A A A A A A A A B A A ~ ~ B A B ~ ' ( ^ }.7X7X7X3X1X3X3XOXOX3X3X3X3X3X3X3X3X3X3X3X3X3X3X3X3X3X=XOX1X1XOXXXXXXXXX@X7X1X@X3X3X=X3X3X3X@X}.[.XXXX[.oXoX[.[.oX XU.E.:X(._.Q.L.S.A.L.W.!.*X).).*X`.W.`.`.`.`.`.`.).).,X!.l.g.~ A C E C B B A A M M A A A A A A A A A A A A A A A A A A A A A A A A A A A A A A A A A A A A A A A A A A B A D D =.c.j.l.c.W.-X*X`.`.).:XW.).' A Y.U.F.!.*XR.!.U.;.( C +.=Xz.&.W.`.c.J.!.*X..j Y A B A A A A A A A A A A C C A A A A A A A A A A B B C A A A A D D A B A A A A A A A A A A C A A A A A A A A A A A A A A A A A A A A A A A A A A A A A A A A A A A A A A A A A A A A A A A A A A A A A A A A A A A A A A A A A A A A A A A A A A A A A A A A E ~ ~ E A B B ( &.,.&.A D | ( ` ~ D A A A D A D / ( ` ' ....E B A E A C A A A A A A A A A A A A A A A A A A A A A A A A A A A A A A A A A A A A A A A A A A A A A A A A A B E B N ~ ` A B / | &.=.=.>.>.=.>.>.=.=.=.>.>.>.=.=.=.=.=.=.>.>.>.>.>.>.>.=.=.=.>.$.#.>.<.<.8.q.m.q.9.5.<.<.5.9.m.x.H.!.).).%X*X'.).).!.E.E.E.!.!.W.W.U.U.S.W.).*X*X!.S.W.*X).*XW.g.g.,.=.=.&.&.&.&.&.&.@.@.@.@.| | | ' ' ' ' ( ( ` ( ~ ~ ~ ~ ~ ~ ~ ~ Y A A C C C M M M m a s y 0 5 5 # # X X X X X X X @ X X                                 ",
"                                  X @ @ X X X X X @ # : 0 u d d M U Y ! _ _ ^ ~ ' ] &.>.~ ( ~ ~ ( ( ( ( ( ' ' ' ' | | @.@.@.&.&.&.&.&.;.&.=.=.=.>.>.>.=.>.>.>.>.=.=.>.=.=.=.>.>.=.>.=.=.=.=.,.1.L.A.L.S.A.A.l.E.*X!.`.!.F.U.F.U.U.U.U.U.U.U.U.T.^.-Xc.` ~ ' E M A A A A A A A A A A A A A A A A A A A A A A A A A A A A A A A A C E A ( ~ B A B ~ ' ( ( }.7X7X3X3X1X3X3XOXOX3X3X3X3X3X3X3X3X3X3X;X7X3X3X3X3X3X=XOX1X1XOXXXXXXXXXOX3X1X@X3X3X=X3X3X3XOX|.[.XXXX.X.X.X[.[.|. XG.W.:X_.'.L.A.A.A.L.U.!.*X!.).*X`.!.`.`.`.`.`.`.).).).:X*XR.' A m B A B B A A M B I A A A A A A A A A A A A A A A A A A A A A A A A A A A A A A A A A A A A A A A A A m A D A | 1.,.Y.c.c.W.!.!.`.:X!.!.*X~ B U.U.U.R.*XR.U.,.~ C s ^ U.] m c.*Xl.,.R.*X&.m E A B A A A A A A A A A A C C C A A A A B C A A B B C A A A A A A A B B A A A A A A A A A A A A A A A A A A A A A A A A A A A A A A A A A A A A A A A A A A A A A A A A A A A A A A A A A A A A A A A A A A A A A A A A A A A A A A A A A A A A A A A A A B B A E E A C Y Y ..-.&.' E ~ ;.' D A A A A A N A A N D ' &.=.' E B A A A C A A A A A A A A A A A A A A A A A A A A A A A A A A A A A A A A A A A A A A A A A A A A A A A A A C D N N ` ` A N | =.,.>.>.>.>.=.>.>.=.=.=.>.>.>.>.>.=.=.=.=.>.>.>.>.=.=.>.>.=.>.>.$.#.$.>.<.5.8.m.8.<.<.$.<.9.r.q.y.H.(.:X%X%X%X%X).`.(.(.Q.E.!.!.W.Y.U.U.S.W.).*X*X!.S.W.*X).*Xz.=.=.&.&.=.&.&.&.&.&.&.&.@.@.@.| | | | ' ' ' ( ` ` ( ~ ~ ~ ~ ~ ~ ~ ~ Y A A C C C M M M m a s y 0 5 5 # # X X X X X X X @ X X                                 ",
"                                  X X @ X X X X X @ # : 0 u d d M U Y ! _ _ ^ ~ ' ] +.*.~ ~ ~ ~ ( ( ( ( ( ' ' ' ' | | @.@.@.&.&.&.&.&.;.&.=.=.=.>.>.=.=.>.>.>.>.>.>.>.>.=.=.=.=.>.>.>.=.=.=.>.1.9.9.A.A.A.S.S.(.:X!.%X!.U.U.S.U.U.G.U.U.U.U.U.U.W.`.j.~ ( ' T M A A A A A A A A A A A A A A A A A A A A A A A A A A A A A A A A A ~ E ( ~ B D B ~ ( ( ( }.7X7X3X3X1X3X1X|.OX3X3X3X3X3X3X3X3X1X=X=X1X3X3X3X3X1XOX@X1X1X@XXXXXXXXXOX3X1X@X3X3X=X3X3X3XOX|.{.XXXX.X[..XoX|.|.Y.G.W.).'.'.I.9.A.A.D.F.R.*X!.!.%X`.!.).).`.`.`.`.).).).*X*X,XY.c.;.A A C B A A A A A A A A A A A A A A A A A A A A A A A A A A A A A A A A A A A A A A A A A A A A A A B A D ` ,.c.B.R.c.c.}.*X*X*X).:X`.`.' B ( ( h.Y.*X!.U.:.Q Q C ] Y.&.8 g.,Xl.' Y.!...M E A B C A A A A A A A A A A C C A A A A B B C C B A A A A A A A C B B B B C C A A A A C A A A A A A A A A A A A A A A A A A A A A A A A A A A A A A A A A A A A A A A A A A A A A A A A A A A A A A A A A A A A A A A A A A A A A A A A A A A A A A A A A B B B A A C B Y C &.*.~ E A ~ ,.' A m N A A A N ' &.' | ,.=.` ~ A B A A B B A A A A A A A A A A A A A A A A A A A A A A A A A A A A A A A A A A A A A A A A A A A A A A A A A A A N N ` ` A N &.,.1.,.>.>.=.=.>.=.=.=.>.>.>.>.>.>.>.>.=.=.=.>.=.=.=.=.>.>.>.>.>.>.>.>.>.$.<.x.m.9.<.$.$.5.q.m.q.q.I.!.*X*X%X%X).`.`._.(.Q.E.E.R.W.U.U.U.U.W.).%X%X!.S.Y.*XW.*Xg.&.=.=.&.,.=.=.&.&.&.&.&.@.@.@.| | | | ' ' ' ( ` ` ( ~ ~ ~ ~ ~ ~ ~ ~ Y A A C C C M M M m a s y 0 5 5 # # X X X X X X X @ X X                                 ",
"                            O X X X X X X X X X X @ # 5 w u d d M M U ! _ _ ^ ~ ] +.&.*.~ ~ ~ ~ ( ( ( ( ( ' ' ' ' | | | | | &.&.&.&.&.;.&.=.=.=.>.>.=.=.>.>.>.>.>.>.>.>.=.=.=.=.>.>.>.=.=.=.>.>.>.4.x.x.A.J.L.).:X).:XW.c.U.U.U.G.G.U.U.U.U.U.U.U.!.l.~ ( ' E B A A A A A A A A A A A A A A A A A A A A A A A A A A A A A A A A D ` ~ ( ~ B D B ~ ( ( ( }.7X7X3X3X=X1X=X|.OX3X3X3X3X3X3X3X3X1XOX|.;X3X3X3X3X1XOX@X1X1X@XXXXXXXXXOX3X1X@X3X3X=X3X3X3XOX|.{.XXXX.X[..X.XXXOX XG.W.).'.'.I.9.A.A.D.U.W.*X*X).).).).).).).`.`.`.`.).:X).W.).>X*X,.m Y C B A A A A A A A A A A A A A A A A A A A A A A A A A A A A A A A A A A A A A A A A A A A A A A C A D ' 1.T.oXY.U.Y.!.`.*X*X!.`.).W.@.Z C C l.R.*X*X!.g.A B B +.Y.,.m g.,Xl.&.c.B.' B Y A C B A A A A A A A A A A A C C A A E A A A A C C A A A A A A C A A A A A A A A C B B A A A A A A A A A A A A A A A A A A A A A A A A A A A A A A A A A A A A A A A A A A A A A A A A A A A A A A A A A A A A A A A A A A A A A A A A A A A A A A A A Y A A A A A A B A B &.&.B m C A -.' A N A D D D A &.1.,.,.,.| B A A C A A B B A A A A A A A A A A A A A A A A A A A A A A A A A A A A A A A A A A A A A A A A A A A A A A A A A A A A D ~ ~ A N &.=.>.>.=.=.>.>.=.=.=.=.>.>.>.>.>.>.>.>.=.=.>.>.=.=.=.=.>.>.>.>.=.>.>.>.=.>.5.m.m.9.<.$.$.5.9.r.q.q.H.!.).%X%X%X).`.`._.(.!.E.E.W.U.U.U.U.U.W.).).).).S.Y.*X!.*Xl.=.,.,.=.,.=.=.&.&.&.&.&.@.@.@.| | | ' ' ' ' ' ` ` ( ~ ~ ~ ~ ~ ~ ~ Q Y A A C C C M M M m a s y 0 5 5 : # X X X X X X X @ X X                                 ",
"                                X X X X X X X X X @ # 5 0 u d d M U U ! ^ _ ^ ~ ] &.&.:.Y ~ ~ ( ( ( ( ( ( ( ' ' ' | | @.@.| &.&.&.&.&.;.=.=.=.=.>.>.=.=.>.>.>.>.>.>.=.=.=.>.>.=.=.>.>.>.=.=.=.=.>.4.A.A.A.J.S.E.*X).*XS.g.F.U.U.G.G.U.U.M.J.U.U.U.!.g.` ( ' E C A A A A A A A A A A A A A A A A A A A A A A A A A A A A A A A A D ( ` ' ~ A D N ~ ( ( ( }.7X7X3X3X=X=X=X|.OX3X3X3X1X1X3X3X3X=XOX}.=X3X7X3X3X1XOXOX#X$XOXXXXXXXXXOX3X3X=X3X3X=X3X3X3XOX|.[.XXXX.X.X.X[.|.=X}.Y.U.E.(.'.I.A.L.D.D.U.W.*X*X).).).).).).).`.`.`.`.).).).*X).!.!.U.;.E A B A A A A A A A A A A A A A A A A A A A A A A A A A A A A A A A A A A A A A A A A A A A A A A A N N ~ ' -.g.W.Y.U.l.6.U.*X`.!.,X*X' m ~ A ] &.;.,.U.g.A M C C ;.( m g.*Xg.,.a.g.~ B A C A A A A A A A A A A C A A A C A A E ~ ~ E Y A A A A C A A A A A E ~ ~ ~ E E A A B B A A A A A A A A A A A A A A A A A A A A A A A A A A A A A A A A A A A A A A A A A A A A A A A A A A A A A A A A A A A A A A A A A A A A A A A A A A A A A A A A Y A A A A A A C Y C *.&.B m A E ( E A A A A A A A E ~ ~ ~ / ~ D B B A A A B B A A A A A A A A A A A A A A A A A A A A A A A A A A A A A A A A A A A A A A A A A A A A A A A A A C A ~ ~ D A A A @.=.>.=.=.=.>.>.=.>.>.>.=.=.=.=.=.=.=.>.>.>.>.>.=.=.>.>.>.=.>.>.>.>.>.>.=.>.5.m.8.<.<.>.<.5.0.q.q.q.x.J.W.W.%X%X%X`.`.(.!.!.!.!.W.U.F.U.U.U.W.W.!.).).F.Y.*X!.*Xl.&.,.=.=.,.&.&.&.&.&.@.&.@.| | | | | ' ' ' ' ( ` ( ( ~ ~ ~ ~ ~ ~ ~ Q Y A C C C M M M M m a s y 0 5 5 # # X X X X X X X @ X X                                 ",
"                                X X X X X X X X X @ # 5 0 u d d M U U ! ^ _ ^ ^ ] &.&.*.Y ~ ~ ~ ( ( ( ( ( ( ' ' ' | | @.@.| @.&.&.&.&.;.=.=.=.=.>.>.=.=.>.>.>.>.>.>.=.=.>.>.>.>.=.=.>.>.=.=.=.=.>.4.S.A.A.L.J.W.).W.W.z.d.F.U.F.G.U.U.U.B.J.U.T.U.!.g.` ' ' E Y A A A A A A A A A A A A A A A A A A A A A A A A A A A A A A A A A ' ( ' ~ B D N ~ ( ( ( }.7X7X3X3XOXOXOX}.OX3X1X3X=X=X=X3X3X1XOX|.=X3X7X3X3X1XOXXX@X@XXX[.XXXXXXOX3X3X=X3X3X=X3X3X3XOX|.[.XXXX.XOX.X[.|.1X&XY.F.U.L.(.J.A.L.D.E.U.R.!.*X*X%X).!.).).).).`.`.`.).).).:X`.*X*X<X*X~ A B A A A A A A A A A A A A A A A A A A A A A A A A A A A A A A A A A A A A A A A A A A A A A B A B A ~ ~ ~ ' !.Y.c.,.=.c.`.*X:X).S.` C Z m C m m A ,.,.~ Y ~ C A C b j.-X6.=.-.,.~ B A B Y A A A A A A A A A C A A A B C E ~ ( ( ~ E A A A A C A A A A D ~ ( ( ( ~ ~ D A A A A A A A A A A A A A A A A A A A A A A A A A A A A A A A A A A A A A A A A A A A A A A A A A A A A A A A A A A A A A A A A A A A A A A A A A A A A A A A A A A A A A A A A A C A Y A ..' C C A Y A A A D A N N A A N m N B N B E B B A A A B C A A A A A A A A A A A A A A A A A A A A A A A A A A A A A A A A A A A A A A A A A A A A A A A A A B C ` ' D B A A &.=.,.=.=.=.>.>.=.>.>.>.=.=.=.=.=.=.=.=.>.>.>.=.>.=.>.>.=.=.=.=.=.=.=.>.=.>.1.j.>.>.$.<.7.q.r.r.u.q.x.S.F.Y.W.%X%X`._.(.!.!.!.!.W.U.F.U.U.U.Y.R.!.).).F.Y.%XW.*Xg.&.=.=.=.,.=.&.&.&.&.&.&.@.| | | | | ' ' ' ' ( ` ` ( ~ ~ ~ ~ ~ ~ ~ Y Y A C C C M M M M m x s y 0 5 5 : # X X X X X X X @ X X                                 ",
"                                X X X X X X X X X @ # 5 w u d d M U U Y ~ ^ ^ ^ ' &.;.:.Y ~ ~ ~ ( ( ( ( ( ( ' ' ' | | @.@.@.&.&.&.&.&.;.=.=.=.=.=.=.=.=.>.>.>.>.=.=.=.=.>.>.>.>.=.=.=.=.=.=.=.=.;.4.A.A.c.E.U.!.).z.g.l.z.U.F.F.U.U.W.U.U.J.U.W.T.!.g.` ( ' Y C A A A A A A A A A A A A A A A A A A A A A A A A A A A A A A A A A ( ( ( ~ B D N ~ ( ( ( }.7X3X3X3XOXOXOX|.OX3X1X3X=XOX=X3X3X1XOX&X;X7X7X3X3X1XOX[.OX@XXX[.[.XXXXOX3X3X=X3X3X=X3X3X3XOX|.[.XXXX.X.X.X[.OX1X&XY.G.E.S.L.A.A.L.S.E.U.U.Y.!.*X*X).!.).).).).).`.`.`.<X).`.W.`.R.`.U.~ A B A A A A A A A A A A A A A A A A A A A A A A A A A A A A A A A A A A A A A A A A A A A A A B A A D ' ` ~ | !.z.g.l.c.W.).).).&.H ~ Q C B ~ E ~ E ' ' C M M Y A C m j.<X6.=.-.-.~ A C B E A A A A A A A A A C A A A B A E ~ ' ( ~ E A B A A C A A A A A ~ ( ( ( ~ E A A A A A A A A A A A A A A A A A A A A A A A A A A A A A A A A A A A A A A A A A A A A A A A A A A A A A A A A A A A A A A A A A A A A A A A A A A A A A A A A A A A A B A A A A C B B C B ~ Y C A B A B B A A A B B A A C A E E B B B C C C C A A A C A A A A A A A A A A A A A A A A A A A A A A A A A A A A A A A A A A A A A A A A A A A A A A A A A B ` ' D B A A &.>.,.>.=.>.>.>.=.=.>.>.>.>.=.=.=.=.=.>.>.>.=.=.>.>.>.>.=.=.=.=.=.=.=.=.=.=.>.1.=.#.$.<.9.q.r.r.q.q.x.S.F.E.Y.W.%X`.`.`.).!.!.W.W.U.F.U.U.U.U.W.R.!.).U.Y.*XW.*Xl.&.,.=.=.,.=.=.&.&.&.&.&.@.@.| | | | ' ' ' ' ( ` ` ( ~ ~ ~ ~ ~ ~ ~ Q Y A C C C M M M M x a s y 0 5 5 # # X X X X X X X @ X X                                 ",
"                                X X X X O O X X X @ # 5 0 u d d U U U Y ~ ^ ^ ^ ' &.*.,.Q ~ ~ ~ ( ( ( ( ( ( ' ' ' | | @.@.@.&.&.&.&.&.;.=.=.=.=.=.=.=.=.>.>.>.>.=.=.=.=.>.>.>.>.=.=.=.=.=.=.=.>.>.3.S.A.c.J.S.E.`.>.;.z.Y.W.b.U.U.U.W.Y.U.J.U.W.T.!.g.` ( ( Y C A A A A A A A A A A A A A A A A A A A A A A A A A A A A A A A A C ( ( ( E B D N ~ ( ( ( }.7X3X3X3XOXOXOX}.OX3X1X3X=XOXOX3X3X1XOX=X1X7X3X3X3X1XOX[.XXOX{.[.[.XXXXOX3X3X=X3X3X=X3X3X3XOX|.[.XXXX.X[.XXXXOX1X|.G.U.W.A.A.x.A.S.S.E.S.c.U.R.*X*X).!.).).).).).`.`.`.`.E.`.).:X!.*X!.~ A B B A A A A A A A A A A A A A A A A A A A A A A A A A A A A A A A A A A A A A A A A A A A A B A N N / / / =.*X,.&.z.W.!.).).:X@.Z Z B A A m B A B C C C ~ Y C A Y m 6.-X6.=.,.-.~ A A B E A A A A A A A A A C A A A B A E ~ ( ( ~ E A B C A C A A C B A ~ ( ~ ~ E A B B C A A A A A A A A A A A A A A A A A A A A A A A A A A A A A A A A A A A A A A A A A A A A A A A A A A A A A A A A A A A A A A A A A A A A A A A A A A A A A A A A A B A A Y Y A A A A A A m A E B A E A A A A A A E B B C A A A A A A A A C A A A B A A A A A A A A A A A A A A A A A A A A A A A A A A A A A A A A A A A A A A A A A A A A A A A A D B ~ ' D A D N @.=.>.>.=.>.>.>.=.=.>.>.>.=.=.=.=.=.=.>.>.>.=.=.>.>.>.>.=.=.=.=.=.=.=.=.=.=.=.>.>.>.$.<.9.q.q.0.q.9.x.S.F.E.Y.W.).`.:X'.`.).!.W.W.U.F.F.U.F.U.W.W.!.).U.W.*XW.*Xl.=.,.=.&.=.&.&.&.&.&.&.&.@.@.@.| | | ' ' ' ' ( ` ` ( ~ ~ ~ ~ ~ ~ ~ ~ Y A C C C M M M M m a s y 0 5 5 # # X X X X X X X @ X X                                 ",
"                              X X X X X X X X X X @ # 5 0 u d k M M U ! _ ^ ^ ~ ] &.;.,.~ ~ ~ ~ ( ( ( ( ( ( ' ' ' | | @.@.@.&.&.&.&.&.;.&.=.=.=.>.>.>.>.>.>.>.>.>.>.>.>.=.=.=.=.>.>.=.=.=.>.>.>.;.6.l.A.E.S.c.!.*X:.+.c.Y.U.U.b.F.W.W.U.U.U.U.W.T.!.g.` ( ( Y Y A A A A A A A A A A A A A A A A A A A A A A A A A A A A A A A A A ( ( ' ~ N A B ~ ' ( ' }.7X3X3X3X1X@XOX@X1X3X3X4X@XXX@X1XOXOX1X=X7X3X3X3X|.}.3X1XOX[.XXXXXXXXXXXX1X3X3X1X1X1X;X1X=XOXXX[.XXXXXX[..X1X3X1X3X5X%XS.J.H.9.x.J.E.J.U.U.Y.!.*X*X`.`.).S.E.*X).).:X).).`.:X`.!.!.!.*XT.*X~ B A B B E A A A A A A A A A A A A A A A A A A A A A A A A A A A A A A A A A A A A A A A A A B A D ~ ~ ' &.`.c.>.g.U.J.J.*X!.`.!.).W.A N A E A A A A A C A Y Y C N c.<Xj.&.a.&.~ C B B A A A A A A A A A A A A A A A A E ~ ( E A A A C C B ~ ~ E A B C A A E A A A A A A A B Y ~ ~ Y B B A A A A A A A A A A A A A A A A A A A A A A A A A A A A A A A A A A A A A A A A A A A A A A A A A A A A A A A A A A A A A A A A A A A A A A A A A A A A A A A A A A A A A A A A A A A A A A A A A A A A A A A A A A A A A A A A A A A A A A A A A A A A A A A A A A A A A A A A A A A A A A A A A A A A A A A A A A A A A A A A A C A E ' ~ N D N =.=.=.>.>.>.>.>.=.=.>.>.>.>.>.=.>.>.>.>.>.>.=.=.=.=.>.>.=.=.=.=.-.-.>.=.=.>.>.>.,.#.>.<.9.I.x.m.r.q.x.J.U.G.G.Y.>XE.J.!.`.W.U.W.W.U.U.U.U.U.U.W.W.W.W.S.Y.*X!.*Xl.;.=.=.&.,.&.=.&.=.&.&.&.&.@.@.@.| ' ' ' ' ' ` ` ` ( ( ~ ~ ~ ~ ~ ~ Q Y A A C C M M M M m x s y 0 5 5 : # X X X X X X X X X X                                 ",
"                      O       X X X X X X X X X X @ # 5 0 u d k M U U ! _ _ ^ ~ ] &.;.,.~ ~ ~ ~ ( ( ( ( ( ( ' ' ' | | @.@.@.&.&.&.&.&.;.&.=.=.=.>.>.>.>.>.>.>.>.>.>.>.>.=.=.=.=.=.>.=.=.>.>.>.=.>.6.x.J.E.J.S.W.Y.d.,.c.U.U.G.U.G.W.W.F.U.J.J.W.U.!.g.` ( ( Y C A A A A A A A A A A A A A A A A A A A A A A A A A A A A A A A A A ( ( ' ~ N A B ~ ' ( ( }.7X3X3X1X@XXXOX1X3X3X3X1X@X@X1X1X@XXX1X3X3X3X3X3XOX}.=X1XXX[.XXXXXXXXXXXX1X3X3X1X1X1X;X1X=XOXXX{.XXXXXX[.oX1X3X1X3X5X=XW.J.A.x.x.J.U.J.U.U.U.!.*X).).`.).S.W.`.).).'.).:X`.!.).*X:X*X!.`.*X~ m A A A A A A A A A A A A A A A A A A A A A A A A A A A A A A A A A A A A A A A A A A A A A B A D ~ ~ '  .J.l.,.j.J.c.S.).*X:X`.!.U./ ~ D C B N C C C Y Y M A C N 1.W.6.,.&.' E C B A A A A A A A A A A A A A A A A C Y ~ ~ Y C A A Y Y Y ~ ~ ~ E A A A A A C B B B C C C A ~ ( ~ Y B B A A A A A A A A A A A A A A A A A A A A A A A A A A A A A A A A A A A A A A A A A A A A A A A A A A A A A A A A A A A A A A A A A A A A A A A A A A A A A A A A A A A A A A A A A A A A A A A A A A A A A A A A A A A A A A A A A A A A A A A A A A A A A A A A A A A A A A A A A A A A A A A A A A A A A A A A A A A A A A A A A A E ~ ' E N E D =.=.=.>.>.>.>.>.=.=.>.>.>.>.=.=.=.=.>.>.>.>.=.=.=.=.>.>.>.=.=.=.=.-.>.=.=.=.>.>.>.#.<.5.x.I.x.q.q.9.x.S.U.G.G.Y.*XW.J.E.!.!.!.!.W.U.U.U.U.U.U.W.!.W.).F.W.*X).*Xl.&.=.=.&.,.&.=.&.=.&.&.&.&.@.@.@.| ' ' ' ' ' ` ` ` ( ( ~ ~ ~ ~ ~ ~ Q Y A A C C M M M M m x s y 0 5 5 : # X X X X X X X X X X                                 ",
"                              X X X X X X X X X X @ # 5 0 u d k M U U ! ^ _ ^ ~ ] &.;.,.~ ~ ~ ~ ( ( ( ( ( ( ' ' ' | | @.@.@.&.&.&.&.&.;.&.=.=.=.>.>.=.=.>.>.>.>.>.>.>.>.=.=.>.>.=.>.>.=.>.>.>.>.>.3.c.J.S.J.U.c.g.z.c.b.U.G.b.Y.F.W.W.F.U.J.J.T.U.!.g.` ( ' Y B A A A A A A A A A A A A A A A A A A A A A A A A A A A A A A A A A ( ~ ( ~ N A B ~ ' ( (  X7X7X3X=XXX}.XX1X4X3X1XOXOX$X4X1XOXXX1X7X3X1X1X3XOX}.1X1XXX[.XXXXXXXXXXXX1X3X3X1X1X1X1X=X=XOXXX|.XXXXXX.XXX1X8X1X3X3X=X).L.c.x.S.J.J.U.Y.c.U.!.*X).!.`.!.U.!.`.).).`.).)._.`.`.).).`.`.!.!.D N B A A A A A A A A A A A A A A A A A A A A A A A A A A A A A A A A A A A A A A A A A A A A A A A D ~ ` | g.c.c.U.W.U.U.%X).).W.c.6.' @.A A A A C A A Y Y B E A m ` &.| =.~ E A A A A A A A A A A A A A A A A B A C B A E Y A B C Y ~ ~ ~ ~ ( ( ~ E E A C A A A A A A A A ^ ( ( ~ Y C C A A A A A A A A A A A A A A A A A A A A A A A A A A A A A A A A A A A A A A A A A A A A A A A A A A A A A A A A A A A A A A A A A A A A A A A A A A A A A A A A A A A A A A A A A A A A A A A A A A A A A A A A A A A A A A A A A A A A A A A A A A A A A A A A A A A A A A A A A A A A A A A A A A A A A A A A A A A A A A A A A B A D ` D A |  .=.=.=.>.>.>.>.>.=.>.>.>.=.=.=.=.=.=.=.=.>.>.=.=.=.=.>.>.>.>.=.=.=.=.=.=.=.=.>.>.>.=.6.8.J.K.x.q.x.q.x.c.G.G.Y.W.*X!.E.L.U.W.W.W.W.U.F.U.U.U.U.W.W.).).U.W.*XW.*Xl.&.=.=.&.,.&.=.&.&.&.&.&.&.@.@.@.| ' ' ' ' ' ` ` ` ( ~ ~ ~ ~ ~ ~ ~ ~ Y A A C C M M M M m a s y 0 5 5 # # X X X X X X X X X X                                 ",
"                              X X X X X X X X X X @ # 5 0 u d M M U Y T ! ^ ~ ~ ] &.;.,.~ ~ ~ ~ ( ( ( ( ( ( ' ' ' | | @.@.@.&.&.&.&.&.;.&.=.=.=.>.>.=.=.>.>.>.>.=.=.>.=.=.=.>.>.=.>.=.=.=.>.>.>.=.3.S.J.c.U.U.g.&.U.Y.c.U.U.b.U.G.W.W.F.U.J.J.W.U.!.g.` ( ' Y B A A A A A A A A A A A A A A A A A A A A A A A A A A A A A A A A A ( ` ( ~ N A B ~ ' ( (  X7X7X7X=XXX[.XX1X3X1X@XXXOX1X3X1XXXXX1X=X7X1X3X3X|.}.3X1XXX[.XXXXXXXXXXXX1X3X3X1X1X1X;X=XOXOXXX{.XXXXXXXXXX3X4X1X3X8X=X*XJ.c.J.U.J.J.U.U.c.U.!.*X).!.!.!.W.!.).).).`.`.!.).`.*X).!.E.U.`.^.=.| A A A A A A A A A A A A A A A A A A A A A A A A A A A A A A A A A A A A A A A A A A A A A C A A A E ` | =.l.U.W.W.J.F.).%X).).g.,.=.1.D A E A A A A A C B E A N B D / =.A C B C A A A A A A A A A A A A A A B A C B B A A C B C E ( ( ( ~ ( ( ~ E D A B A A A A A A A A ( ( ( ~ A C A A A A A A A A A A A A A A A A A A A A A A A A A A A A A A A A A A A A A A A A A A A A A A A A A A A A A A A A A A A A A A A A A A A A A A A A A A A A A A A A A A A A A A A A A A A A A A A A A A A A A A A A A A A A A A A A A A A A A A A A A A A A A A A A A A A A A A A A A A A A A A A A A A A A A A A A A A A A A A A A A A A E D ~ A D =.1.=.=.>.=.>.>.>.>.=.=.>.>.=.=.=.=.=.=.=.=.>.>.=.=.=.=.>.>.>.>.=.=.=.=.=.=.=.=.>.>.>.=.j.x.J.U.c.c.x.q.c.c.U.U.G.G.U.R.E.J.J.W.!.U.W.U.U.U.U.U.U.W.!.!.!.F.W.*XW.*Xl.&.=.=.&.,.&.=.&.&.&.&.&.&.@.@.@.| ' ' ' ' ' ` ` ` ( ~ ~ ~ ~ ~ ~ ~ ~ Y A A C C M M M M m a s y 0 5 5 # # X X X X X X X X X X                                 ",
"                              X X X X X X X X X X @ # w 0 u d M M U Y T ! ! ~ ~ ] &.&.,.~ ~ ~ ~ ( ( ( ( ( ' ' ' ' | | @.| | &.&.&.&.&.;.&.=.=.=.=.=.=.=.>.>.>.>.=.=.=.=.>.>.>.>.=.=.>.>.=.=.=.=.=.3.J.W.U.Y.W.l.&.U.W.b.U.Y.b.b.U.W.R.U.U.U.U.W.T.!.g.` ( ' Y C A A A A A A A A A A A A A A A A A A A A A A A A A A A A A A A A A ( ~ ( ~ N A B ~ ' ^ (  X;X7X3X@XXXXXOX$X1X@X{.XX@X#X#XXX[.XX1X1X3X3X3X1X}.[.3X1XOX[.XXXXXXXXXXXX1X3X3X1X1X1X;X=XOXOXXXXXXXXXXXXXXX3X4X1X3X8X*X%XJ.c.E.!.U.J.Y.U.U.U.R.*X*X!.W.W.!.).).).`.).`.'.).(._.,X`.S.>.*X,X!.U.' A B A A A A A A A A A A A A A A A A A A A A A A A A A A A A A A A A A A A A A A A A A A A B B A D / ` =.x.Q.!.!.U.E.).:X*X*X6.&.=.>.Z m B C B A A Y C B A B A A D | 2.A C B A A A A A A A A A A A A A A C B A A B B A A A C C E ( ' ( ( ( ~ A C A A A B C A C B B A A ( ( ~ Y A A A A A A A A A A A A A A A A A A A A A A A A A A A A A A A A A A A A A A A A A A A A A A A A A A A A A A A A A A A A A A A A A A A A A A A A A A A A A A A A A A A A A A A A A A A A A A A A A A A A A A A A A A A A A A A A A A A A A A A A A A A A A A A A A A A A A A A A A A A A A A A A A A A A A A A A A A A A A A A A A A A A ~ ( ~ ~ N A &.=.=.=.=.>.>.>.=.=.=.=.=.=.=.>.>.>.>.>.>.=.=.=.=.=.=.=.=.>.>.>.>.=.=.=.=.=.=.=.=.=.=.=.g.l.J.E.J.L.x.m.M.J.U.U.b.c.,.z.c.c.U.`.>X!.W.U.F.U.U.F.U.W.W.W.Y.S.W.%XW.*Xl.=.=.=.&.,.&.=.&.&.&.&.&.&.@.@.@.| ' ' ' ' ' ` ` ` ( ~ ~ ~ ~ ~ ~ ~ Y A A A C C M M M M m a s y 0 5 5 # # X X X X X X X X X X                                 ",
"                              X X X X X X X X X X @ # w 0 u d M M U Y Q Q ! ~ ~ ] &.&.,.~ ~ ~ ~ ( ( ( ( ( ' ' ' ' | | @.| @.&.&.&.&.&.;.&.=.=.=.=.=.=.=.>.>.>.>.=.=.=.=.>.>.>.>.=.>.>.>.=.=.=.=.>.6.J.W.U.J.c.l.,.F.Y.b.F.Y.U.b.Y.%X!.U.U.U.U.W.T.!.g.` ~ ( Y C A A A A A A A A A A A A A A A A A A A A A A A A A A A A A A A A A ( ~ ( ~ N A B ~ ' ( (  X7X1X3XOXXX@X@X$X@XXX[.OX#X#XOX[.[.XX#X3X8X8X3X1X}.}.3X1XOX[.XXXXXXXXXXXX1X3X3X1X1X1X;XOXOX|.XXXXXXXXXXXXOX1X3X1X5X8X*X).U.J.!.`.W.U.U.c.U.U.U.W.*X!.U.E.).).!.`.`.).`.'.`._.`.).E.g.;.c.W.*X^.` N N A A A A A A A A A A A A A A A A A A A A A A A A A A A A A A A A A A A A A A A A A C A A N B E ` ` =.x.K.U.U.S.S.).).).*X,.&.=.=.~ D ~ ~ A A A Y B A A N A A Z | &.A A A A C A A A A A A A A A A A A C A E E A B B A A A B Y ( ' ( ( ( ~ A B A E E A E E A A A A E ( ~ E A C A A A A A A A A A A A A A A A A A A A A A A A A A A A A A A A A A A A A A A A A A A A A A A A A A A A A A A A A A A A A A A A A A A A A A A A A A A A A A A A A A A A A A A A A A A A A A A A A A A A A A A A A A A A A A A A A A A A A A A A A A A A A A A A A A A A A A A A A A A A A A A A A A A A A A A A A A A A A A A A A A A A ~ ` E D N A =.=.=.=.=.>.>.>.=.=.=.=.=.=.=.>.>.>.>.>.=.=.=.=.=.=.=.=.>.>.>.>.>.=.=.=.=.=.=.=.=.=.=.=.l.z.S.U.S.U.x.m.J.U.Y.U.b.h.] g.c.J.U.!.*X!.W.U.F.U.U.F.U.W.W.U.U.c.W.%XW.>Xl.=.=.=.&.,.;.=.&.&.&.&.&.&.@.@.@.| ' ' ' ' ' ` ` ` ( ~ ~ ~ ~ ~ ~ ~ Y A A A C C M M M M m a s y 0 5 5 # # X X X X X X X X X X                                 ",
"                              X X X X O X X X X X @ # w w p d M M U Y Y T T Q ~ ] &.&.,.~ ~ ~ ~ ( ( ( ( ( ' ' ' ' | | @.| | &.&.&.&.&.;.&.=.=.=.>.=.>.>.>.>.>.>.>.>.=.=.>.>.=.=.=.=.>.>.>.>.=.=.&.6.S.U.U.l.,.g.c.c.U.U.b.G.Y.G.Y.}.!.U.U.U.J.W.U.!.g./ ~ ~ C C A A A A A A A A A A A A A A A A A A A A A A A A A A A A A A A A A ( ` ' ~ N A B ~ ' ( (  X;X1X1XXXOX#X1X1X@XXX[.#X1X1X@X|.{.XX@X3X7X=X1X3XOX}.1X1XXX[.XXXXXXXXXXXX1X3X3X1X1X1X1X|.|.|.XXXXXXXXXXXXXX1X3X1X5X7X*XW.W.W.`.`.W.U.U.c.Y.U.l.c.).).S.U.:X`.!.`.`.).`.(.'.:X).c.4.>.6.,.6.T.!.~ Z A A A A A A A A A A A A A A A A A A A A A A A A A A A A A A A A A A A A A A A A A A C A A N B ~ ( ' @.=.=.>.3.,.3.c.W.!.*X6.,.1.>.1.=.=.' E C A Y M A A M D B m H D A A A A C C A A A A A A A A A A A C A ~ ~ E A B A E A B Y ( ' ( ( ( ~ A C A ~ ~ ( ( ( ~ E E ~ ( ' ~ E C C A A A A A A A A A A A A A A A A A A A A A A A A A A A A A A A A A A A A A A A A A A A A A A A A A A A A A A A A A A A A A A A A A A A A A A A A A A A A A A A A A A A A A A A A A A A A A A A A A A A A A A A A A A A A A A A A A A A A A A A A A A A A A A A A A A A A A A A A A A A A A A A A A A A A A A A A A A A A A A A A A A A B A A A N E -.=.=.=.=.>.>.>.=.=.>.>.=.=.>.>.>.>.>.>.>.>.=.=.>.=.>.>.>.>.>.>.>.>.>.>.>.>.>.=.=.=.;.>.c.c.U.U.c.J.x.m.J.U.U.Y.b.h.&.l.U.U.U.W.!.R.W.U.F.U.U.F.U.W.W.U.U.c.W.%X!.>Xl.=.>.=.&.,.;.=.&.&.&.&.&.&.@.@.@.| ' ' ' ' ' ` ` ` ( ~ ~ ~ ~ ~ ~ ~ Y Y A A C C M M M M x a s y 0 5 5 # # X X X X X X X X X X                                 ",
"                              X X X X O X X X X X @ # w w p d M M U Y Y T T Q ~ ] &.&.,.~ ~ ~ ~ ( ( ( ( ( ' ' ' ' | | @.@.@.&.&.&.&.&.;.&.=.=.=.>.>.>.>.>.>.>.>.>.>.>.=.=.=.=.=.=.=.>.>.>.>.=.=.=.l.S.U.U.g.>.l.W.c.U.Y.b.b.Y.Y.U.W.R.U.U.J.J.Y.U.!.g.~ A A B A A A A A A A A A A A A A A A A A A A A A A A A A A A A A A A A A A ( ~ ' ~ N A B ~ ' ( (  X;X;X;X[.OX1X3X1X@XXXXX$X1X1X@XOXXXOX@X1X=X[.|.3X=X|.@X1XXX[.XXXXXXXXXXOX1X3X3X1X1X1X1X|.|.XXXXXXXXXXXXXXXX1X1X1X1X7X=X!.!.!.^.!.W.U.F.c.Y.c.>.g.W.`.S.J.:X`.!.`.*X).`.`.`.!.S.3.;.;.,.l.g.!.^.` H D A A A A A A A A A A A A A A A A A A A A A A A A A A A A A A A A A A A A A A A A A C A A N B ~ ( ' ,.=.@.;.,.,.,.c.z.c.U.' @.' ` =.,.-.' A m A E A B A m E A N ~ N A A A A A C C C A A A A A A A A A C Y ~ ( ~ A B A A A B A ( ' ( ( ( ~ E A ~ ` ( ( ( ( ~ E E ~ ( ' ( E A A A A C A A A A A A A A A A A A A A A A A A A A A A A A A A A A A A A A A A A A A A A A A A A A A A A A A A A A A A A A A A A A A A A A A A A A A A A A A A A A A A A A A A A A A A A A A A A A A A A A A A A A A A A A A A A A A A A A A A A A A A A A A A A A A A A A A A A A A A A A A A A A A A A A A A A A A A A A A A A A A A A A C A C A N D =.&.=.=.>.>.>.>.=.=.>.>.=.=.=.>.>.>.>.>.>.>.=.=.>.>.>.>.>.>.>.>.>.>.>.>.>.>.>.>.=.=.;.,.c.U.U.U.z.c.l.M.J.F.G.Y.G.c.;.l.U.Y.U.R.!.!.W.U.F.U.U.F.U.W.!.U.U.S.W.*X!.*Xl.=.>.=.&.,.;.=.&.&.&.&.&.&.@.@.@.| ' ' ' ' ' ` ` ` ( ~ ~ ~ ~ ~ ~ ~ Y Y A C C C M M M M m a s y 0 5 5 # # X X X X X X X X X X                                 ",
"                X             X X X X     O X X X @ # 5 r d d k U U Y Y Q ! ~ ~ ] *.,.*.( Q ~ ( ( ( ( ( ' ' ' ' ' | @.@.@.@.&.&.&.&.&.;.&.=.=.=.=.=.=.=.>.>.>.>.=.=.=.>.>.>.=.=.=.=.=.=.=.>.>.=.,.g.J.U.Y.g.&.c.b.U.Y.U.b.b.Y.}.}.W.F.F.F.b.F.U.Y.U.h.( A E B E A A A A A A A A A A A A A A A A A A A A A A A A A A A A A A A A A / ` ' / Z A C ~ ( ~ ' =XeXoX=XOXXX4X@XV.$X.X@X@XrXrX@X[.R.@X3XfXv.] h.=X8X=XXXXXXX|.XXXXXXXXXX@X3X3X3X3X3X3X=XXXXXXXXXXXXXXXXXXX@X3X1X=X=X7X-XW.oXR.Y.oXR.b.F.F.U.U.3.,.W.*XW.U.).*X!.).!.!.`.).`.c.=.=.=.&.,.`.!.*XW.&.~ ' ~ A A A A A A A A A A A A A A A A A A A A A A A A A A A A A A A A A A A A A A A A Y A C A A E ( | ,.&.=.,.=.l.J.6.=.,.@.D N N H &.,.=.' A N A A B C B A A A N B A A A A A A A A A A A A A A A A A ( ~ A ~ ( ~ C C C C C A A A ~ ` ' ( E A A ~ ~ ~ ( ~ H A ~ ' ' ~ ( ( ( ~ E A A A A A A A A A A A A A A A A A A A A A A A A A A A A A A A A A A A A A A A A A A A A A A A A A A A A A A A A A A A A A A A A A A A A A A A A A A A A A A A A A A A A A A A A A A A A A A A A A A A A A A A A A A A A A A A A A A A A A A A A A A A A A A A A A A A A A A A A A A A A A A A A A A A A A A A A A A A A A A A A A A A B E A N N D | -.=.=.=.=.=.=.=.=.=.=.=.=.=.=.=.=.=.>.>.>.>.>.>.>.>.>.=.=.=.>.>.>.>.>.=.=.=.=.=.>.;.>.c.Y.W.b.:.&.z.l.F.Y.F.U.Y.l.;.g.Y.R.!.!.F.W.U.U.G.U.F.U.U.W.R.Y.U.F.Y.!.>X,X6.,.=.&.=.=.=.;.=.&.&.&.&.&.&.@.@.@.| ' ' ' ' ' ` ` ( ( ~ ~ ~ ~ ~ ~ Y Y Y A C C C M M M x a s y 0 5 5 : # X X X X X X X X X X                                 ",
"                X             X X X X     O X X X @ # 5 r d d k U U Y Y Q ! Q Q ' ] ] ' ~ ~ ~ ~ ( ( ( ( ( ' ' ' ' | @.@.@.| &.&.&.&.&.;.&.=.=.=.=.=.=.=.>.>.>.>.=.=.=.>.>.>.=.=.=.=.=.=.=.=.>.=.&.,.U.U.Y.l.;.l.Y.h.d.c.Y.Y.U.Y.W.U.F.G.G.G.U.U.g.i.>.~ A E B E A A A A A A A A A A A A A A A A A A A A A A A A A A A A A A A A A / ` ' / Z A C ~ ( ' ~ k.B.V.oX[.oX7X3X[.$X0XXX@X$XOXXX@X;XoXV.n.n.b.[.OX1X1X@XXXXXXXXXXXXXXXXXOX1X3X3X3X3X1X1XXXXXXXXXXXXXXXXXXXOX1X;X}.=X-XoXR.R.[.OX7XR.b.Y.G.F.U.3.3.R.W.z.c.!.).W.!.!.!.`.*X`.c.=.=.=.=.,.!.W.*XW.&.~ ' ~ C A A A A A A A A A A A A A A A A A A A A A A A A A A A A A A A A A A A A A A A Y A C A A A ~ ( ,.&.=.=.&.g.l.,.=.,.&.| ` A Z /  .=.=.| D A A D A A C A A B B A A A A A A A A A A A A A A A A A ~ E ~ ( ( ~ A A ~ ~ ~ A A N C ~ ~ ~ A E ~ ( ( ( ' ` ~ A ~ ( ( ~ ( ( ( ~ E A A A A A A A A A A A A A A A A A A A A A A A A A A A A A A A A A A A A A A A A A A A A A A A A A A A A A A A A A A A A A A A A A A A A A A A A A A A A A A A A A A A A A A A A A A A A A A A A A A A A A A A A A A A A A A A A A A A A A A A A A A A A A A A A A A A A A A A A A A A A A A A A A A A A A A A A A A A A A A A A A C C Y A A A E | &.>.=.=.=.=.=.=.=.=.=.=.=.=.=.=.=.=.=.=.>.>.>.>.>.>.>.>.=.=.=.=.>.>.>.>.=.=.=.=.>.>.g.l.b.F.c.h.d.h.b.b.F.U.c.c.l.>.&.6.Y.R.!.W.b.Y.}.U.b.G.Y.Y.U.U.U.U.F.U.Y.R.Y.c.3.,.=.&.=.>.=.;.=.&.&.&.&.&.&.@.@.| | ' ' ' ' ' ` ` ( ( ~ ~ ~ ~ ~ ~ Y Y Y A C C C M M M x a s y 0 5 5 : # X X X X X X X X X X                                 ",
"                O             X X X         X X X @ # 5 r d d k M U Y Y Q ! Q Q ' ( ~ Y Y ~ ~ ~ ( ( ( ( ( ' ' ' ' | @.@.| | &.&.&.&.&.;.&.=.=.=.=.=.=.=.>.>.>.>.=.=.=.=.>.>.>.>.>.>.=.>.=.=.=.=.&.g.Y.U.c.l.:.g.U.,.*.h.W.Y.F.G.Y.F.F.G.U.U.U.Y.>.' ' ~ ~ E B A A A A A A A A A A A A A A A A A A A A A A A A A A A A A A A A A A / ` ' / Z A C ~ ( ] W ' ..B.@X}.@X@X3XXX@XC.@X$X$XXXXX4X4X[.v.*.Y.8X=X}.@X1X@XXXXXXXXXXXXXXXXXOX1X3X3X3X3X1X=XXXXXXXXXXXXXXXXXXXOX1X;X}.}.oXR.R.oX.X[.oXR.G.U.U.F.U.3.3.U.c.,.g.!.*X!.).*X*X*X*X^.l.=.=.=.=.,.!.W.*X!.&.) ' ~ C A A A A A A A A A A A A A A A A A A A A A A A A A A A A A A A A A A A A A A A A A C A A B A E ,.=.=.&.&.,.1.&.=.=.=.,.=.H m Z ` &.1.,.' A B D ~ A B A A A A A A A A A A A A A A A A A A A A A A E ` ' ~ D A ~ ' ( ~ ~ C m C A A A ~ ~ ( ' ( ( ( ` E A ~ ( ( ~ ( ( ( ~ E A C A A A A A A A A A A A A A A A A A A A A A A A A A A A A A A A A A A A A A A A A A A A A A A A A A A A A A A A A A A A A A A A A A A A A A A A A A A A A A A A A A A A A A A A A A A A A A A A A A A A A A A A A A A A A A A A A A A A A A A A A A A A A A A A A A A A A A A A A A A A A A A A A A A A A A A A A A A A A A A A A C Y A A D ' =.1.=.=.=.=.=.=.=.=.=.=.=.=.=.=.=.=.=.>.>.>.=.=.=.=.=.>.=.=.=.>.>.>.>.=.=.>.>.=.=.=.=.z.b.U.F.g.i.z.Y.b.Y.U.b.U.z.,.&.&.g.Y.R.W.R.c.U.}.G.b.U.Y.G.c.U.F.b.U.U.Y.Y.z.=.,.=.=.=.>.,.=.=.=.&.&.&.&.&.@.@.@.| | ' ' ' ' ' ` ` ( ~ ~ ~ ~ ~ ~ ~ Y Y Y Y C C C M M M x a s y 0 5 5 : # X X X X X X X X X X                                 ",
"                              X X X O     O X X @ @ # 5 r d d k v M U Y T ~ ~ ~ ' ( Y Y ~ ~ ~ ~ ( ( ( ( ( ' ' ' ' | @.@.@.@.&.&.&.&.&.;.&.=.=.=.=.=.=.=.>.>.>.>.=.=.=.>.>.>.>.>.>.>.>.>.=.=.=.=.=.l.Y.z.g.h.g.z.l.i.g.b.G.b.b.Y.U.F.F.U.U.U.U.Y.,.( ~ ( ~ A m A A A A A A A A A A A A A A A A A A A A A A A A A A A A A A A A A A / / ' / Z A C ~ ~ ] ~ E W V.@X@X3X=X4X@X[.v.C.3X@XOXOX1X}.v.V.n.=X8XOX[.3X4XXXXXXXXXXXXXXXXXXXOX=X3X3X3X3X1X1XXXXXXXXXXXXXXXXX{.XX1X3X}.}.}.R.}.oXoX.X[.Y.G.F.U.U.U.g.,.c.g.;.,.W.`.W.W.).!.!.!.J.6.=.=.,.=.=.c.c.*X!.&.~ ' ~ C A A A A A A A A A A A A A A A A A A A A A A A A A A A A A A A A A A A A A A A A C C A A B A E ,.,.,.=.&.=.=.&.,.=.=.,.=.H m D D ` =.,.&.` ~ ` / D B A A A A A A A A A A A A A A A A A A A A A A E ( ' ( ~ ~ ( ' ( ~ D C C A ~ E ~ ~ ( ( ( ( ( ( ~ A C A ~ ( ( ( ' ( ~ E A C A A A A A A A A A A A A A A A A A A A A A A A A A A A A A A A A A A A A A A A A A A A A A A A A A A A A A A A A A A A A A A A A A A A A A A A A A A A A A A A A A A A A A A A A A A A A A A A A A A A A A A A A A A A A A A A A A A A A A A A A A A A A A A A A A A A A A A A A A A A A A A A A A A A A A A A A A A A A A A A A A Y B B D ' =.1.&.=.=.=.=.=.=.=.=.=.=.=.=.=.=.=.=.>.>.>.>.=.=.=.=.>.=.=.=.>.>.>.>.=.>.>.>.=.=.=.=.z.Y.Y.U.g.,.c.Y.b.W.U.c.Y.c.>.=.&.g.R.R.W.Y.b.Y.Y.G.G.U.b.g.z.Y.U.U.U.U.U.U.l.=.=.=.=.=.,.,.=.=.=.&.&.&.&.&.&.@.@.| | ' ' ' ' ' ` ` ( ~ ~ ~ ~ ~ ~ ~ Y Y Y C C C C M M M x a s y 0 5 5 : # X X X X X X X X X X                                 ",
"                              X X X X       X X @ @ # w r d d k v v M U T ~ ^ ( ' ( ~ ~ ~ ~ ~ ~ ( ( ( ( ' ' ' ' ' | | @.@.@.&.&.&.&.&.;.&.=.=.=.=.=.>.>.>.>.>.>.>.>.>.>.=.=.>.>.>.>.=.=.=.=.>.=.&.g.U.l.,.z.c.b.,.z.U.U.b.b.G.U.U.G.G.U.U.G.U.U.g.~ ( ( ~ A B A A A A A A A A A A A A A A A A A A A A A A A A A A A A A A A A A A / / ` ~ N A C ( ~ ( ( ~ W R.OXOX7X;XrX}.v.i.a.7X.XoX;X7XV.-.Y.=X3X1X}.OX3X3XXXXXXXXXXXXXXXXXXX|.=X3X3X3X3X1X@XXXXXXXXXXXXXXXXX[.XX1X3XoX}.oXW.[.R.oX;XoXV.b.Y.U.S.Y.g.&.,.,.=.l.`.,X^.^.*X*X`.x.6.>.=.>.,.,.&.&.,.R.W.@.~ ' ( C A A A A A A A A A A A A A A A A A A A A A A A A A A A A A A A A A A A A A A A A B C A A C A E =.,.,.=.=.=.=.=.=.=.=.=.&.A m H D D ~  .,.,.-.=.~ A B A A A A A A A A A A A A A A A A A A A A A A ~ ~ ( ' ( ( ( ( ( ~ D A A H ~ ~ ~ ( ( ( ` ( ( ~ A C C A ~ ~ ( ( ( ( ~ E A C A A A A A A A A A A A A A A A A A A A A A A A A A A A A A A A A A A A A A A A A A A A A A A A A A A A A A A A A A A A A A A A A A A A A A A A A A A A A A A A A A A A A A A A A A A A A A A A A A A A A A A A A A A A A A A A A A A A A A A A A A A A A A A A A A A A A A A A A A A A A A A A A A A A A A A A A A A A A A A A A Y Y A B A ` =.=.=.=.=.=.=.=.=.=.=.=.=.=.=.=.=.=.=.>.=.>.>.>.>.=.=.>.>.>.>.=.=.=.=.>.>.>.>.=.=.=.=.l.Y.c.c.g.,.c.b.b.W.U.c.U.z.,.,.&.l.`.R.U.U.b.}.}.Y.U.U.c.d.g.b.c.U.Y.U.U.U.z.,.;.=.=.=.,.,.=.=.=.&.&.&.&.@.@.@.@.| | ' ' ' ' ' ` ` ( ~ ~ ~ ~ ~ ~ ~ Y Y Y C C C C M M M x a s y 0 5 5 : # X X X X X X X X X X                                 ",
"                              X X X X       X X @ @ # w r d d k v v M U Y Q ^ ^ ' ( ~ ~ ~ ~ ~ ~ ( ( ( ( ' ' ' ' ' | | @.@.@.&.&.&.&.&.;.&.=.=.=.=.=.>.>.>.>.>.>.>.>.>.>.=.=.=.>.>.>.=.=.>.=.>.=.&.,.U.l.>.g.g.g.l.U.Y.U.G.Y.U.b.U.G.U.U.U.F.U.U.g.~ ~ ' A A C A A A A A A A A A A A A A A A A A A A A A A A A A A A A A A A A A A / / ` ~ N A C ( ~ ( ' ( W R.oX;X7XoX=Xv.k.Y.R.eX}.oX;XaXR.X.Y.3X1XOXOX1X3X1X@XXXXXXXXXXXXXXXXXOX1X3X3X3X1X1XOXXXXXXXXXXXXXXXXX[.XX1X3XoX=XoXR.V.oXoXk.a.Y.=XU.F.c.U.,.' ;.=.=.&.g.j.6.6.g.6.g.1.&.&.>.=.>.,.&.@.,.!.R.&.~ ' ` C A A A A A A A A A A A A A A A A A A A A A A A A A A A A A A A A A A A A A A A A B C A A C A E ' =.=.=.,.,.=.1.=.,.,.,.&.A m A D N N D ..,.&.` ~ A B A A A C A A A A A A A A A A A A A A A A A A A ~ ~ ( ' ( ( ( ( ~ A C A D H ~ ( ( ( ~ ~ ( ' D A C C C A ~ ( ( ( ( ~ E A C A A A A A A A A A A A A A A A A A A A A A A A A A A A A A A A A A A A A A A A A A A A A A A A A A A A A A A A A A A A A A A A A A A A A A A A A A A A A A A A A A A A A A A A A A A A A A A A A A A A A A A A A A A A A A A A A A A A A A A A A A A A A A A A A A A A A A A A A A A A A A A A A A A A A A A A A A A A A A A A A A Y A A D ` &.=.=.=.=.=.=.=.=.=.=.=.=.=.=.=.=.=.=.=.=.=.=.>.>.=.=.=.>.>.>.=.=.=.=.>.>.>.>.=.=.=.>.z.Y.g.g.,.>.F.b.b.Y.U.c.l.g.=.=.&.c.*XW.U.F.b.}.-XW.F.b.F.c.l.d.g.c.Y.Y.Y.Y.z.>.=.=.=.=.=.=.=.=.=.&.&.&.&.@.@.@.@.| | ' ' ' ' ' ` ` ( ~ ~ ~ ~ ~ ~ ~ Y Y Y C C C C M M M x a s y 0 5 5 : # X X X X X X X X X X                                 ",
"                              X X X O       X X @ @ # w r d d k U M M M U Y ~ ^ ' ( ~ ~ ~ ~ ~ ~ ( ( ( ( ' ' ' ' ' | | @.@.@.&.&.&.&.&.;.&.=.=.=.=.=.>.>.>.>.>.>.>.>.=.=.=.=.>.>.>.=.=.=.>.>.>.=.=.,.U.l.&.>.,.,.U.U.F.F.U.Y.U.b.U.G.U.U.U.b.F.Y.i.~ ( ' A A A A A A A A A A A A A A A A A A A A A A A A A A A A A A A A A A A A A / / ` ~ N A C ~ ( ~ ' ' W V.+X7X;X X}.-.k.eXrX8X=X;XoX7XR.*.Y.3XOXOX1X3X1X1X1XXXXXXXXXXXXXXXXXXX1X3X3X3X1X@XXXXXXXXXXXXXXXXXXXXXOX1X3X}.}.oXW.R.@XoX-.] V.;XU.U.c.U.g.&.=.=.=.&.=.=.=.=.=.&.>.,.@.=.1.=.=.,.=.,.6.!.W.&./ ( / A A A A A A A A A A A A A A A A A A A A A A A A A A A A A A A A A A A A A A A A A C A A A B A E ` &.=.=.,.=.&.,.=.,.,.=.&./ Z A A A N N ~ | ( m A A C A A B B A A A A A A A A A A A A A A A A A A A A ~ ` ( ( ( ( ( ~ D C C A A ~ ~ ( ~ ~ ~ ~ ( ~ A A A A A ~ ( ( ( ( ~ E A C A A A A A A A A A A A A A A A A A A A A A A A A A A A A A A A A A A A A A A A A A A A A A A A A A A A A A A A A A A A A A A A A A A A A A A A A A A A A A A A A A A A A A A A A A A A A A A A A A A A A A A A A A A A A A A A A A A A A A A A A A A A A A A A A A A A A A A A A A A A A A A A A A A A A A A A A A A A A A A A C C Y C B D ' =.>.=.=.=.=.=.=.=.=.=.=.=.=.=.=.=.=.=.=.=.=.=.>.>.>.=.=.=.>.>.>.>.=.=.=.=.=.=.=.=.=.=.l.U.>.>.*.;.U.U.U.U.U.z.>.=.=.&.&.x.`.W.U.Y.c.Y.}.W.F.b.U.Y.z.,.,.z.U.U.U.U.l.;.=.=.=.=.=.=.=.=.=.&.&.&.&.@.&.@.@.| | ' ' ' ' ' ` ` ( ~ ~ ~ ~ ~ ~ ~ Y Y Y C C C C M M M x a s y 0 5 5 : # X X X X X X X X X X                                 ",
"                              X X X X       X X @ @ # w r d d k U U M M M Y Q ^ ] ( Y A ~ ~ ~ ~ ( ( ( ( ' ' ' ' ' | | @.@.@.&.&.&.&.&.;.&.=.=.=.=.=.>.>.>.>.>.>.>.>.=.=.=.=.>.>.>.=.=.=.>.>.>.>.=.=.c.g.' >.z.c.Y.F.c.U.U.c.F.Y.G.G.G.U.U.F.U.W.,.~ ' ] A A A B A A A A A A A A A A A A A A A A A A A A A A A A A A A A A A A A A / / ` ~ N A C ~ ' ~ ( ' E V.<X=X=XOX=X*.h.7XOX=X;X;XV.Y.b.] R.3XOX}.OX3X4X1XOXXXXXXXXXXXXXXXXXOX1X3X3X3X1X@XXXXXXXXXXXXXXXXXXXXXOX1X;X}.}.oXR.+XV.R.oXb.h.b.W.W.U.Y.h.>.,.>.;.,.,.&.=.,.=.&.1.6.@.=.6.=.=.,.=.&.=.c.M.' ~ ' ` A A A A A A A A A A A A A A A A A A A A A A A A A A A A A A A A A A A A A A A A A A A A B B B A ~ &.=.=.,.@.` &.=.,.=.&.=.| ~ ~ N D D A ~ | ( m C B A A A B B A A A A A A A A A A A A A A A A A C A A ~ ~ ` ( ( ~ ( ~ A C C A C ~ ~ ( ~ A A A ~ ~ ~ ~ ~ A C ~ ( ( ( ( ~ E A C A A A A A A A A A A A A A A A A A A A A A A A A A A A A A A A A A A A A A A A A A A A A A A A A A A A A A A A A A A A A A A A A A A A A A A A A A A A A A A A A A A A A A A A A A A A A A A A A A A A A A A A A A A A A A A A A A A A A A A A A A A A A A A A A A A A A A A A A A A A A A A A A A A A A A A A A A A A A A A A C C B M m A ' -.>.&.=.=.=.=.=.=.=.=.=.=.=.=.=.=.=.=.=.=.=.=.>.>.>.>.=.=.>.>.>.=.=.=.=.=.=.=.=.=.=.=.g.J.>.>.;.;.Y.U.U.U.Y.z.&.&.,.=.@.l.!.W.Y.Y.c.F.c.U.U.U.U.Y.c.g.g.z.c.z.J.Y.l.&.=.>.>.>.=.=.=.=.=.&.&.&.&.&.&.@.@.| | | ' ' ' ' ` ` ( ~ ~ ~ ~ ~ ~ ~ Y Y Y C C C C M M M x a s y 0 5 5 : # X X X X X X X X X X                                 ",
"                              X           X X X X @ # # w p k k M U Y Y C M Y ' ( ] A Y ~ Y ~ ~ ( ( ( ( ( ( ' ' ' | | @.| | &.&.&.&.&.;.&.=.=.=.=.=.>.>.>.>.>.>.>.>.=.=.=.=.>.>.>.=.=.=.>.>.>.>.&.=.>.;.;.l.Y.U.U.c.Y.Y.c.U.F.U.Y.U.G.G.F.b.U.U.g.~ ( ( A A A A A A A A A A A A A A A A A A A A A A A A A A A A A A A A A A A A A / ` ' / Z A C ~ ( ( ( ( W R.+X@X7X XoX-.h.7X7X;X7X}.h.-.:.p.Y.1XXX{.#X4X3X=X@X[.{.XXOXXX[.|.OXOX3X3X3X3X3X@XXXXXXXXXXXXXXXXXXX[.OX;X=X}.W.R.W.~..X.X;X=Xg.*.b.*XY.J.U.c.,.=.,.6.&.@.>.1.=.&.=.>.>.>.>.=.=.>.=.=.=.=.@.' ` ` ` A C C A A A A A A A A A A A A A A A A A A A A A A A A A A A A A A A A A A A A A A A A A C A A A ( ` ,.=.=.' m &.=.&.=.,.=.1.,.H A A A B B C A A A A A A A A Y Y A A A A A A A A A A A A A A A A A A A C C ~ ( ( ` ( ~ A A A C C ~ ~ ~ A A C C C ~ ` ( ` ~ A A D ( ( ( ~ E A A A A A A A A A A A A A A A A A A A A A A A A A A A A A A A A A A A A A A A A A A A A A A A A A A A A A A A A A A A A A A A A A A A A A A A A A A A A A A A A A A A A A A A A A A A A A A A A A A A A A A A A A A A A A A A A A A A A A A A A A A A A A A A A A A A A A A A A A A A A A A A A A A A A A A A A A A A A A A A A A C C Y C C N ' 1.&.=.;.&.,.,.=.&.=.=.=.=.=.=.=.=.=.=.=.=.=.=.>.>.=.=.=.=.>.>.>.>.>.=.1.=.&.>.>.=.&.=.c.l.6.>.;.,.z.Y.Y.U.c.l.,.=.=.>.,.6.J.U.>XY.U.g.&.c.U.Y.F.c.R.Y.U.>.,.J.J.U.c.&.=.=.=.=.=.=.=.=.=.=.=.&.&.&.&.&.@.| | ' ' ' ' ' ( ` ( ` ~ ~ ~ ~ ~ ~ ~ Y C C C C M M M m x a s y 0 5 5 : # X X X X X X X X X X                                 ",
"                              X         X X X X X @ # # w p k k U U Y Y Y C T _ ( ] Y Y ~ ~ ~ ( ( ( ( ( ( ( ' ' ' | | @.| | &.&.&.&.&.;.&.=.=.=.=.=.>.>.>.>.>.>.>.>.=.=.=.=.>.>.>.=.=.=.>.>.>.>.,.=.;.&.&.g.Y.U.Y.U.Y.z.g.b.U.U.U.U.G.U.Y.U.U.Y.i.~ ( ( A A A A A A A A A A A A A A A A A A A A A A A A A A A A A A A A A A A A A / ` ' / Z A C ~ ( ( ( ( W R.+X=X=Xh.h.] a.;X7X;X=Xv.:.*.i.Y.=X@X|.[.@X1X=XOXXX{.[.XXXXXX[.XX@X=X3X3X3X3X3X@X|.XXXXXXXXXXXXXXXXXXOX@XoX}.W.oX*X+XoX~.oX+Xk.*.,.z.c.U.U.U.c.g.,.| =.,.=.&.>.1.>.>.>.>.>.=.=.>.=.=.=.=.&.' ` ` ` A A A A A A A A A A A A A A A A A A A A A A A A A A A A A A A A A A A A A A A A A A A A C A A A ' ' 1.,.>.| N =.,.=.=.=.&.,.=.A A A A A A A A A A A A A A A Y Y A A A A A A A A A A A A A A A A C ~ ~ ~ ~ ( ( ~ ' ' ( ~ A A A C A A A A A A ~ ~ ( ` ~ ~ A A A A E E E Y A A A B A A A A A A A A A A A A A A A A A A A A A A A A A A A A A A A A A A A A A A A A A A A A A A A A A A A A A A A A A A A A A A A A A A A A A A A A A A A A A A A A A A A A A A A A A A A A A A A A A A A A A A A A A A A A A A A A A A A A A A A A A A A A A A A A A A A A A A A A A A A A A A A A A A A A A A A A A A A A A A C C B B A A ' ,.&.=.l.>.H H ,.6.=.=.=.=.=.=.=.=.=.=.=.=.=.>.>.>.>.=.=.=.>.>.>.>.=.=.' H ` >.>.=.,.=.6.1.,.=.=.6.c.Y.c.U.U.z.6.&.&.=.=.1.U.W.>XR.U.h.;.c.F.Y.U.b.Y.U.Y.>.6.U.U.U.c.>.=.=.=.=.=.=.=.=.=.=.&.&.&.&.&.&.@.| | ' ' ' ' ' ' ` ( ` ~ ~ ~ ~ ~ ~ ~ Y A C C C M M M m a a s y 0 5 5 : # X X X X X X X X X X                                 ",
"                              X     O O X X X X X @ # # w p k k U Y Y U Y C Y ^ ( ] Y Y ~ ~ ~ ( ( ( ( ( ( ( ' ' ' | | @.| | &.&.&.&.&.;.&.=.=.=.=.>.>.>.>.>.>.>.>.>.>.>.=.=.=.>.>.>.=.=.>.=.>.>.,.=.=.=.,.l.U.J.U.U.U.,.;.c.Y.U.U.F.F.U.U.F.b.U.,.~ ( ' A A A A A A A A A A A A A A A A A A A A A A A A A A A A A A A A A A A A A / ` ' / Z A C ~ ( ( ( ( W V.oX@XoX*.*.-.b.-X7X;XW.,.-.-.h.=XOXXXXXXX@X@XXX{.|.|.[.|.XX|.[.XX1X1X3X3X3X3X3X@X}.XXXXXXXXXXXXXXXXXX.XoXoXW.Y.Y.R.T.oX.X~.oXk.*.*.>.l.J.c.M.T.M.,.=.1.6.=.=.>.>.#.>.>.>.>.>.>.>.>.=.=.=.=.@.' ` ` A A A A A A A C A A A A A A A A A A A A A A A A A A A A A A A A A A A A A A A A A A A A A A A D ' ' ,.=.>.' N =.,.=.=.=.&.,.=.H N C A A A A C B A A C C C C C C A A A A A A A A A A A A A A A A A ~ ( ( ( ( ( ~ ( ( ~ A A A A C C A A A C A ~ ( ' ( ~ A A A A C A A A A C C A A A A A A A A A A A A A A A A A A A A A A A A A A A A A A A A A A A A A A A A A A A A A A A A A A A A A A A A A A A A A A A A A A A A A A A A A A A A A A A A A A A A A A A A A A A A A A A A A A A A A A A A A A A A A A A A A A A A A A A A A A A A A A A A A A A A A A A A A A A A A A A A A A A A A A A A A A A A A A A A C C M B A A ' =.&.1.=.>.H A ,.,.' ,.=.=.=.=.=.=.=.=.=.=.>.>.>.>.=.=.=.=.>.>.=.=.=.=./ Z / =.=.=.=.&.=.=.=.=.=.1.l.c.c.U.U.z.,.&.>.,.=.6.U.T.`.J.c.l.:.c.U.Y.U.c.U.l.c.=.,.J.J.M.c.,.=.=.=.=.=.=.=.=.=.=.&.&.&.&.&.&.@.| | ' ' ' ' ' ( ` ( ~ ~ ~ ~ ~ ~ ~ E Y C C C C M M M m a a s y 0 5 5 : # X X X X X X X X X X                                 ",
"                              X       O X X X X X @ # # w p k k U U M M M M C Y ^ ' Y Y ~ ~ ~ ~ ( ( ( ( ( ( ' ' ' | | @.@.@.&.&.&.&.&.;.&.=.=.=.>.>.>.>.>.>.>.>.>.>.>.>.=.=.>.>.>.>.=.=.=.=.>.>.,.&.=.g.z.c.U.c.c.g.l.>.>.c.U.F.F.F.F.G.c.d.g.c.,.~ ( ' A A C A A A A A A A A A A A A A A A A A A A A A A A A A A A A A A A A A A / ` ' / Z A C ~ ( ( ( ( W V.oXoX+X*.*.U.}.<X<XpX}.*.-.-.a.;XR.XX@X1X1X@XXXXXXXXX[.[.XX|.[.@X3X3X3X3X3X3X3X@X|.XXXXXXXXXXXXXXXXXX[.oX=X}.c.a.a.2.B..XoXoXg.&.,.;.g.l.1.g.U.U.j.l.,.@.=.1.>.#.@.>.>.>.>.>.>.>.>.=.>.,.=.&.@.` ` C A A A A A A A A A A A A A A A A A A A A A A A A A A A A A A A A A A A A A A A A A A A A A A A ( ' =.=.,.' Z &.=.,.,.=.=.,.&.H B B B C A A A A A A A C C C C C A A A A A A A A A A A A A A A A ~ ( ( ( ` ( ~ ~ D ~ A C C A A A C A A C C A ~ ( ' ` ~ D A A A C C C C A A A A A A A A A A A A A A A A A A A A A A A A A A A A A A A A A A A A A A A A A A A A A A A A A A A A A A A A A A A A A A A A A A A A A A A A A A A A A A A A A A A A A A A A A A A A A A A A A A A A A A A A A A A A A A A A A A A A A A A A A A A A A A A A A A A A A A A A A A A A A A A A A A A A A A A A A A A A A A A A A A A C C Y A A N ` =.=.2.D ' @.&.,.@./ | =.=.=.=.=.=.=.=.=.=.>.>.>.>.=.=.=.=.>.>.=.=.=.=.' Z / ,.=.=.,.&.=.=.=.=.=.=.,.6.U.c.g.,.=.=.,.1.>.g.U.J.U.g.g.>.>.c.c.U.Y.U.c.,.6.;.=.g.l.J.c.=.=.=.=.=.=.=.=.=.=.=.&.&.&.&.&.&.@.| | ' ' ' ' ' ( ` ( ~ ~ ~ ~ ~ ~ ~ E Y A C C C M M M m a p s y 0 5 5 : # X X X X X X X X X X                                 ",
"                              X       X   X X X X @ # # 5 u k k U U M v M M M M ( ] Q ~ ~ ~ ~ ~ ( ( ( ( ( ( ' ' ' | | @.@.@.&.&.&.&.&.;.=.=.=.=.=.=.=.>.>.>.>.>.=.=.=.>.>.>.>.>.>.>.>.>.=.=.=.>.=.&.,.l.c.J.U.J.J.>.>.>.,.c.U.U.G.G.U.U.g.:.d.b.,.~ ( ' A A B A A A A A A A A A A A A A A A A A A A A A A A A A A A A A A A A A A / / ` ~ Z A C ~ ( ( ( ( W R.oXR..X*.-.oX=X<X=X7XR.&.-.-.a.;XoXoX#X4X3X@XXXXXXXXX[.[.|.|.|.@X4X3X3X3X3X3X1XOXXXXXXXXXXXXXXXXXXXXX.XoX=X}.c.1.-.X.a.V.+X-Xj.&.d.=.=.=.=.,.x.J.J.x.1.&.=.>.>.=.=.>.>.>.>.>.>.>.>.=.>.,.,.=.@.' ~ C B A A A A A A A A A A A A A A A A A A A A A A A A A A A A A A A A A A A A A A A A A A A A A E ` ' @.=.,.' A | @.,.,.=.,.,.@.~ D A B B C A A A A A C C C Y C C A A A A A A A A A A A A A A A A ~ ( ( ` ( ( ~ ~ A A A C C A A A A A A A C A ~ ( ( ( ( ~ ~ A A A A A A A A A A A A A A A A A A A A A A A A A A A A A A A A A A A A A A A A A A A A A A A A A A A A A A A A A A A A A A A A A A A A A A A A A A A A A A A A A A A A A A A A A A A A A A A A A A A A A A A A A A A A A A A A A A A A A A A A A A A A A A A A A A A A A A A A A A A A A A A A A A A A A A A A A A A A A A A A A A A A A A A A A Y A E A B N ' ,.@.&.A A &.6.&.' ' D =.=.=.=.=.=.=.=.=.>.>.>.=.=.=.=.=.=.=.=.=.>.>.>.| H / &.=.,.6.,.=.=.=.=.=.=.=.=.Y.z.>.&.&.=.>.>.=.6.U.J.J.,.>.;.>.c.c.U.Y.U.c.=.;.>.=.&.g.W.J.&.=.=.=.=.=.=.=.=.=.=.&.&.&.&.&.&.@.| | ' ' ' ' ' ( ` ( ~ ~ ~ ~ ~ ~ Q Y Y Y C C C M M M m a a s y 0 5 5 : # X X X X X X X X X X                                 ",
"                              X       X   X X X X @ # # 5 u k k U U M v M M C M ( ] ~ ~ ( ~ ~ ~ ( ( ( ( ( ( ' ' ' | | @.@.@.&.&.&.&.&.;.=.=.=.=.=.=.=.>.>.>.>.>.=.=.=.=.>.>.>.>.>.>.=.>.=.=.=.=.,.&.=.,.6.c.Y.U.R.>.;.;.,.c.U.Y.G.G.W.W.h.,.g.U.>.~ ( ' A A B A A A A A A A A A A A A A A A A A A A A A A A A A A A A A A A A A A / / ` ~ Z A C ~ ( ( ( ( W R.oX[.[.X.-.=X=X7X=Xk.g.*.k.V.V.;XoX.X#X3X1XXX|.{.{.XX{.|.XX|.|.@X4X3X3X3X3X3XOXXXXXXXXXXXXXXXXXXXXXXX.X.XoX^.R.B.j.X.-.s.R.;Xk.&.>.,.=.=.=.,.,.1.g.j.K.M.>.@.>.1.=.>.>.>.>.>.>.>.>.>.>.>.,.=.@.' ~ A A A B C A A A A A A A A A A A A A A A A A A A A A A A A A A A A A A A A A A A A A A A A A A D D ~ ~ @.,.` Z ~ H &.,.=.,.1.=.&.( ~ A C A A A A A A C C Y Y A A A A A A A A A A A A A A A A A A ~ ~ ( ( ( ( ~ C C A A C C A C m A A C A A ~ ( ' ~ ( ' ( ~ ~ A A A A A A C C A A A A A A A A A A A A A A A A A A A A A A A A A A A A A A A A A A A A A A A A A A A A A A A A A A A A A A A A A A A A A A A A A A A A A A A A A A A A A A A A A A A A A A A A A A A A A A A A A A A A A A A A A A A A A A A A A A A A A A A A A A A A A A A A A A A A A A A A A A A A A A A A A A A A A A A A A A A A A A A A A A A B A D | =.` / D A =.1.D D &.| =.=.=.=.=.=.=.=.=.>.>.>.>.>.=.=.=.=.=.=.=.>.>.>.=.@.` ` &.=.=.>.=.=.=.=.=.>.=.=.Y.z.,.=.=.>.=.&.@.,.U.U.U.6.,.;.>.c.U.U.U.U.c.;.;.,.>.&.6.W.J.&.=.=.=.=.=.=.=.=.=.=.&.&.&.&.&.&.@.| | ' ' ' ' ' ( ` ( ~ ~ ~ ~ ~ Q Q Y Y A C C C M M M m x a s y 0 5 5 : # X X X X X X X X X                                   ",
"                              X           X X X X @ # # 5 u k k M U U v M M C C ~ _ A ~ ( ~ ~ ~ ( ( ( ( ( ( ' ' ' | | @.@.@.&.&.&.&.&.;.=.=.=.=.=.=.>.>.>.>.>.>.=.=.=.>.>.>.=.=.=.=.=.=.=.=.=.>.=.=.=.=.=.l.U.c.c.>.>.;.,.c.U.Y.G.G.Y.W.c.i.i.c.>.~ ( ' A A B A A A A A A A A A A A A A A A A A A A A A A A A A A A A A A A A A A / / ` ~ Z A C ~ ( ( ( ( W R.oX@XR.X.-.=X;XaXoX] &.-.V.;X@X.X.X[.@X1X@XXX{.|.[.XX|.XXXXXX|.@X3X3X3X3X3X=X|.}.OXXXXXXXXXXXXXXXXX.XXX.XR.!.*X!.B.X.-.-.s.V.j.&.>.1.,.=.=.=.=.&.&.g.U.K.1. .>.<.=.>.>.>.>.>.>.>.>.>.>.>.>.=.&.' / ~ E A C A C A A A A A A A A A A A A A A A A A A A A A A A A A A A A A A A A A A A A A A C A A A Z A Z ` >.` m A N @.=.| &.&.@.&.~ E A C A A A A A A A C Y Y Y A A A A A A A A A A A A A A A A A A ~ ~ ~ ~ ~ A C C A ~ D D D A C A A C A ~ ~ ( ( ( ( ( ( ( ~ ~ A A A A A A A C C A A A A A A A A A A A A A A A A A A A A A A A A A A A A A A A A A A A A A A A A A A A A A A A A A A A A A A A A A A A A A A A A A A A A A A A A A A A A A A A A A A A A A A A A A A A A A A A A A A A A A A A A A A A A A A A A A A A A A A A A A A A A A A A A A A A A A A A A A A A A A A A A A A A A A A A A A A A A A A A A B A A A ` | D Z A A | &.D H =.1.=.=.=.=.=.=.=.=.>.>.>.>.>.>.>.>.=.>.=.=.>.>.>.>.,.6.' A @.=.@.=.=.=.=.=.>.>.>.>.z.l.6.;.@.@.=.1.1.8.U.c.c.,.,.>.>.c.U.U.U.U.c.=.;.,.,.=.6.l.g.,.=.=.=.=.=.=.=.=.=.=.&.&.&.&.&.&.@.| | ' ' ' ' ' ( ` ( ~ ~ ~ ~ ~ Q Q Y Y C C C C M M M m x a s y 0 5 5 : # X X X X X X X X X                                   ",
"                              X             X X X X # # 5 u k k M U U v x M C C C ~ C A ~ E ~ ~ ( ( ( ( ( ' ' ' ' | | @.@.@.&.&.&.&.&.;.=.=.=.=.=.=.>.>.>.>.>.>.=.=.=.>.>.>.=.=.=.=.=.=.=.=.=.>.=.>.,.=.;.g.M.l.>.;.,.>.,.c.U.U.U.F.U.Y.c.,.*.,.>.~ ( ( A A B A A A A A A A A A A A A A A A A A A A A A A A A A A A A A A A A A A ` / ` ~ Z A C ~ ( ( ( ( W R.+X@XV.X.-.-X<XpXW.-.*.p.k.@X@XC.OXXX@X1X@XXXXXXXXXXX|.XXXXXX|.OX3X3X3X3X3X=X[.[.OXXXXXXXXXXXXXXX.X[..X.XR.R.oXR.k.| -.=.X.,.-.&.,.&.=.=.&.=.,.1.=.=.=.=.>.=.=.>.>.>.>.>.>.>.>.>.>.>.>.>.>.=.&.' ` ~ ~ E A A C A A A A A A A A A A A A A A A A A A A A A A A A A A A A A A A A A A A A A A C A A A A A N ' 6.| A A C &.&.~ A Z m A A B B B A E A B A A A C Y Y Y Y A A A A A A A A A A A A A A A A A A A C C A A A D ~ ( ( ( ' ( ~ ~ A A A / ( ( ` ( ~ ~ ~ ' ( ~ A A A A A A A A A A A A A A A A A A A A A A A A A A A A A A A A A A A A A A A A A A A A A A A A A A A A A A A A A A A A A A A A A A A A A A A A A A A A A A A A A A A A A A A A A A A A A A A A A A A A A A A A A A A A A A A A A A A A A A A A A A A A A A A A A A A A A A A A A A A A A A A A A A A A A A A A A A A A A A A A A A A A A A A C A Y A A m A ~ N A D Z N ~ &.,.=.=.=.=.=.=.=.=.=.>.=.>.>.>.>.>.>.>.>.>.=.=.>.>.>.>.&.g.` N @.,.=.1.,.>.=.=.>.>.>.>.=.,.=.' A D @.j.U.K.U.6.,.@.,.>.*.b.U.U.U.U.c.>.;.>.=.=.,.>.=.,.=.=.>.>.=.=.=.=.=.=.&.&.&.&.@.@.@.| | ' ' ' ' ' ( ` ( ~ ~ ~ ~ ~ ~ T Y Y C C C C M M M m a a s y 0 5 5 : # X X X X X X X X X                                   ",
"                                    X X   X X X X X # 5 5 u k P M Y U v M M M C C A Y ~ ~ / / / ` ` ` ( ( ' ' ' ' | | @.@.@.@.&.&.&.&.;.&.=.=.=.>.>.>.>.>.>.>.>.>.=.>.>.>.>.=.=.=.=.=.=.=.=.>.>.>.>.=.=.>.6.x.l.=.,.=.;.,.c.U.U.c.U.Y.J.g.,.=.&.@.` ` ` E B A A A A A A A A A A A A A A A A A A A A A A A A A A A A A A A A A A E ~ ( ( ~ C C A ~ ' ( ( ~ ' B.*X*XB.-.-.;XpX-XR...,.-.v.@X.X0X$XXXOX@XOXXX{.XXXXXXXXXX|.|.|.1X4X3X1X3X3X1X|.{.OXXXXXXXXX[.[.[.[.@XR.R.R.V..X.Xk.X.2...=.>.&.6.>.=.=.>.>.>.=.=.=.=.=.=.=.=.=.>.>.>.>.#.=.>.>.=.=.=.=.1.&.=.=.~ ' ( ~ A A A C C A A A A A A A A A A A A A A A A A A A A A A A A A A A A A A A A A A A A A A A A A A B A ' &.' E B E ..&.~ N A D A A A A A A A A A A A A A A A A A A A A A A A A A A A A A A A A A C C C B B B C A E ~ ( ( ( ( ~ Y A A Y E ~ ( ( ' ( ( ( ' ( ~ A B A A A A A A A A A A A A A A A A A A A A A A A A A A A A A A A A A A A C A A A A C A A A C C A D A A A A A A A A A A A A A A A A A A A A A A A A A A A A A A A A A A A A A A A A A A A A A A A A A A A A A A A A A A A A A A A A A A A A A A A A A A A A A A A A A A A A A A A A A A A A A A A A A A A A A A A A A A A A A A A A A A A A A A A A C A A A A A A D D A A ~ @.=.>.&.>.>.=.>.=.>.>.>.=.=.=.=.=.=.=.=.=.>.=.=.=.,.,.=.>.1.| N | =.>.=.=.=.=.=.=.>.>.>.=.,.=.' D H &.g.U.J.l.l.g.>.&.,.,.h.U.U.b.Y.c.*.>.>.=.=.=.>.>.>.>.>.>.>.>.>.>.>.=.=.=.=.&.&.&.@.@.@.| ' ' ' ' ' ( ` ( ~ ~ ~ ~ ~ ~ ~ Y A A C C C B M M m x s s y 4 5 : : # X X X X X X X X X                                   ",
"                                          X X X X X # 5 0 u k M M Y U v M M M C A A A ~ ~ / / / ` ` ` ( ( ' ' ' ' | | @.@.@.@.&.&.&.&.;.&.=.=.=.>.>.>.>.>.>.>.>.=.=.>.>.>.>.=.=.=.=.=.=.=.=.>.>.>.,.>.=.=.,.1.1.=.,.=.=.,.c.U.U.U.J.c.g.,.=.>.,.@./ ` ` E B A A A A A A A A A A A A A A A A A A A A A A A A A A A A A A A A A A E ~ ( ' ~ A C A ~ ' ( ( ( ;.Y.-Xg.a.&.&.^.!.j.1.2.| &.V.@X.X[.[.|.OXOXOXXX{.XXXXXXXXXX{.{.|.OX1X3X5X3X3X#X|.{.OX[.[.[.XXXXXX{.[.oX~.oXoXV.R.oXR.R.B.,.,.,.#.,.#.>.=.>.=.>.>.=.=.=.=.=.=.=.=.>.>.>.>.>.>.>.@.` D =.=.,.&.=.=./ ' ' E A A A A C A A A A A A A A A A A A A A A A A A A A A A A A A A A A A A A A A A A A A A A A A Y M m E ~ E A A C ~ ( A B A E C A A A A A A A A A A A A A A A A A A A A A A A A A A A A A A A A C C C C B A E E ~ ( ~ E A Y A B ~ ~ ~ ( ( ' ' ' ( ( ~ E E A A A A A A A A A A A A A A A A A A A A A A A A A A A A A A A A A A A A A A A A A A A A A A A A A C C A A A A A A A A A A A A A A A A A A A A A A A A A A A A A A A A A A A A A A A A A A A A A A A A A A A A A A A A A A A A A A A A A A A A A A A A A A A A A A A A A A A A A A A A A A A A A A A A A A A A A A A A A A A A A A A A A A A A A A A A A A A A C A A A m D ' &.=.=.>.1.>.>.>.>.>.>.>.>.=.=.=.=.=.=.=.=.,.,.,.,.=.=.=.=.=.,.| N | =.>.=.>.=.=.=.=.=.=.=.1.| ~ ~ @.,.,.=.U.c.6.,.3.;.>.l.b.G.Y.Y.U.Y.c.>.=.=.=.=.=.>.>.>.>.$.>.>.>.>.>.>.=.=.=.=.&.&.&.@.@.@.| ' ' ' ' ' ( ` ( ~ ~ ~ ~ ~ ~ ~ Y A A C C C C M M m x s s y 4 5 : : # X X X X X X X X X                                   ",
"                                    X X   X   X X X # 5 r i d d M Y M v M M M C A A A ~ ~ / ~ ~ ( ( ` ( ( ' ' ' ' | | @.@.@.@.&.&.&.&.;.&.=.=.=.>.>.=.=.>.>.>.>.=.>.>.>.=.=.=.=.>.>.>.>.=.>.>.>.>.,.>.>.=.=.>.=.=.,.=.=.,.c.U.U.U.z.6.=.&.=.>.,.@./ ` ` E B A A A A A A A A A A A A A A A A A A A A A A A A A A A A A A A A A A A E ( ' ` A C A ~ ' ~ ( ( ' l.b.&.,.&.=.-XW.,.@.g.| a.R.[.oX@X0X{.XXXXXX{.{.{.XXXXXXXX{.|.OX1X1X3X3X3X3X@X{.{.XXXXXXXXXXOXOXXX[.oX}.oX.XR.[.@XoX=XV.=.&.=.=.,.=.>.>.>.=.=.=.>.>.>.>.>.>.=.>.>.>.#.=.>.<.1.=.' ~ ' @.=.&.>.;./ ` ( E A A A C C A A A A A A A A A A A A A A A A A A A A A A A A A A A A A A A A A A A A A A A A A E B M C A B A E B C B B A E A B A A A A A A A A A A A A A A A A A A A A A A A A A A A A A A A A A A A A A A E ~ ( ( E A B B A B ~ ~ ~ ~ ~ ~ ~ ~ ( ~ A B B C A E A A A A A A A A A A A A A A A A A A A A A A A A A A A A A A A A A A A A A A A A A A A A A A C C A A A A A A A A A A A A A A A A A A A A A A A A A A A A A A A A A A A A A A A A A A A A A A A A A A A A A A A A A A A A A A A A A A A A A A A A A A A A A A A A A A A A A A A A A A A A A A A A A A A A A A A A A A A A A A A A A A A A A A A A A A A A C C C C D ' ,.1.,.&.=.,.>.>.=.=.>.>.>.>.=.=.=.=.=.=.=.=.=.=.,.,.&.' | =.=.,.@.N | =.,.=.>.=.=.>.>.>.=.=.' ` / ' =.6.g.g.l.g.=.&.=.;.>.c.Y.U.G.b.z.b.c.>.=.=.=.=.=.>.>.>.>.>.>.>.>.>.>.>.=.=.=.=.&.&.&.&.@.@.| ' ' ' ' ' ( ` ( ~ ~ ~ ~ ~ Q ~ Y A A C C C C M M m x s s y 4 5 5 : # X X X X X X X X X                                   ",
"                                    X X   X X X X X # 5 u d i u M Y M v M M M C A A A ~ ~ / ~ ~ ( ( ` ( ( ' ' ' ' | | @.@.@.@.&.&.&.&.;.&.=.=.=.>.=.=.=.>.>.>.>.=.=.>.>.=.=.=.=.>.>.>.>.>.>.>.>.>.>.>.>.=.>.>.=.=.,.=.=.,.c.U.U.c.g.=.=.=.=.=.=.@./ ` ` E B A A A A A A A A A A A A A A A A A A A A A A A A A A A A A A A A A A C A ~ ( ~ A C A ~ ' ~ ( ~ ~ ] ..=.1.=.,.wX`.1.&.=.a.}..XV.oX@XXXXX{.{.XX{.{.{.{.{.XXXX|.OX1X3X3X3X3X3X1XOX|.{.XXXXXXXXXX{.{..XoXoXR.R.R.R.oXoX[.oXk.&...=.>.,.,.=.>.=.=.=.=.=.>.>.>.>.>.>.>.>.>.>.>.>.>.>.>.>.=.D ` @.&.,.=.` ` ( E A A A A C A A A A A A A A A A A A A A A A A A A A A A A A A A A A A A A A A A A A A A A A A A A A E E C C Y Y C B A A A A C A A A A A A A A A A A A A A A A A A A A A A A A A A A A A A A A A A A A A A E ~ ~ ~ Y A B A A E A A A A A A C C Y A A A A A A B A A A A A A A A A A A A A A A A A A A A A A A A A A A A A A A A C C A A A A A C A A A A A A A A A A A A A A A A A A A A A A A A A A A A A A A A A A A A A A A A A A A A A A A A A A A A A A A A A A A A A A A A A A A A A A A A A A A A A A A A A A A A A A A A A A A A A A A A A A A A A A A A A A A A A A A A A A A A A A A A A A A A A A A A A A C A A A B B &.&.=.=.=.=.=.=.>.>.=.>.>.>.>.>.=.=.=.=.=.=.=.=.;.&.=.,.@.~ ` &.@.,.@.N | =.,.=.=.=.=.>.,.,.>.=.A ` &.=.=.=.j.U.,.,.=.=.,.=.=.z.U.U.b.i.,.z.z.>.=.=.=.=.>.>.>.>.>.>.>.>.>.>.>.>.=.=.=.=.&.&.&.&.@.@.| ' ' ' ' ' ( ` ( ~ ~ ~ ~ ~ Q ~ Y A A C C C C M M m x s s y 4 5 5 : # X X X X X X X X X                                   ",
"                                              X X X # 5 u d i r M Y C m M M M C C A Y ~ ~ ~ ~ ~ ( ( ` ' ( ' ' ' ' | | @.@.@.@.&.&.&.&.;.&.=.=.=.=.=.=.=.>.>.>.>.=.=.=.=.=.>.>.>.>.>.>.>.>.>.>.>.>.>.>.,.>.>.>.>.=.,.=.=.,.z.U.U.z.,.&.=.>.>.=.=.@./ ` ` E B A A A A A A A A A A A A A A A A A A A A A A A A A A A A A A A A A A C A A ~ ~ A C A ~ ( ( ' ( ~ ' ( &.,.=.&.!.c.,.=...k.=XoXoX[.v.[.XXXXXXXXXXXXXX{.[.XXXXXX@X1X3X=X1X3X3X1XOX|.XXXX[.[..X[.[.[.[.XXoXoXR.R.[.[.[..X=XR.k.1.=.>.=.>.=.=.=.=.=.>.>.>.=.>.>.>.>.>.>.>.<.>.=.#.=.=.=.=.H ` ` | =.;.| ' ' ~ A A A C A A A A A A A A A A A A A A A A A A A A A A A A A A A A A A A A A A A A A A A A A A B B A Y A B B C Y A A A A B B A A A A A A A A A A A A A A A A A A A A A A A A A A A A A A A A A A A A A B A Y E E Y A A A A E E A A A A A A C C C B A A Y A C B A A A A A A A A A A A A A A A A A A A A A A A A A A A A A A A A A A A A C C C C C A A A B C ~ ~ A A A A A A A A A A A A A A A A A A A A A A A A A A A A A A A A A A A A A A A A A A A A A A A A A A A A A A A A A A A A A A A A A A A A A A A A A A A A A A A A A A A A A A A A A A A A A A A A A A A A A A A A A A A A A A A A A A A A A A A A A A C A A A C B ;.;.;.&.=.=.,.,.>.=.=.=.>.>.>.>.=.=.=.=.=.=.=.=.,.=.,.,.@.D D ' | ,.&.N | =.,.=.=.=.=.=.,.=.@.' ` ' @.=.,.6.6.j.&.=.=.,.1.=.=.g.F.W.U.,.;.c.U.=.>.>.=.=.=.=.=.=.>.>.>.>.>.>.=.=.=.=.=.=.&.&.@.&.@.@.| ' ' ' ' ( ( ` ( ~ ~ ~ ~ ~ Q ~ Y A C C C C M M M m x s s y 4 5 5 : # # X X X X X X X X                                   ",
"                                            X X X X # 5 r i i u M Y M m M M M C C A Y ~ ~ ~ ~ ~ ` ( ` ' ( ' ' ' ' | | @.@.@.@.&.&.&.&.;.&.=.=.=.=.=.=.=.>.>.>.>.>.=.=.=.>.>.>.>.=.=.>.>.>.>.>.>.>.>.>.>.>.=.>.=.=.,.=.=.,.z.U.U.c.6.&.&.>.>.>.1.@./ ` ' E B A A A A A A A A A A A A A A A A A A A A A A A A A A A A A A A A A A A C A H A A C A ~ ( ( ' ' ~ ' ( &.,.,.&.1.&.&.,.=.a.R.oX;XB.X.V.XXXX{.XXXXXXXX{.XXXXXX[.XX1X=X}.=X1X1X@XXX|.XXXX[.XXXXXX.X.XXXOX}.oX}.R.}.R.[.@X@XoX!.k.>.,.&.=.=.=.=.=.>.>.>.>.=.=.>.>.>.>.>.>.=.=.>.>.=.=.=.=.&.&.~ / &.&.=.&.' ~ A A A C A A A A A A A A A A A A A A A A A A A A A A A A A A A A A A A A A A A A A A A A A A A A A A B B C A B C A A A B C Y A A A A A A A A A A A A A A A A A A A A A A A A A A A A A A A A A A A A B B A A A A A A A C A A A A A A A A A A A A B B A A A A A A A A A A A A A A A A A A A A A A A A A A A A A A A A A A A A A A A C C C C A C A A A C A ~ ( A A A A A A A A A A A A A A A A A A A A A A A A A A A A A A A A A A A A A A A A A A A A A A A A A A A A A A A A A A A A A A A A A A A A A A A A A A A A A A A A A A A A A A A A A A A A A A A A A A A A A A A A A A A A A A A A A A A A A A A A A A C A E E A B &.=.1.,.=.=.=.,.>.>.=.=.>.=.>.>.=.=.=.=.=.=.=.=.,.=.=.=.| D Z A ' ,.&.Z | =.,.=.,.=.=.=.=.@./ A &.&.=.>.,.,.>.>.=.>.=.=.>.=.=.j.c.Y.U.,.>.c.c.&.>.>.=.=.=.=.=.=.=.>.>.>.>.>.=.=.=.=.=.=.&.&.@.@.@.@.| ' ' ' ' ' ( ` ( ~ ~ ~ ~ ~ ~ ~ Y A C C C C M M M m x s s 8 4 5 5 : # # X X X X X X X X                                   ",
"                                          X X X X X # w 0 u u i M Y C m M M M C C Y Y ~ ~ ~ ~ ~ ` ( ` ( ' ' ' ' ' | | @.@.@.@.&.&.&.&.;.&.=.=.=.>.>.>.>.>.>.>.>.>.>.=.=.=.>.>.>.=.=.=.=.>.=.>.>.>.=.>.>.=.=.=.=.=.,.=.=.,.z.U.U.J.6.&.&.>.=.>.1.@./ ` ' E B A A A A A A A A A A A A A A A A A A A A A A A A A A A A A A A A A A A C A ~ ~ A A A ~ ' ( ( ` ~ ' ' -.=.1.=.=.@.,.>.=.2.oXR.B.v.p.C.OXXX.X.XXXXX.X.X.XXX.X[.XX=XOX X|.=X1XOX{.|.XXXXXXXX.XXXXX[.Y.b.}.R.b.B.[.}.[.@X[.oX*Xg.&.,.=.=.>.>.=.=.>.>.=.>.=.=.=.=.>.>.>.>.#.=.>.>.>.>.>.>.,.=.A H &.=.1.=.' ~ A A A A A A A A A A A A A A A A A A A A A A A A A A A A A A A A A A A A A A A A A A A A A A E Y A A A A Y Y B A A A C A A A A A A A A A A A A A A A A A A A A A A A A A A A A A A A A A A A C A A A A C C A A B C A A B B A C C C A A A A A A A B B C A A A A A A A A A A A A A A A A A A A A A A A A A A A A A A A A A A A A A C A C A ~ ~ A A A A ~ ~ ~ ~ A A A A A A A A A A A A A A A A A A A A A A A A A A A A A A A A A A A A A A A A A A A A A A A A A A A A A A A A A A A A A A A A A A A A A A A A A A A A A A A A A A A A A A A A A A A A A A A A A A A A A A A A A A A A A A A A A A A A A A A A A A C A E E A B ' | &.=.=.=.=.&.=.=.=.=.=.=.=.=.=.=.=.=.=.=.=.=.=.=.=.=.&.` D N ` =.&.Z ' =.,.=.>.=.=.,.=.@.H m =.,.,.,.=.=.=.>.=.>.=.=.>.&.=.j.F.c.l.g.g.J.z.&.=.=.=.=.>.=.=.=.>.>.>.>.=.=.=.=.=.=.=.=.&.&.@.@.@.@.| ' ' ' ' ( ( ` ( ` ~ ~ ~ ~ ~ ~ Y A C C C C M M M m x s s y 4 5 5 : # # X X X X X X X X     X X                           ",
"                                X X       X X X   @ # w 0 w u d M Y C m M M M C C Y Y ~ ~ ~ ~ ~ ( ( ` ` ' ' ' ' ' | | @.@.@.@.&.&.&.&.;.&.=.=.=.>.>.>.>.>.>.>.>.>.>.=.=.=.>.>.>.=.=.=.=.=.=.>.>.>.#.=.>.>.=.=.1.=.,.=.=.,.z.U.U.c.6.=.,.1.>.=.>.@./ ` ' E B A A A A A A A A A A A A A A A A A A A A A A A A A A A A A A A A A A C C ~ ~ ~ Y A C ~ ' ~ ( ` ` ;.=.,.' =.&.>.>.6.| =.a.wXN...v.[.@X@XXX.X.XXXOXXX.X[..X.X[.OX3X=X[.}.OX@XXX{.XXXX{.XX[.C.[.[.V.s.X.oXB.*.i.}.=X[.[.}.=X-Xa.' ,.=.=.>.>.=.=.=.>.>.>.=.=.=.=.=.=.>.>.>.>.>.=.=.=.=.>.=.&.Z H =.,.6.=.' ~ A A A A A A A A A A A A A A A A A A A A A A A A A A A A A A A A A A A A A A A A A A A A A A C A A A Y Y A B A E Y A A E Y B A A A A A A A A A A A A A A A A A A A A A A A A A A A A A A A A B A A A A A A A A B B A A A A E A A A A A A A A B B C A A A C B A A A A A A A A A A A A A A A A A A A A A A A A A A A A A A A A A A C A A ~ ~ ` ~ A C A ~ ( ~ C A A A A A A A A A A A A A A A A A A A A A A A A A A A A A A A A A A A A A A A A A A A A A A A A A A A A A A A A A A A A A A A A A A A A A A A A A A A A A A A A A A A A A A A A A A A A A A A A A A A A A A A A A A A A A A A A A A A A A A A A A A A A E ~ E A E N m ~ =.g.6.=.=.=.=.=.>.>.=.=.=.=.=.=.=.=.=.=.=.=.,.,.,.,.' H ` =.&.Z ' =.,.&.=.=.=.,.,.&.~ N =.=.=.=.>.>.>.>.&.=.=.>.,.&.&.g.U.g.,.z.U.Y.c.=.=.=.=.=.>.=.=.=.=.>.>.>.>.>.=.=.=.=.=.=.&.&.@.@.@.@.| ' ' ' ' ( ' ` ( ` ~ ~ ~ ~ ~ ~ Y A C C C C M M M m x s s y 4 5 5 : # # X X X X X X X X     X X                           ",
"                                X X X X X X X   X @ : w 5 : w k M C C M m C C M Y Y ~ ~ ~ ( ( ( ( ( ` ( ' ' ' ' ' | | @.@.@.@.@.&.&.&.&.&.&.=.=.=.=.=.=.>.>.>.>.>.>.>.>.>.>.>.=.=.=.=.=.=.=.=.=.>.>.>.>.>.>.>.>.=.,.=.&.g.U.S.,.6.>.=.=.>.>.>.1.&./ / ` D B A E A A A A A A A A A A A A A A A A A A A A A A A A A A A A A A A A M Y ~ ( ~ A C A ~ ' ` ( ` ` =.,.=.=.=.=.>.>.>.>.=.2.j.s.-.s.OX0X@XoXOXB.p..X.X@X.XC.@X;XoX3X=X}.|.1X1XXX[.XX.X[.XX.X[.[.[.R.Y.V.k.k.c.V.i.R.@XR.[.=XoXk.;.&.,.,.>.>.>.>.>.>.>.=.=.=.=.=.=.=.=.=.>.>.>.>.=.=.=.=.1.@.&.&./ ~ ` ~ ( ( ( Y B B C C A A A A A A A A A A A A A A A A A A A A A A A A A A A A A A A A A A A A A A A A A A A A A A A A A A A A A A A A A A A A A A A A A A A A A A A A A A B C A A B m A C B Y ~ ( ~ A E C B A C B B A A A A A A A A A A A A A A A A A A A A A A A A A A A A A A A A A A B B A A A B A B A C B A A A B A A A A A A A A A C C A ~ ~ ~ E C A ~ ~ ( ~ A C E ~ ( E A A A A A A A A A A A A A A A A A A A A A A A A A A A A A A A A A A A A A A A A A A A A A A A A A A A A A A A A A A A A A A A A A A A A A A A A A A A A A A A A A A A A A A A A A A A A A A A A A A A A A A A A A A A A A B M A A A B A B B Y E ^ ( ~ ~ ( E B B ~ ' &.&.A ' ,.=.&.=.>.>.=.=.=.=.=.=.=.=.&.,.,.&.=.=.' A ~ ~ / A ' ,.=.=.,.&.&.>.' ~ &.' &.1.&.=.,.&.=.=.&.=.1.&.&.a.g.c.b.d.:.Y.U.J.l.=.=.&.,.,.&.&.>.=.=.=.>.,.,.>.=.=.=.=.=.&.&.@.@.@.@.@.| ' ' ' ' ( ( ` ( ~ ~ ~ ~ ~ ~ ~ Y A A C C C M M M m a s y 8 4 5 : : # X X X X X X X X X     X O                           ",
"                                X X X X X X X   X X # w 0 0 u k M C C M m M C B M C A Y Y Q ~ ~ ( ( ` ( ' ' ' ' ' | | @.@.@.@.&.&.&.&.&.&.&.=.=.=.=.=.=.>.>.>.>.>.>.>.>.>.>.>.=.=.=.=.=.=.=.=.=.>.>.>.>.>.>.>.>.=.,.=.=.6.c.c.,.,.=.=.=.>.=.>.,.@./ / ` E B A A A A A A A A A A A A A A A A A A A A A A A A A A A A A A A A A A C Y ~ ( ~ A A A ~ ' ` ( ` ` =.,.=.=.=.=.>.>.>.>.,.,.=.X...s.OXXX[.oX@Xk.X..X[..X3X.XoXR.[.;XoX[.}.@X1XXX[.XX.X[..X[.[.[.oXoX}.}.&.z.R.W.&.a.R.7XoXoXW.k.,.=.=.&.>.>.>.>.>.>.>.=.=.=.=.=.=.=.=.=.>.>.>.>.=.=.=.=.,.&.=.&.H C D A ( ( ( E A C A A A A A A A A A A A A A A A A A A A A A A A A A A A A A A A A A A A A A A A A A A A A A A A A A A A A A A A A A A A A A A A A A A A A A A A A A A A A C C B B A A A B B A ~ ( ( ~ C B C Y Y A B A A A A A A A A A A A A A A A A A A A A A A A A A A A A A A A A A A B B A A A B A B A A C C A A A A A A A A A A A A A C D ~ ~ ~ A A A ~ ( ( ~ ~ A ( ' ' ~ A A A C A A A A A A A A A A A A A A A A A A A A A A A A A A A A A A A A A A A A A A A A A A A A A A A A A A A A A A A A A A A A A A A A A A A A A A A A A A A A A A A A A A A A A A A A A A A A A A A A A A A A A A A A A B B A A B C A A Y ~ ( ' ' ( ( ( ~ A A D / ' &.Z ` &.=.=.=.=.>.=.=.=.=.=.=.=.=.&.,.,.&.=.,.| A A A D Z ' ,.=.>.=.,.,.,.` D =.,.=.1.&.=.,.&.,.,.2.=.-...a.W.W.W.Y.d._ c.R.R.c.=.,.=.>.,.&.;.>.;.>.=.;.=.=.=.=.&.=.=.=.&.&.@.@.@.@.@.| ' ' ' ' ( ( ` ( ~ ~ ~ ~ ~ ~ ~ Y A A C C C M M M m a s y 8 4 5 : : # X X X X X X X X X                                   ",
"                                              O X X X : w p d k M C C M M M C M C Y ( ( ~ ~ ( ' ( ( ` ( ( ' ' ' ' | | @.@.@.@.&.&.&.&.&.&.&.=.=.=.=.=.=.>.>.>.>.=.=.>.=.>.>.>.>.>.>.=.=.=.=.>.>.>.>.>.>.>.>.=.=.=.,.,.=.,.l.g.,.;.;.=.,.>.>.>.,.@./ ` ' E C A B A A A A A A A A A A A A A A A A A A A A A A A A A A A A A A A A Y Y Y ~ ~ A C A ~ ' ` ( ` ` =.,.=.=.=.=.>.>.>.>.=.=.&.s.k.B.OX.X[.@X;Xs...OX.X.X.X[.oXoX7XaXoX[.}.OX@X{.[.XX.X[..X[.[..XXX@XOXoXl.M.c.c.;.a.k.R.=XR.c.a.,.>.=.&.=.=.>.=.>.>.>.>.>.>.=.=.=.=.>.>.>.>.>.>.=.=.>.>.=.=.,.&.D m Z C E ( ( E A C A A A A A A A A A A A A A A A A A A A A A A A A A A A A A A A A A A A A A A A A A A A A A A A A A A A A A A A A A A A A A A A A A A A A A A A A A A A A A A B C E ~ E Y A E ( ( ( ( B B Y ~ ~ E A A A A A A A A A A A A A A A A A A A A A A A A A A A A A A A A A A A C C A A C A A A E E A B A A A A A A A A A A A A A D ~ ~ ~ E A ~ ~ ~ ( ( ~ ~ ~ ' ] ' ~ A C C C A A A A A A A A A A A A A A A A A A A A A A A A A A A A A A A A A A A A A A A A A A A A A A A A A A A A A A A A A A A A A A A A A A A A A A A A A A A A A A A A A A A A A A A A A A A A A A A A A A A A A A A A A A A A A B C A B A E ( ( ( ( ~ ( ( ~ ~ A A ~ ( N D ' =.=.=.=.,.=.=.=.=.=.=.=.=.=.,.=.&.=.,.@.D Z C A Z ' 1.=.>.=.=.&.| A A ;.1.=.<.&.=.=.=.1.-.-.>.,.( Y ^ ] -.h.b.i.U.U.c.6.,.g.>.>.>.=.=.,.;.,.>.=.=.,.,.,.,.=.&.&.&.&.@.#.@.@.@.| ' ' ' ' ' ` ` ~ ~ ~ ~ ~ ~ ~ ~ Y A A C C C M M M m a s y 8 4 5 5 : # X X X X X X X X X                                   ",
"                                              O X   X # w w d M M M C C M M M C C C Y ~ ~ ~ ~ ~ ( ( ` ( ( ' ' ' ' | | @.@.@.@.&.&.&.&.&.&.&.=.=.>.=.=.=.>.>.>.>.=.=.=.=.>.>.>.>.>.>.>.=.=.=.=.>.>.>.>.>.>.>.=.=.&.=.=.=.=.,.,.=.;.=.>.,.>.=.>.,.@.` ` ` E C A C A A A A A A A A A A A A A A A A A A A A A A A A A A A A A A A A Y A C Y ~ A C C ~ ' ` ( ` ` =.,.=.=.=.=.>.>.>.>.&.&.-.V.@XoXOX[.oXoXoXa.X.@XOX.XV..X;X@X7X7XW.}.[.XXOX{.[.XX.X[.XX.X[.[.oXoXoX}.`.K.&.>.,.g.-.a.oXB.,.=.=.=.=.,.=.=.=.=.>.>.>.=.>.>.>.=.=.=.=.>.>.>.>.>.=.=.>.>.=.=.=.&.` A C A A ~ ~ E A B B B A A A A A A A A A A A A A A A A A A A A A A A A A A A A A A A A A A A A A A A A A A A A A A A A A A A A A A A A A A A A A A A A A A A A A A A A A A A A A E ~ ( ( ( ( ( ( ( ~ ~ A A E ~ ~ E A A A A A A A A A A A A A A A A A A A A A A A A A A A A A A A A A A A C C A A C C Y Y ~ ~ Y B A A E A A A A A A A A A A ~ ` ( ~ ~ A ~ ~ ( ( ( ( ~ ~ ( ( ( E A A A A A A A A A A A A A A A A A A A A A A A A A A A A A A A A A A A A A A A A A A A A A A A A A A A A A A A A A A A A A A A A A A A A A A A A A A A A A A A A A A A A A A A A A A A A A A A A A A A A A A A A A A A A C A A A A B B A C A E ~ ( ^ ( ~ ~ ( ( ~ A C A D A N D | =.=.=.,.=.=.=.=.=.=.=.=.=.=.=.=.,.,.| A A A A A | ,.&.=.=.&.~ A C A &.=.=.>.=.=.=.=.,...' -.a.T X   X M i. XG.U.z.z.J.`.x.,.>.>.=.=.>.&.;.;.;.&.;.;.&.&.=.&.&.&.&.@.#.@.@.@.| ' ' ' ' ' ` ` ~ ~ ~ ~ ~ ~ ~ Q Y A A C C C M M M m a s y 8 4 5 5 : # X X X X X X X X X                                   ",
"                                            O O     X X X # w M m m C C M M M C C C Y ~ ~ ( ( ( ( ( ` ( ( ' ' ' ' | | @.@.@.@.&.&.&.&.&.&.&.=.=.>.>.=.=.>.>.>.>.=.=.>.>.>.>.=.=.>.>.=.=.=.=.>.>.>.>.>.>.>.>.=.=.=.=.=.=.;.;.=.=.>.>.>.=.=.>.,.,.@.` ` ~ A B A A A A A A A A A A A A A A A A A A A A A A A A A A A A A A A A A A Y C C C Y C C C ~ ' ` ( ` ` =.>.=.=.=.=.>.>.>.>.1.=...N.oX.XoXoXoXB.k.-.X.OX[..XoX@XoXk.h.k.k.OX[.[.oX[.[..XXX.XOX.X[.[.oXoX}.!.^.J.&.=.&.,.=.a.B.1.=.=.=.=.=.6.=.=.>.>.>.>.=.=.>.>.=.=.=.=.>.>.>.>.>.>.>.>.>.>.=.=.=.=.@./ A A B E ~ ~ A B B B A A A A A A A A A A A A A A A A A A A A A A A A A A A A A A A A A A A A A A A A A A A A A A A A A A A A A A A A A A A A A A A A A A A A A A A A A A A A ~ ^ ( ( ( ' ' ' ( ~ E Y ~ ~ ~ E E Y A C A A A A A A A A A A A A A A A A A A A A A A A A A A A A A A A A A A A A A B A E ~ ( ( E C C A A A A A A A A A A C A ~ ( ( ( ~ ~ ( ( ( ( ( ( ( ( E E E A A E ~ ~ A A A A A A A A A A A A A A A A A A A A A A A A A A A A A A A A A A A A A A A A A A A A A A A A A A A A A A A A A A A A A A A A A A A A A A A A A A A A A A A A A A A A A A A A A A A A A A A A A A A A A A A A B A A A C C C B ~ ~ ( ( ( ( ' ' ~ ( ( ( ~ ~ A C D m N ` =.,.>.=.=.=.=.=.=.=.=.=.=.=.=.=.,.,.' A D A A A | 1.;.>.,.=.D Z A ~ &.=.=.>.=.>.=.=.,.~ j j M 5       # q U U h.G.l.>.x.m.<.#.>.>.>.,.=.,.,.,.,.>.=.=.;.=.&.&.&.&.@.@.@.@.@.| ' ' ' ' ' ` ` ~ ~ ~ ~ ~ ~ ~ Y Y A A C C C M M M m a s y 8 4 5 5 : # X X X X X X X X X                                   ",
"                                                            # i s m M C M M M C Y Y ~ ~ ~ ~ ( ( ( ( ` ( ( ' ' ' ' | | @.@.@.@.&.&.&.&.&.&.&.=.=.>.>.=.=.>.>.>.>.=.=.>.>.=.>.=.=.>.>.=.=.=.=.>.>.>.>.>.>.>.>.=.=.=.=.=.,.=.;.=.>.,.,.>.=.=.>.>.=.@.` ~ D B B A A A A A A A A A A A A A A A A A A A A A A A A A A A A A A A A A A Y C C Y Y C C C ~ ' ` ` ` ` =.>.=.=.=.=.>.>.>.>.,.=...k.oX.X.X.X@Xs.-.X.p.oXR.oXoX[.V.-...i.k.oX[.[.oX.X.X.X.XXXOX.X[.[.oXoXoX*X^.J.<.1.@.=.=.2.-.&.=.1.1.>.>.>.=.=.>.>.>.>.=.=.>.>.=.=.=.=.>.>.>.>.>.>.>.>.>.>.,.,.=.=.=.' A A B ~ ( ~ A C A A A A A A A A A A A A A A A A A A A A A A A A A A A A A A A A A A A A A A A A A A A A A A A A A A A A A A A A A A A A A A A A A A A A A A A A A A A A A A ~ ( ( ^ ~ ( ( ( ~ ~ E E ( ( ~ Y A A A C A A A A A A A A A A A A A A A A A A A A A A A A A A A A A A A A A A A A A B A ~ ( ( ( E C C A A A A A A A A A A A ~ ~ ( ' ( ( ~ ( ( ( ( ( ( ( ( B A Y A Y ~ ( ( A A A A A A A A A A A A A A A A A A A A A A A A A A A A A A A A A A A A A A A A A A A A A A A A A A A A A A A A A A A A A A A A A A A A A A A A A A A A A A A A A A A A A A A A A A A A A A A A A A A A A A A A B A A A A Y A B ~ ( ( ( ( ( ( ' ( ( ( ` ( ~ D C D A A ( =.,.>.=.=.=.=.=.=.=.=.=.=.=.=.=.,.=.| H D N N Z ' ,.;.,.=.,./ A D ~ &.,.=.>.>.<.&.>.,.B X         X   . O O # z.}.l.=.x.m.<.#.>.>.>.,.>.,.>.;.>.>.,.,.,.=.&.&.&.&.@.@.@.@.@.| ' ' ' ' ( ` ` ~ ~ ~ ~ ~ ~ ~ Y A A A C C C M M M m a s y 8 4 5 5 : # X X X X X X X X X                                   ",
"                X                                           X # 8 8 m C M m M A M C Y C s 4 4 8 ( ( ` ( ( ' ' ' ' | | @.@.@.@.&.&.&.&.&.&.&.=.=.>.>.>.>.>.>.>.>.=.>.>.>.=.=.=.=.>.>.=.=.=.>.>.>.>.>.>.>.>.=.=.=.,.=.=.,.,.=.=.,.>.>.=.=.>.,.&.' | / ~ D N B D C A A A A A A A A A A A A A A A A A A A A A A A A A A A A A A A A C Y Q ^ ~ C C A ~ ' ` ` ` / =.>.=.=.=.=.>.>.>.>.&.>.=.N.@XoX.X.X@Xs.X.X.-.oXR.@XC.s.a.-.a.Y.R.[.[.[..X.X.X.X.XXX.X.X[.[.oXoX=X*X].P.m.M.=.>.=.&...&.=.,.,.>.>.=.=.>.>.>.=.=.=.=.>.>.>.=.=.>.>.>.>.>.>.>.=.>.=.=.=.,.=.=.,.| A A B ~ ( ~ A C A A A A A A A A A A A A A A A A A A A A A A A A A A A A A A A A A A A A A A A A A A A A A A A A A A A A A A A A A A A A A A A A A A A A A A A A A A A A C A Y ~ ^ ( ~ ( ( ~ ~ E ~ ~ ' ' ~ A B A A B A A A A A A A A A A A A A A A A A A A A A A A A A A A A A A A A A A A A A B A ~ ( ( ~ E C A A B A A A A A A A A ~ ~ ` ( ( ( ( ( ( ( ( ( ( ( ~ ~ C A A A A E ~ E A A A A A A A A A A A A A A A A A A A A A A A A A A A A A A A A A A A A A A A A A A A A A A A A A A A A A A A A A A A A A A A A A A A A A A A A A A A A A A A A A A A A A A A A A A A A A A A A A A A A A A A A A A A A E ~ E B A E ~ ( ~ E E E ( ~ ~ ~ ~ ~ A A C ~ ' &.=.,.>.=.=.=.=.=.=.=.=.=.=.=.=.=.=.=.&.| ~ C B C ' ,.;.,.;.>.~ C ` ' ;.,.=.>.>.>.&.,.i.B X   @ X   X   + 2 O O v M ~ ,.T.x.>.#.<.$.#.,.,.A m 7 m ~ ;.=.&.=.&.&.&.&.@.@.@.@.@.| ' ' ' ' ( ` ` ~ ~ ~ ~ ~ ~ ~ Y A C C C C C M M M m x s y 8 4 5 5 : # X X X X X X X X X     O                             ",
"                X                                               4 8 m B M m M Y C ~ ( M <   O @ ( ( ( ( ( ' ' ' ' | | @.@.@.@.&.&.&.&.&.&.&.=.=.=.>.>.>.=.>.>.>.=.>.>.>.=.=.=.=.>.>.=.=.>.>.>.>.>.>.>.>.>.>.=.=.,.&.&.,.,.=.;.,.;.=.=.=.,.,.@.~ ` ~ ~ D B B A B A A A A A A A A A A A A A A A A A A A A A A A A A A A A A A A A C Y ~ ( ~ A C Y ~ ' ` ` ` / =.>.=.=.=.=.>.>.>.>.&.1.=.k.+XoXoX@X+Xs.-.X.-.oXR.@XR.-...&.k.;X;XR.[..XoXXXXX.X.XXXOX.X[.[.}.oXoX!.Q.Q.`.^.&.=.,.=.,.,.=.&.=.>.>.>.=.>.>.>.=.=.=.=.>.>.=.=.=.>.>.>.>.>.>.>.=.=.=.=.&.=.=.=.,.| A D B ~ ( ~ A B C A A A A A A A A A A A A A A A A A A A A A A A A A A A A A A A A A A A A A A A A A A A A A A A A A A A A A A A A A A A A A A A A A A A A A A A A A A A A B B A ~ ' ' ' ( ^ E E ^ ' ( ( ~ A B A A B A A A A A A A A A A A A A A A A A A A A A A A A A A A A A A A A A A A A C B A ~ ' ( ~ A C A C B A A A A A A A A ~ ~ ( ( ( ( ( ( ( ( ( ( ( ( ~ ~ C A A B B A C B A A A A A A A A A A A A A A A A A A A A A A A A A A A A A A A A A A A A A A A A A A A A A A A A A A A A A A A A A A A A A A A A A A A A A A A A A A A A A A A A A A A A A A A A A A A A A A A A A A A A A A A A A A A A ~ ( ~ B M A ~ ( ~ A B B ~ ~ A C B C C A m ( ,.,.>.>.>.=.=.=.=.=.=.=.=.=.=.=.=.&.&.=.,.,.' ~ A A ' ,.&.,.,.,.A C &.,.,.=.=.=.=.>.&.,.g.I X       . +   .   + O O O ~ j.1.j.>.#.>.>.=.,.,.8 O O @ Y ,.g.>.=.=.&.&.&.@.@.@.@.@.| | ' ' ' ' ` ` ~ ~ ~ ~ ~ ~ ~ Y A A C C C C M M M m a s s y 4 5 5 : # X X X X X X X X X X                                 ",
"                                                                ; j M j M B M P T Y 1 X # X O X 5 j ( ( ( ( ~ &.' 1.` `  .` @. .&.&.&.;.;.=.=.=.>.=.=.=.=.=.=.=.>.>.>.>.=.=.>.>.=.=.=.=.>.>.>.=.>.>.>.>.=.=.>.>.=.=.=.=.>.>.=.>.=.=.=.=.=.=.@.( ` ' ~ C A A C Y A A A A A A A A A A A A A A A A A A A A A A A A A A A A A A A A C C Y ( ~ C C D ~ ' ` ( ` ` ;.>.=.>.>.>.>.>.>.=.=.,.' U.<X!.oXY.a.-.,.=.,.oX<Xj.=.1.-.Y.Y.R.!.oX[.[.XX@XoX.XoX[.B.i.R.[.[.;XV.R.!.Q.!.Q.@.=.,.=.=.=.=.=.=.=.=.=.=.=.=.=.=.=.=.=.=.=.=.=.=.=.=.=.>.>.>.>.>.>.=.=.=.,.,.&.1.&.m A B E ( ~ E B B A A A A A A A A A A A A A A A A A A A A A A A A A A A A A A A A A A A A A A A A A A A A A A A A A C C C A A A A A A A A A C C A A C A A C m A ~ ~ ~ ~ ~ ~ A A A ~ ( ~ ~ ~ ~ ( ' ' ..' ( E A A A A A A A A A A A A A A A A A A A A A A A A A A A A A A A A A A A A B E A M B B A ~ ' ( ~ ~ ~ A C C A A A A A A ~ ~ ~ ( ' ( ( ' ( ~ ( ( ( ( ( ( ( ( E ~ ~ ~ Y A A A A A A A A A A A A A A A A A A A A A A A A A A A A A A A A A A A A A A A A A A A A A A A A A A A A A A A A A A A A A A A A A A A A A A A A A A A A A A A A A A A A A A A A A A A A A A A A A A A A A A A A A A A C C A ~ ~ ~ A A A A A ~ D C C A ~ ~ ~ A C A D ~ ( ~ ~ H D @.6.=.=.=.=.=.=.=.>.>.>.,.,.=.>.=.=.=.@.Z C C &.=.=.=.' / D D } =.>.@.=.=.>.=.X...k :     . . . . . . +   + @ X ^ k.a.1.=.=.=.1.1.| 8 @ O O X 0 6 ' ,.@.>.@.=.>.@.@.| =.| ' ' ' ` ` ' ` ` ` ~ ~ ~ ~ ~ ~ Q Y Y C C C C M M M m x a y 6 4 5 : # # X X X X X X X X X                                   ",
"                                                                5 j j r i d d k P d X   O   X X @ # ~ ] ( &.] E ~  .`  .&.| =.=.&.&.&.;.;.=.=.=.>.>.=.=.=.=.=.=.>.>.>.=.=.=.>.>.=.=.=.=.>.>.>.=.>.>.>.>.=.=.=.>.=.=.=.=.>.>.>.>.=.=.=.=.=.=.&.( ( ' ~ C A A C Y A A A A A A A A A A A A A A A A A A A A A A A A A A A A A A A A C C ~ ( ~ A C A ~ ' ` ( ` ~ ;.>.=.>.>.>.>.>.=.=.;.1.;.c.!.Y.}.g.,.&.,.=.=.J.W.,.,.1.>.R.!.!.R.!.[.[.R.V.R.oXoX.Xi...V.[.[.@XV.oXT.W.^.!.@.&.=.&.=.=.=.=.=.=.=.=.=.=.=.=.=.=.=.=.=.=.=.=.=.=.=.=.>.>.>.>.>.>.=.=.=.>.=.&.,.&.m A C E ~ ~ A A C A A A A A A A A A A A A A A A A A A A A A A A A A A A A A A A A A A A A A A A A A A A A A A A A A C C C C C C A A C A A A ~ D A A C A A A A ~ ~ ( ~ ( ( ~ ~ A A A ~ ~ A A ~ ~ ~ ~ ( ~ E E A A A A A A A A A A A A A A A A A A A A A A A A A A A A A A A A A A A A B Y A B A C A ~ ~ ~ ~ ( ~ ~ A A A A A C A A D ~ ~ ( ( ~ ( ' ' ( ( ( ( ( ( ( ( ( ( ( ~ E A C A A A A A A A A A A A A A A A A A A A A A A A A A A A A A A A A A A A A A A A A A A A A A A A A A A A A A A A A A A A A A A A A A A A A A A A A A A A A A A A A A A A A A A A A A A A A A A A A A A A A A A A A A A C ~ ~ ~ ~ A A A A A A ~ A C C C ( ~ ~ A C C A D ( / ~ H H ' &.&.=.=.=.=.=.=.>.>.>.>.=.=.=.>.>.=.' C A C @.=.=.=.D A N Z / =.=.&.=. .X.-.s.X.>     . . . . . . . . . .   X ^ -.E &.-.=.| ..*.E X . . .   X X ~ -.=.1.@.| @.' @.&.( ( ' | ..| ' ` ` ` ` ~ ~ ~ ~ ~ ~ ~ Y Y C C C C C M M m x a y 6 4 5 : # # X X X X X X X X X                                   ",
"                                                                5 y 5 X   X   X P P X               ~ ] C ( *.( ] ' ' &.| ` | ' &.&.&.&.&.=.=.=.=.=.=.=.=.=.=.=.>.>.=.=.=.=.>.>.=.=.>.=.>.>.=.=.>.>.=.=.=.=.>.>.=.=.=.=.>.>.=.=.=.=.=.=.=.=.&.` ( ' ~ C A A C Y A A A A A A A A A A A A A A A A A A A A A A A A A A A A A A A A C C ~ ( ~ A C A ~ ' ` ( ` ` ;.>.=.>.>.>.>.>.=.=.=.,.&.>.,.b.-Xz.&.&.,.,.&.6.j.&.&.=.=.!.oX!.!.!.R.oXv.i.B.oXoX[.-.-.R.oX}.oXY.oX!.^.`.!.=.=.=.=.=.=.=.=.=.=.=.=.=.=.=.=.=.=.=.=.=.=.=.=.=.=.=.=.>.>.>.>.=.=.>.>.=.=.=.&.,.&.N A A A Y Y A A A A A A A A A A A A A A A A A A A A A A A A A A A A A A A A A A A A A A A A A A A A A A A A A A A A A A C C C C A A B C A ~ ( ~ ~ A N C C A ~ ` ( ~ ( ( ( ~ ~ A A A A A C A A A D A E E A A A A A A A A A A A A A A A A A A A A A A A A A A A A A A A A A A A A A A M A A C A C B E A ~ ~ ' ( ~ A A A A A C C A A A ~ ~ ~ E ~ ( ' ' ' ' ' ' ( ( ( ( ' ^ E A B C A A A A A A A A A A A A A A A A A A A A A A A A A A A A A A A A A A A A A A A A A A A A A A A A A A A A A A A A A A A A A A A A A A A A A A A A A A A A A A A A A A A A A A A A A A A A A A A A A A A A A A A A A A A ~ ' ( ~ C C A A A ~ ~ ~ A A A ( ~ ~ A C C A A ( ( / ~ / H H ' =.=.=.=.=.=.=.=.>.>.>.=.>.>.>.=.' Z A Z @.;.=.=.` H A D | =.1.=.-.-.-.X.p.T       . . . . . . . . . .   # [ ] 5   X   X M p.^   . . &   X   ^ g.' -.&.&.=.@.&.&.....' ' ` ' ' ' ` ` ~ ~ ~ ~ ~ ~ Q Q Y Y A C C C C M M m x p y 4 4 5 : # # X X X X X X X X X                                   ",
"                                                                0 u 5           d d +   X       # 5 [ *.] ] ] ....] ' ..' &.i.&.&.&.&.&.&.=.=.=.=.=.=.=.=.=.=.=.>.>.=.=.=.=.>.>.=.=.>.>.>.>.=.=.>.>.=.=.=.=.>.>.>.=.>.>.>.>.=.=.=.=.=.=.=.=.&.` ( ' ~ C A A C Y A A A A A A A A A A A A A A A A A A A A A A A A A A A A A A A A C C ~ ~ ~ A C A ~ ' ` ( ` ` ;.,.>.>.>.>.=.>.=.=.,.,.;.;.] l.=Xz.=.&.,.,.&.=.,.&.&.1.g.!.!.!.!.!.R.+Xk...b.+XoXoXa.-.V.}.}.oXR.R.^.!.T.U.=.,.=.=.=.=.=.=.=.=.=.=.=.=.=.=.=.=.=.=.=.=.=.=.=.=.=.=.>.>.>.>.=.=.=.>.=.=.=.=.,.&.A A A A C C A A A A A A A A A A A A A A A A A A A A A A A A A A A A A A A A A A A A A A A A A A A A A A A A A A A A A A A C C A A A A A ~ ~ ' ' ~ A A A C C ~ ( ' ` ( ( ( ~ A A A A A C C C A A C C B C C C A A C C A A A A A A A A A A A A A A A A A A A A A A A A A A A A A A A A B A A C Y C B E A ~ ( ' ( A A A A A D A C A A A E ~ E A Y ~ ( ( ( ( ( ( ( ( ( ( ( ~ A B C A A A A A A A A A A A A A A A A A A A A A A A A A A A A A A A A A A A A A A A A A A A A A A A A A A A A A A A A A A A A A A A A A A A A A A A A A A A A A A A A A A A A A A A A A A A A A A A A A A A A A A A A A A A A ~ ' ' ~ A A A A A ~ ~ ~ D A A ~ ~ D A A A D H ` ' ` ` ' A N / =.=.=.=.=.=.=.>.=.=.=.>.>.#.=.>.' C H Z @.=.=.=.~ A N A ' =.,.-.-.-.-.-.h.[ X * . . . . . . . . . $ .   * W T X X X     P p.[ X . . & . + X ~ *.-.a.&.;.,.&.&.+.( ....' ( ` ' ` ` ` ~ ~ ~ ~ ~ ~ Q Q Y Y A C C C C M M m x p y 4 4 5 : : # X X X X X X X X X                                   ",
"                                                                X # X   X X   X X #     .   .       O M ] T X X # X @ @ 5 ~ *.] &.&.&.=.=.=.=.=.=.=.=.=.=.=.=.=.>.=.=.=.=.>.>.>.>.>.>.>.=.=.=.=.>.=.=.=.>.>.>.>.>.>.>.>.=.=.=.=.=.>.>.=.=.=.&.` ( ' ~ C A A C Y A A A A A A A A A A A A A A A A A A A A A A A A A A A A A A A A C C A Y A C C A ~ ' ` ( ` ` =.,.>.>.>.>.=.=.=.=.>.;.,.g.;.,.z.;.,.=.=.>.=.=.=.;.6.T.T.*X!.^.^.W.oX-Xk.=.B.-X+X+X-...i.k.Y.oXoXR.!.U.g.g.&.,.;.=.=.=.=.=.=.=.=.=.=.=.=.=.=.=.=.=.=.=.=.=.=.=.=.=.=.>.=.=.>.=.>.>.=.&.,.=.,.@.A A A A B B C A A C A A A A A A A A A A A A A A A A A A A A A A A A A A A A A A A A A A A A A A A A A A A A A A A A A A C C A A E E ~ ~ ~ ( ' ' ( ~ ( ~ ~ A ~ ' ' ( ( ~ ~ A C C A D A C C A A A C C C C A A A A C B A A A A A A A A A A A A A A A A A A A A A A A A A A A A A A A A A A B B Y C B ~ ~ ~ ( ' ~ A C A A ~ ~ A C A A C A E Y A A E E E Y Y Y Y E E E Y E A C A A E A A A A A A A A A A A A A A A A A A A A A A A A A A A A A A A A A A A A A A A A A A A A A A A A A A A A A A A A A A A A A A A A A A A A A A A A A A A A A A A A A A A A A A A A A A A A A A A A A A A A A A A A A A A ~ ~ ( ( ~ ~ A C A A A A C A C E A A C A E ~ / ` ' ` ( ' D N / =.>.>.>.>.>.>.>.=.=.>.>.&.| @.>.' A D Z | =.,.-.~ A m E ..,.i.-.: # X k f.[     . . . . . . . . . . . . + f e     O X     * *   . . .   X   5 5 ] ^ 4 # < @ 5 1 ; k ( &.&.| ' ` ( ` ~ ~ ~ ~ ~ ~ Q ~ Y Y C C C C M M M m x a y 6 4 5 : # # X X X X X X X X X                                   ",
"                                                                                  X     X       + X O w [ v   @ X   X   @ Y ] ..&.&.&.=.=.=.=.=.=.=.=.=.=.=.=.=.>.>.=.=.=.=.>.>.>.>.>.>.=.>.=.=.=.=.=.=.>.=.>.>.>.>.>.>.=.=.=.=.=.>.>.=.=.=.&.` ( ' ~ C A A C Y A A A A A A A A A A A A A A A A A A A A A A A A A A A A A A A A A C C C C C C C ~ ' ` ( ` ` =.,.>.>.>.>.=.=.=.=.-.&.>.g.;.;.,.;.,.=.&.=.>.>.=.=.1.U.Y.*XT.!.^.!.!.T.s.=.k.B.W.oX,...X.,.k.T.oXR.!.M.=.=.&.,.;.=.=.=.=.=.=.=.=.=.=.=.=.=.=.=.=.=.=.=.=.=.=.=.=.=.>.>.=.=.=.=.>.>.=.&.,.=.&.' A A A A B B C A A C A A A A A A A A A A A A A A A A A A A A A A A A A A A A A A A A A A A A A A A A A A A A A A A A A A C C A E ~ ~ ' ( ( ( ( ( ( ~ ' ( ~ A D ~ ( ~ ~ ~ A C C C A D A A A A A A A A A A A A A A C C A A A A A A A A A A A A A A A A A A A A A A A A A A A A A A A A A A B C E A A ~ ( ( ( ' ~ D A ~ ~ ~ ~ A C A A C A A A A A Y A B C C C C A A C C C B C A A A A A A A A A A A A A A A A A A A A A A A A A A A A A A A A A A A A A A A A A A A A A A A A A A A A A A A A A A A A A A A A A A A A A A A A A A A A A A A A A A A A A A A A A A A A A A A A A A A A A A A A A A A A A A A A ~ ( ( ~ A A A A A C A A A ~ A C C A ~ ` ` ` ( ` ` ` / ~ ` =.>.>.>.>.>.>.>.=.=.=.=.@.` ' =.' Z A N | >.-...~ Y B Y ^ ' ( [ X     > [ [ + . . . . . . . . . . . . . . .         . .   . & $ $ . .   +   X   T P X   O O O O   # M ( ] ' ( ' ( ` ~ ~ ~ ~ ~ ~ ~ ~ Y Y C C C C M M M m x a y 6 4 5 : : # X X X X X X X X X                                   ",
"                                                                O @     X O       +     .         X X   + X   # X   X     @ : E &.&.&.=.=.=.>.>.>.>.=.=.=.=.=.=.=.=.=.=.=.=.=.=.=.>.>.>.>.>.>.>.>.=.=.=.=.=.=.=.=.=.>.>.>.=.>.>.=.>.>.=.=.=.&.` ( ' ~ C A A C Y A A A A A A A A A A A A A A A A A A A A A A A A A A A A A A A A A A A A C C C C ~ ' ` ( ` ` =.>.=.>.>.>.=.=.=.=.=.&.;.&.&.=.,.6.=.,.=.&.>.>.=.=.&.6.6.!.!.!.!.^.M.a.=.=.-.2.M.oX2.-.=.-.-.j.T.T.!.J.=.=.=.6.=.,.=.=.=.=.=.=.=.=.=.=.=.=.=.=.=.=.=.=.=.=.=.=.=.=.>.>.=.=.=.>.=.=.,.&.,.&.` ~ A D A A A A C A C A A A A A A A A A A A A A A A A A A A A A A A A A A A A A A A A A A A A A A A A A A A A A A A A A A A A A Y E ~ ( ' ( ( ( ( ( ( ( ( ~ ~ C C A D A ~ A A C A A A A A A A A A A A A A A A A A A A A A A A A A A A A A A A A A A A A A A A A A A A A A A A A A A A A A A B E ~ E A ~ ' ( ( ( ( ~ ~ ~ ~ ( ~ A C A A C A A A C C A A B A A A A A A A A B C A A A A A A A A A A A A A A A A A A A A A A A A A A A A A A A A A A A A A A A A A A A A A A A A A A A A A A A A A A A A A A A A A A A A A A A A A A A A A A A A A A A A A A A A A A A A A A A A A A A A A A A A A A A A A A A A A ~ ' ' ~ A ~ ~ ~ A C ~ ~ ~ ~ ~ A C A D / ` ` / ~ D D ` &.@.>.>.>.>.>.>.>.>.=.| ' | ' / ` | ` N A N &.>...E Y M M d 0 # @ #     X   X o   & . . . . . . . . . $ $ . .     . &     . . . $ . . . . . *   +   X #   O +       X   ; M ^ ^ ( ' ( ( ( ~ ~ ~ ~ ~ ~ ~ Y Y C C C C M M M m x a y 6 4 5 : # # X X X X X X X X X                                   ",
"                                                                        O         .     .   . .     +     # X       X         [ &.&.&.=.=.=.>.>.>.>.=.=.=.=.=.=.=.=.=.=.=.=.=.=.=.>.>.>.>.>.>.>.>.=.=.=.=.=.=.=.=.=.>.>.>.>.>.>.=.>.=.=.=.=.&.` ( ' ~ C A A C Y A A A A A A A A A A A A A A A A A A A A A A A A A A A A A A A A C A A A Y A A B ~ ' ` ( ` ` =.>.=.>.>.>.=.=.=.=.&.,.1.=.,.,.&.=.=.1.1.=.>.>.=.=.=.=.&.^.*XW.Y.^.M.=...-.....k.-X=.-.-.-. .=.B.T.T.M.&.=.=.,.&.>.=.=.=.=.=.=.=.=.=.=.=.=.=.=.=.=.=.=.=.=.=.=.=.=.>.>.=.=.>.>.=.=.,.&.=.| D A Z D A A A A A B C A A A A A A A A A A A A A A A A A A A A A A A A A A A A A A A A A A A A A A A A A A A A A A A A A A A A A E ~ ( ' ( ( ( ( ~ ~ ( ( ( ` ~ A C A A A A A A A D A A C C C A A C C A A A A A A C A A A A A A A A A A A A A A A A A A A A A A A A A A A A A A A A A A A C C B E ( E A ~ ( ~ ~ ( ' ( ( ( ~ ( ~ A C A A C A A A B B A Y A C A A A A A C C B A A A B B A A A A A A A A A A A A A A A A A A A A A A A A A A A A A A A A A A A A A A A A A A A A A A A A A A A A A A A A A A A A A A A A A A A A A A A A A A A A A A A A A A A A A A A A A A A A A A A A A A A A A A A A A A A A ~ ~ ' ( ~ C ~ ~ ~ C C ~ ` ( ( ~ E C C A ~ ` ' H A N N ' 1.=.>.>.>.>.>.>.>.>.=.` H / ` ` ` ` ` N A Z &.>.( M C Y Y M *     + . . &   . +     . . . . . . . . . . . . . X   .   . & $ . . $ $ . . .   .   +     +   O .   . + X     M ] ] ( ( ( ( ( ~ ~ ~ ~ ~ ~ ~ Y Y C C C C M M M m x a y 6 4 5 : # # X X X X X X X X X                                   ",
"                                                                                            . .     . . . . . . . X     +   X W :.;.&.,.| =.=.@.>.>.>.>.=.=.=.=.=.>.=.=.=.=.=.=.>.>.>.=.=.=.>.>.>.>.=.=.=.=.=.=.>.>.=.=.=.=.>.>.=.=.>.=.=.=.&.` ( ' ~ C A A C Y A A A A A A A A A A A A A A A A A A A A A A A A A A A A A A A A A C ~ ' ~ A A A ( ( ` ~ ` ' &.,.=.>.>.=.=.=.=.=.=.=.=.=.=.=.=.=.>.>.>.>.=.=.=.>.1.=.,.^.!.Q.T.*XU.1. .=.=.&.j.-X,.,.>.=.=.=.=.=.=.=.=.=.=.=.=.=.,.=.,.1.=.=.,.=.=.=.=.=.=.=.=.=.=.=.=.=.=.=.=.=.` A ` ,.=.&.=.&.=.| D A ~ ( ( ' A A A A A A A A A A A A A A A A A A A A A A A A A A A A A A A A A A A A A A A A A A A A A A A A A A A B C A A B A C A A A B Y ( ( ' ' ( ~ A ~ ( ~ A C A A C C A ( ~ ~ ( ( ~ A N A A A A A A A A A A A A A A A A A A A A A A A A A A A A A A A A A A A A A A A A A A A A A A A A A A A A Y ~ ( ' ' ` ` ( ( ( ( ( ~ ~ A C C A A A A A A A A A A A C A A A A A A A A A A A A A C B A A A A A A A A A A A A A A A A A A A A A A A A A A A A A A A A A A A A A A A A A A A A A A A A A A A A A A A A A A A A A A A A A A A A A A A A A A A A A A A A A A A A A A A A A A A A A A A A A A A A A A A A A ( | ( ~ ( ( ( ' ( E C ~ ' ' ` ( ~ ~ A C C A A A A Z m A ' =.,.=.| / H / &.=./ ` ` ( ` ` ( ( ` ` ' ` A ( ,.^ Y ^ M : X     .   . . . . . . . . . . . . . . . . . . . . . .       . . . . . . . . . . . . . .   O O . . . . . .       u ] ..( ( ~ ( ( ~ C ~ ' Y ~ Y Y Y C M C Y M M m x a s y 4 4 5 : : # X X X X X X X X       X                             ",
"                                                                                            . .     . . . . . .   X     +     P ^ ~ ~ >.&.=.=.=.=.| &.,.=.=.>.=.=.>.>.>.=.=.=.=.>.>.>.=.=.=.>.>.>.>.=.=.=.=.=.=.>.>.=.=.=.=.>.>.=.=.=.=.=.=.&.` ( ' ~ C A A C Y A A A A A A A A A A A A A A A A A A A A A A A A A A A A A A A A A C ~ ( ~ A A A ( ( ` ~ ` ' &.,.>.>.>.>.=.=.=.=.=.=.=.=.=.=.=.=.>.>.>.>.=.=.>.>.&.@.1.`.^.`.U.U.j.,.&.=.=.=.M.wX,.>.>.=.=.=.=.=.=.=.=.=.=.=.=.=.=.=.=.&.' &.,.=.=.=.=.=.=.=.=.=.,.,.=.&.&.=.=.,.` Z ` ,.,.=.,.=.,.;.` D ~ ~ ~ ~ A A A A A A A A A A A A A A A A A A A A A A A A A A A A A A A A A A A A A A A A A A A A A A A A B A B B C A A C A B A A A C A ~ ~ ( ~ ~ ~ ~ ~ ~ ~ A C A A C C A ' ( ( ( ' ( ~ C A A A A A A A A A A A A A A A A A A A A A A A A A A A A A A A A A A A A A A A A A A A A A A A A A A A A A E ~ ~ ~ ~ ~ ( ( ~ ~ ~ ~ ~ A C A A A A A A A A A A A A A A A A A A A A C C C A A A A A A A A A A A A A A A A A A A A A A A A A A A A A A A A A A A A A A A A A A A A A A A A A A A A A A A A A A A A A A A A A A A A A A A A A A A A A A A A A A A A A A A A A A A A A A A A A A A A A A A A A A A A A A ( ' ( ~ ( ( ( ( ~ A A ~ ' ' ( ( ~ ~ ~ E A A A A ~ ~ ~ / ' &.&.&.' ` ` | ,.,.' ` ( ( ~ ( ( ' ( ' ' / B ( i.^ M M w + O . . . . . . . . . . . . . . . . . . . . . .   . . . .       . . . . . . . . . . . . . . . . . . . . . . + X @ u T W Y ^ ( ( ( ( ~ Y Y ( ~ Y Y Y C C C Y M M m x a s y 4 4 5 : : # X X X X X X X X       X O                           ",
"                                                                                              .       .           .     +     e # # a &.;.,.=.=.@.D / >.=.&.=.=.=.>.>.>.>.>.=.=.>.>.>.>.=.=.=.>.>.>.>.>.>.>.=.>.>.>.>.>.=.=.=.>.=.=.=.=.=.=.&.` ( ' ~ C A A C Y A A A A A A A A A A A A A A A A A A A A A A A A A A A A A A A A A C ~ ( ~ A ~ ~ ( ( ` ` ` ' &.,.>.>.>.>.>.>.=.=.>.>.>.>.=.>.>.>.>.>.>.>.>.>.>.>.=.>.6.W.!.*Xc.=.1.>.=.=.=.>.M.-X>.>.>.=.>.=.=.=.=.=.=.=.=.=.=.=.=.=.=.' H ' ,.=.=.=.=.=.=.=.=.=.&.=.,.,.=.=.&.&.' A ` ,.=.=.,.;.,.=.' ~ ( ~ A A A A A A A A A A A A A A A A A A A A A A A A A A A A A A A A A A A A A A A A A A A A A A A A A A B B B B A E ~ E A C B A A A A A A A A A ~ ~ ~ D A C C A A A A A ( ( ( ( ( ~ H A A A A A A A A A A A A A A A A A A A A A A A A A A A A A A A A A A A A A A A A A A A A A A A A A A A A A A A A A A A ~ ` ` ~ A A ~ A C C A A A A A A A A A A A A A A A A A A A A Y A A A A A B B A A A A A A A A A A A A A A A A A A A A A A A A A A A A A A A A A A A A A A A A A A A A A A A A A A A A A A A A A A A A A A A A A A A A A A A A A A A A A A A A A A A A A A A A A A A A A A A A A A A A A A A A A ~ ' ( ` ( ( ( ( ~ ~ A ~ ( ( ( ( ~ ~ ~ ~ ~ H D H ` @.&.@.| ' ` | ` ' &.&.=.=.' ( ' ' ( ( ' ] ( ' ( E M ' ,.M X # @ X . . . . . . . . . . . . . . . . . . . . . .   . .     .         . . . . . . . . . . . . . . . . . . . . .         # X # i ^ ( ^ ( ( m i Y ( Y Y Y Y C C C M M m x a s y 4 4 5 : # # X X X X X X X X X                                   ",
"                                                                                                      .           + .   . .   .   O O M Y &.=.=.@.N H ,.>.&.=.=.=.>.>.>.>.>.>.=.>.>.>.=.=.=.=.=.>.>.>.>.>.>.>.>.>.>.>.>.=.=.>.>.=.=.>.=.=.=.&.` ( ' ~ C A A C Y A A A A A A A A A A A A A A A A A A A A A A A A A A A A A A A A A C ~ ( ~ A ~ ( ( ( ` ` ` ' &.,.=.>.>.>.>.>.=.=.>.>.>.>.=.>.>.>.>.>.>.>.>.>.>.>.,.1.,.j.c.`.c.' =.>.>.=.&.=.6.M.>.>.>.=.>.=.=.=.=.=.=.=.=.=.=.=.&.,.=./ Z ' ,.=.=.=.=.=.=.=.=.=.=.=.=.,.,.=.=.=.` A ` =.=.=.,.&.&.&.( ~ ' ~ A C A A A A A A A A A A A A A A A A A A A A A A A A A A A A A A A A A A A A A A A A A A A A A A A A B A A A E ( ( ( ~ Y B B A A A B A C C A ~ ( ~ A C A A ~ ~ ~ A A ~ ~ ~ ~ ~ ~ A C A A A A A A A A A A A A A A A A A A A A A A A A A A A A A A A A A A A A A A A A A A A A A A A A A A A A A C C B C C A ~ ~ A C C A A A A A A A A A A A A A A A A A A A A A A A A A A A A A C B B A A A A A A A A A A A A A A A A A A A A A A A A A A A A A A A A A A A A A A A A A A A A A A A A A A A A A A A A A A A A A A A A A A A A A A A A A A A A A A A A A A A A A A A A A A A A A A A A A A A A A A A A A ~ ( ( ( ( ( ( ' ( ~ A A ~ ~ ( ( ( ( ( ( ( ~ / / @.,.1.=.@.` ~ ` ~ ( ....' ( E E ^ ^ ^ ^ ^ ^ E E E Y C *.i.d       . . . . . . . . . . . . . . . . . . . . . . . . . .     . . . . . . . . . . . . . . . . . . . . . . . . . .   .           : j E ^ ^ ^ i 3 Y ~ ~ Y Y Y A C C M M m x a s y 4 4 5 : # # X X X X X X X X X                                   ",
"                                                                                                                  + .     X .   + + O O @ ( >.>.@.D H >.,.=.,.,.=.>.=.=.>.>.>.>.=.=.=.=.>.>.=.=.>.>.>.>.>.>.>.>.=.=.=.>.>.>.>.>.=.=.=.=.=.=.&.` ( ' ~ C A A C A A A A A A A A A A A A A A A A A A A A A A A A A A A A A A A A A A C ~ ( ~ A ~ ( ( ( ` ` ` ' &.,.=.>.>.=.>.>.>.>.>.>.>.>.>.>.>.>.>.>.>.>.>.>.>.>.=.>.&.>.1.!.J.&.=.=.=.&.=.=.=.=.=.=.=.=.=.=.=.=.=.=.=.=.=.=.=.=.&.,.,./ Z ' ,.=.=.=.=.=.=.=.=.=.6.,.&.&.=.,.,.1.~ A ` =.=.>.1.=.( ' ( ` ' ~ A C A A A A A A A A A A A A A A A A A A A A A A A A A A A A A A A A A A A A A A A A A A A A A A A A C A Y E ~ ( ' ( ( E C B C A A C A A A ~ ' ' ~ A C A ~ ( ( ( ~ C C A A A A A A C A A A A A A A A A A A A A A A A A A A A A A A A A A A A A A A A A A A A A A A A A A A A A A A A A A A A A A A C A C A A A C C A A A A A A A A A A A A A A A A A A A A A A A A A B B B A A A Y Y A A A A A A A A A A A A A A A A A A A A A A A A A A A A A A A A A A A A A A A A A A A A A A A A A A A A A A A A A A A A A A A A A A A A A A A A A A A A A A A A A A A A A A A A A A A A A A A A A A A A A A A A ~ ~ ( ( ( ( ( ( ' ( ~ A A D ~ ( ( ( ( ( ( ( ( ` ` | =.,.=.@.` / ' ~ ( ' ( E A M T ^ ] ] ] ] [ W M C Y Y *.i.P     . . . . . . $ . . . . . . .       . . . . . . . . . . . . . . . . . . . . . . . . . . . .   .         . . . . . + . .       #   B ( ~ E M i E Y Y Y Y Y Y Y C M M m x x s y 4 4 5 : # X X X X X X X X X   X                                 ",
"                                                                                                        . . . . X X .     X X . . & O O X _ >.@.` / H ` =.=.=.=.=.>.>.=.>.>.>.>.=.=.=.=.>.=.=.=.>.>.>.>.>.>.=.=.=.=.=.=.>.>.>.=.=.=.=.=.=.=.&.` ( ' ~ C A A C Y A A A A A A A A A A A A A A A A A A A A A A A A A A A A A A A A C C ~ ( ~ A ~ ( ( ( ` ` ` ' &.,.=.>.>.=.>.>.>.>.>.>.>.>.>.>.>.>.>.>.>.>.>.>.>.>.&.=.&.>.=.J.l.&.=.=.=.=.,.,.=.@.=.=.=.=.=.=.=.=.=.=.=.=.=.=.=.=.=.,.=./ A ' ,.=.=.=.=.=.=.=.=.=.&.| | &.,.,.&.' ' / @.,.&.&.;.| ~ ( ` ` ' ~ C C A A A A A A A A A A A A A A A A A A A A A A A A A A A A A A A A A A A A A A A A A A A A A A A A C A A A E ( ( ~ ~ E A B A E E A A A A ~ ( ( ~ C A ~ ( ' ' ( ~ C C C A A A A A A A A A A A A A A A A A A A A A A A A A A A A A A A A A A A A A A A A A A A A A A A A A A A A A A C A A A A A A A A A C A A C C A A A A A A A A A A A A A A A A A A A A A A A A Y E E E E A A C B A A A A A A A A A A A A A A A A A A A A A A A A A A A A A A A A A A A A A A A A A A A A A A A A A A A A A A A A A A A A A A A A A A A A A A A A A A A A A A A A A A A A A A A A A A A A A A A A A A A A A A A A D ~ ~ ( ( ( ( ( ~ ~ A C C A ~ ' ( ( ` ` ( ( ( ( ` ` ' &.@.' ` ` ' ~ ( ( E Y B s a M P Y Y U M d M Y M y P ^ p X X . . . . . . $ . . . . . . .       . . . . . . . . . . . . . . . . . . . . . .     . . . . . . . . . . X X X X   .               B ] E C B M B C Y Y Y A A C C M M m x x s y 4 4 5 : # X X X X X X X X X       X                             ",
"                                                                                                        X X X X X X X X     X   . + . + # _ ] Y A ' D N ' =.&.=.=.>.=.=.=.=.>.=.=.=.>.>.>.>.=.=.>.>.=.>.=.=.=.=.=.=.=.>.>.>.=.=.=.=.=.=.=.=.&.` ( ' ~ C A A C Y A A A A A A A A A A A A A A A A A A A A A A A A A A A A A A A A C C ~ ' ~ C ~ ( ( ( ` ` ` ' &.,.=.>.=.=.=.=.>.>.>.>.>.>.>.>.>.>.>.>.>.>.>.>.>.>.>.,.>.1.@.1.>.&.=.=.=.=.,.,.=.=.=.=.=.=.=.=.=.=.=.=.=.=.=.=.=.=.=.=.&.~ A ' ,.=.=.=.=.=.=.=.=.=.` / ` &.,.=.` m @.' =.1.' ` ' / ~ ( ( ` ' ~ C C A A A A A A A A A A A A A A A A A A A A A A A A A A A A A A A A A A A A A A A A A A A A A A A A B A A A A ~ ~ E A A A A E ~ ~ E A A A A A A A C ~ ` ( ( ( ( ~ C A A A A C C A A A A A A A A A A A A A A A A A A A A A A A A A A A A A A A A A A A A A A A A A A A A A A A A A A A A A A A A A A A A C A A C C A C A A A C C A A A A A A A A A A A C A B A A Y E ' ( ( ~ E A B B A A A A A A A A A A A A A A A A A A A A A A A A A A A A A A A A A A A A A A A A A A A A A A A A A A A A A A A A A A A A A A A A A A A A A A A A A A A A A A A A A A A A A A A A A A A A A A A A A A A A A A A A A A ~ ~ ~ ~ ~ ~ ~ A A A A A ~ ( ~ ~ ~ ~ ( ( ` ~ ` ~ H / ` ` ` ` ( ~ ^ E C C m #     X O X X O   u M M @ X w X   X X . . . . . . . . . . .           . . . . . . . . . . $ $ . . . . . . . . . .                 o o + X @ @ @ + . . . . X X     X M W I m M M s m C ~ Y C C C C M M m x a s y 4 4 5 : # # X X X X X X X X       X                             ",
"                                                                                                      X X X X X X   X X         + +       U Y M M &.~ b ' ,.=.,.>.>.=.=.=.=.=.=.=.=.=.>.>.>.=.=.=.=.=.=.=.=.=.=.=.=.=.>.>.>.=.=.=.=.=.=.=.=.&.` ( ' ~ C A A C Y A A A A A A A A A A A A A A A A A A A A A A A A A A A A A A A A C M ~ ' ~ C ~ ( ( ( ` ` ` ' &.,.>.>.=.=.=.=.>.>.>.>.>.>.>.>.>.>.>.>.>.>.>.>.=.=.>.>.=.1.| =.=.,.,.=.=.=.=.&.=.,.=.=.=.=.=.=.=.=.=.=.=.=.=.=.=.=.,.&.' H A ` ,.=.=.=.=.=.=.=.=.=.=.' ~ ` &.&.` A ` ` &.,.( / ' ` ~ ( ( ( ' ~ A A A A A A A A A A A A A A A A A A A A A A A A A A A A A A A A A A A A A A A A A A A A A A A A A A C Y Y C A E E A m B A E ~ ( ( ~ ~ ~ ~ A C C A ~ ~ ( ( ` ~ ` ~ C A A A A C C C A A A A A A A A A A A A A A A A A A A A A A A A A A A A A A A A A A A A A A A A A A A A A A A A A A A A A A A A A A C C A A C C A A A A A C C C A A A A A A A A A C C B B A A E E ~ ~ ~ ~ ~ ~ E E A A A A A A A A A A A A A A A A A A A A A A A A A A A A A A A A A A A A A A A A A A A A A A A A A A A A A A A A A A A A A A A A A A A A A A A A A A A A A A A A A A A A A A A A A A A A A A A A A A A A A A A A C C D ~ ~ ~ ~ ~ A A ~ ~ E C A ~ ~ ~ ~ ( ( ( / ~ ` A N A ~ / ~ ` ~ ~ ~ Y M M 0   O X X     X X   @ r p     X   . . . . . + $ . . . . . . .           . . . . . . . . . . $ $ . . . . . . . . . . .   . . .   .   + + + + + + + +   . .             5 k k y M B a s C ~ Y C C C C M M m x a s y 4 4 5 : # # X X X X X X X         O                             ",
"                X                                                                                   .   X X X X X X                 O O     q P T ] ' B ' j.>.#.>.=.=.=.=.=.>.,.,.;.=.,.=.>.,.=.>.;.,.,.=.=.,.=.=.=.=.=.=.=.=.=.=.>.>.=.=.=.&.( ( ( ~ C C C C C A A A A A A A A A A A A A A A A A A A A A A A A A A A A A A A A C C ~ ( ~ A E ' ( ( ` ` ` ' &.,.>.>.>.>.>.>.>.>.>.>.>.>.>.>.>.>.>.>.>.>.=.=.=.=.=.=.=.=.=.=.=.>.>.>.>.>.>.>.=.=.1.@.=.,.&.&.,.,.,.=.=.=.=.>.=.=.>.&.C m D ' ,.=.=.1.&.=.,.=.>.#.>.,.&.m H ,.` A A m ( ,.' ( | ~ ( ( ( ( ( ~ A C B C A A A C A A A A A A A A A A A A A A A A A A A A A A A A A A A A A A A A A A A A A A A A A C I I I A A A C A A A ~ ` ` ~ ~ ( ' ' ( Y B B ~ ( ' ( ` ( ' ` D A A A A A A A A A A A A A A A A A A A A A A A A A A A A A A A A A A A A A A A A A A A A A A A A A A A A A A A C C Y Y C C A Y Y C A B C A A A A A A A A A A A A A A A A A A A A A A A A A A E ( ' ' ~ B C ( ' ' ^ A A A A A A A A A A A A A A A A A A A A A A A A A A A A A A A A A A A A A A A A A A A A A A A A A A A A A A A A A A A A A A A A A A A A A A A A A A A A A A A A A A A A A A A A A A A A A A A A A A A A A A A A A A A A A A A A A A ~ ( ~ A C Y C D ~ ' ' ~ D C A A C A A ~ ( ' ' M I W P 2     O       . . . . .   O   . . . . . . . . . . . . . . . . . . . . . . . . . . . . . . . . . . . . . . . . . . . . . . . . . . .   + o o o o X X X . . . .         O O O 1 v Y U v a ~ T M C C M ~ M M m x s y t 0 0 5 # # # X X X X X X X X X                                   ",
"                X                                                                                   . . X X X X o X X X X X X X X           + f 2 w 0 4 E =.&.6.>.>.>.>.=.=.>.>.>.;.>.,.&.=.>.&.=.-.=.@.` ' >.>.=.=.=.=.=.=.=.=.=.>.=.=.=.=.&.` ( ( ~ C C C C C A A A A A A A A A A A A A A A A A A A A A A A A A A A A A A A A C C ~ ( ~ A E ' ( ( ` ` ` ' &.,.>.>.>.>.>.>.>.>.>.>.>.>.>.>.>.>.=.=.=.=.=.=.=.=.=.=.=.=.=.=.=.>.>.>.>.>.>.>.=.=.` / &.1.=.=.,.&.=.=.=.>.>.>.=.&.,.@.A ~ ' &.,.@.` =.=.>.<.=.>.>.=.>.@.N / ,.` N ~ C ' >.' ~ ' ( ~ ~ ( ( ~ D C B A A A A A C A A A A A A A A A A A A A A A A A A A A A A A A A A A A A A A A A A A A A A A A A C I I I A A A A A C C A ~ ' ` ` ' ~ ~ E C B B E ( ` ~ E ~ ~ ` / ~ A A A A A A A A A A A A A A A A A A A A A A A A A A A A A A A A A A A A A A A A A A A A A A A A C A E E C C C C Y C A Y Q ~ ^ ( ~ A A A A A A A A A A A A A A A A A A A A A A A A A A C C A ~ ' A E ^ ^ E Y E E A A A A A A A A A A A A A A A A A A A A A A A A A A A A A A A A A A A A A A A A A A A A A A A A A A A A A A A A A A A A A A A A A A A A A A A A A A A A A A A A A A A A A A A A A A A A A A A A A A A A A A A A A A A A A A A A B A ~ ( ( E A A C A ~ ~ ~ ~ A A A C C A A ~ ~ ~ ( Y E d # + . . .     . . . . . . . . . . . . . . . . . . . . . . . . . . . . . . . . . . . . . . . . . . . . . . . . . . . . . . . . . . . . . & & + + o + X X   . X + + X X .       O # 1 1 # 1 C T C Y Y M C m M m x a s t 0 0 5 # # # X X X X X X X X X                                   ",
"                O                                                                                   . . X X o X X X X X . X X + +         . . .       @ Y -.&.1.>.>.>.>.=.=.=.;.*.;.>.,.=.=.,.,.=.>.=.` A ` =.>.=.=.=.=.>.>.=.=.=.>.>.=.=.=.&.` ( ( ~ C C C Y A A A A A A A A A A A A A A A A A A A A A A A A A A A A A A A A A A C ~ ( ~ A D ( ( ( ` ` ` ' &.>.=.>.>.>.>.>.>.>.>.>.>.>.>.>.>.>.=.=.=.=.=.=.=.=.=.=.=.=.=.=.=.=.=.>.>.>.>.=.=.=.A D ' ,.=.>.,.=.=.=.>.,.=.=.=.=.=.' A | ,.=.&./ Z &.=.,.>.@.>.>.>.>.' Z ` =.( C A C ' >.' ( ' ( C A ~ ~ ~ A C A A A A C C A A A A A A A A A A A A A A A A A A A A A A A A A A A A A A A A A A A A A A A A A A C I I Y C C A A A A A A ~ ' ' ` ` ~ A C B C A ~ ( ( ~ E A E ` ` ' A A A A A A A A A A A A A A A A A A A A A A A A A A A A A A A A A A A A A A A A A A A A A A A A B E ~ ~ A C A ~ C A A A Y ~ ( ' ( E A A A A C A A A A A A A A A A A A A A A A A A A A B B A ~ ( B ~ ' ( A m B A A A A A A A A A A A A A A A A A A A A A A A A A A A A A A A A A A A A A A A A A A A A A A A A A A A A A A A A A A A A A A A A A A A A A A A A A A A A A A A A A A A A A A A A A A A A A A A A A A A A A A A A A A A A A A A A A B A E ( ' ~ A C A A C A A A A D C C C A A A A A ~ ' [ 0   . + . .     . . . . . . . . . . . . . . . . . . . . . . . . . . . . . . . . . . . . . . . . . . . . . . . . . . . . . . . . . . . . . & + + + o o o +   . X + + X .       O O         O M Q Y Y Y C M M M M m a s t t 5 5 # # # X X X   X O   X X X X                               ",
"                                                                                                      . . X X X X X X X X X X + @ .   . . .       @ X   T k.>.| =.#.>.>.>.=.=.=.>.*.,.>.@.@.>.,.;.,.>.` A ( >.=.=.=.=.=.>.>.>.>.=.>.>.=.=.=.&.` ( ( ~ C C C Y Y A A A A A A A A A A A A A A A A A A A A A A A A A A A A A A A A A C ~ ( ~ A E ( ( ( ` ` ` ( &.>.=.>.>.>.>.>.>.>.>.>.>.>.>.>.>.>.=.=.=.=.=.=.=.=.=.=.=.=.=.=.=.=.=.>.>.>.>.=.=.=.A A D ` @.=.,.=.,.,.=.=.=.=.=.=.' / A &.1.&.' D Z &.>.,.>.@.>.>.>.>.` N A ` ~ A m C ' ,.-.&.' ~ m C A ~ ~ ~ ~ ~ C B B B A A A A A A A A A A A A A A A A A A A A A A A A A A A A A A A A A A A A A A A A A A A A B B C C A A A A D D G / ( ( ` ~ H A C A E ~ ( ( ' ( E A A ~ ( ' A A A A A A A A A A A A A A A A A A A A A A A A A A A A A A A A A A A A A A A A A A A A A A A A C ~ ( ( ~ ~ ~ ~ C A A A C A ~ ( ' ~ C C A A C B A A A A A A A A A A A A A A A A A A A C B Y ~ ( ( ~ E Y A C C C A A A A A A A A A A A A A A A A A A A A A A A A A A A A A A A A A A A A A A A A A A A A A A A A A A A A A A A A A A A A A A A A A A A A A A A A A A A A A A A A A A A A A A A A A A A A A A A A A A A A A A A A A A A A A A A A C A E ~ ( ( E B A A A C C A A A A A C C C A A A ` ' ] r   + + . .     . . . . . . . . . . . . . . . . . . . . . . . . . . . . . . . . . . . . . . . . . . . . . . . . . . . . . . . . . . . . . . . X X X + + + + + + + X .       O O O     O X # M ! Y C Y C M M M M m a s t 0 5 : # # # X X X   X     X X X X   O                           ",
"                                                                                      . .             .   . . X + + o o o o o o . . . $ + . . .   X O   M *...=.>.$.=.=.=.=.,.,.>.;.=.&.` ` &.&.>.>.&.~ A ' ,.=.=.=.=.=.>.>.>.>.=.=.=.=.=.=.&.` ( ( ~ A C C Y Y A A A A A A A A A A A A A A A A A A A A A A A A A A A A A A A A A C ~ ( ~ A A ( ( ( ` ` ` ' &.,.>.>.=.=.=.=.=.=.>.>.>.>.>.>.>.=.=.=.=.=.=.=.=.=.=.=.=.=.=.=.=.=.>.>.=.=.=.=.=.=./ D Z A ' =.=.=.&.=.&.=.=.&.| ' D A Z ' &.~ ~ A D =.>.=.>.#.>.>.>.>.` D A C C A A A ` ;.-.&.( A A A A ~ ~ ( ( ~ E A A B A A A C A A A A A A A A A A A A A A A A A A A A A A A A A A A A A A A A A A A A A A A A A A A A A A A A D A A ~ ` ( ~ ~ D A C A E ~ ( ( ( ~ E A A E E ~ A A A A A A A A A A A A A A A A A A A A A A A A A A A A A A A A A A A A A A C C A A A A A A A A A A ~ ` ( ( ( ~ C A A A C A E ~ ' E B B A A A C A A A A A A A A A A A A A A A A B A A A A E ~ ' ( ~ A B C A A A A A A A A A A A A A A A A A A A A A A A A A A A A A A A A A A A A A A A A A A A A A A A A A A A A A A A A A A A A A A A A A A A A A A A A A A A A A A A A A A A A A A A A A A A A A A A A A A A A A A A A A A A A A A A A A A A A A C A ~ ~ E B A A A C C C A A H A A C C A E ~ ( E T w   + . . . . . . . . . . . . . . . . . . . . . . . . . . . . . . . . . . . . . . . . . . . . . . . . . . . . . . . . . . . . . . . . . .       . X + + + & + + + X X X X . O O O O O O O # p Y Y C Y Y M M M M x s y t 0 1 # # # # X X       X X X X O O X                             ",
"                                                                                    . X X .                   . . . . . .           + & & + & * +       # 4 M g.>.>.>.>.=.>.,.,.| ' | ' ` ' =.1.,.&.~ N N ' ,.>.=.=.=.=.>.>.=.>.=.=.=.=.=.=.&.` ( ( ~ A C A Y A A A A A A A A A A A A A A A A A A A A A A A A A A A A A A A A A C C ~ ( ~ A A ( ( ( ` ` ` ' &.,.=.>.=.=.=.=.=.=.>.=.=.=.>.,.>.=.=.=.=.=.=.=.=.=.=.=.=.=.=.=.=.=.>.>.=.=.=.=.=.=.&.' H H &.,.=.=./ ` &.,.=.@./ A Z A Z / ~ C A A D =.=.=.>.>.1.>.#.1.&.&.' C C A ~ A A ~ ~ ~ A C ~ ~ ~ ~ ( ( ( ~ ( ~ E A A A C B A A A A A A A A A A A A A A A A A A A A A A A A A A A A A A A A A A A A A A A A A A A A A A A A C A A A ~ ` ` ~ D A B B A E E E A A A A C A A Y A A A A A A A A A A A A A A A A A A A A A A A A A A A A A A A A A A A A A A A A A A A A A A A A A C C ~ ( ' ( ~ A A A A A D ~ ` ( E B B A C A A A A A A A A A A A A A A A A A A B C A A A E ~ ( A A A A A B A A A A A A A A A A A A A A A A A A A A A A A A A A A A A A A A A A A A A A A A A A A A A A A A A A A A A A A A A A A A A A A A A A A A A A A A A A A A A A A A A A A A A A A A A A A A A A A A A A A A A A A A A A A A A A A A A A A A B B A E Y C C C A A A A C C ~ ~ A C C A ~ ( ( i : X   X . + . . . . . . . . . . . . . . . . . . . . . . . . . . . . . . . . . . . . . . . . . . . . . . . . . . . . . . . + $ + . . . . . .         . . . . . .         X X + X O O X X O   O X d Y Y Y Y M M M m a p t 5 5 # # # # X X X       X X O X     O                             ",
"                                                                                  . X X X X .               . .                 . . . $ & $ & * * .   X X   # i.=.=.>.>.>.=.=.&.` ~ ( ' ~ ' =.,.;.( A N Z ' ,.>.=.=.=.=.=.=.=.=.=.=.=.=.=.=.&.` ( ( ~ Q A A Y C A A A A A A A A A A A A A A A A A A A A A A A A A A A A A A A A C C ~ ( ~ C A ( ( ( ` ` ~ ( &.,.=.>.>.>.=.=.=.=.=.=.@.=.>.,.>.=.=.=.=.=.=.=.=.=.=.=.=.=.=.=.=.=.>.>.>.>.=.=.=.=.,.=.` H @.=.=.>.Z / &.,.&.` H A A ~ A A A m A C A =.>.=.>.>.<.>.=.5.=.1.=.A A A A A C m C C C A ( ( ( ( ( ( ( ( ( ~ A A A A C B A A A A A A A A A A A A A A A A A A A A A A A A A A A A A A A A A A A A A A A A A A A A A A C Y B A Y A A ~ ( ~ E D A C C A A A B B C C C C A Y A A A A A A A A A A A A A A A A A A A A A A A A A A A A A A A A A A A A A A C C C C C A A A A A A C C A ( ' ` / D A A A D / ` ' ( ~ A A A B B A A A A A A A A A A A A A A A A A C A A A A A E ~ M B A A A B B A A A A A A A A A A A A A A A A A A A A A A A A A A A A A A A A A A A A A A A A A A A A A A A A A A A A A A A A A A A A A A A A A A A A A A A A A A A A A A A A A A A A A A A A A A A A A A A A A A A A A A A A A A A A A A A A A A A C B B Y A B A A A A A A D E ( ~ H A A ~ ` ( ( ;       + . . . . . . . . . . . . . . . . . . . . . . . . . . . . . . . . . . . . . . . . . . . . . . . . . . . . . . . . + + & $ + . . . . . . . . . . . . .               . + + + + + X O   O   1 P P M Y M M M M a y 4 5 1 # # # # X X X     X X X                                       ",
"                                                                                  . X + + X .                 .     . . . + + + . . . $ & & & & & .     X X # ] &.=.=.>.=.&.| ' ' ` ` ` A D ~ ~ ' ~ A A D ' =.=.=.=.=.=.=.=.=.=.=.=.=.=.=.=.&.` ` ( ~ ~ A A Y C A A A A A A A A A A A A A A A A A A A A A A A A A A A A A A A A A C ~ ( ~ C A ( ( ( ` ` ` ' &.,.=.>.>.>.>.>.=.=.=.@.@.=.=.,.>.=.=.=.=.=.=.=.=.=.=.=.=.=.=.=.=.=.>.>.>.>.>.=.=.=.=.,./ m H ' | >.N ` =.=.' ~ ~ ` / ' D A C C E C A =.>.>.>.=.>.=.#.>.| =.&.Z C A N E A C A A E ( ` ( ( ( ~ ~ ( ' E A B M B A A A A A A A A A A A A A A A A A A A A A A A A A A A A A A A A A A A A A A A A A A A A A A A A C C Y C Y Y B B E ~ ~ ( ~ ~ A A C A A A A Y Y C C C A A A A A A A A A A A A A A A A A A A A A A A A A A A A A A A A A A A A A A C C Y Y Y Y C C A A A Y A A ~ ( ( ( ~ / H A A H / ` ` ( ~ E E A B B A A A A A A A A A A A A A A A A A A A A A B C A E Y C M B A E A B A A A A A A A A A A A A A A A A A A A A A A A A A A A A A A A A A A A A A A A A A A A A A A A A A A A A A A A A A A A A A A A A A A A A A A A A A A A A A A A A A A A A A A A A A A A A A A A A A A A A A A A A A A A A A A A A A A A B B A A B A A A D ~ ~ ~ ~ ( ` ~ D A ~ ~ ( ( :     X & .   . . . . . . . . . . . . . . . . . . . . . . . . . . . . . . . . . . . . . . . . . . . . . . . . . . . . . + $ & * & + . . . . . . . . . . . . . . . + + + X . . O X + + X O O O #   O v M M Y M M M M a 0 5 1 # # # X # X X X   X X X X                                       ",
"                                                                                X X X X X X         . .     . . . . . $ $ $ $ + & . . + % % & * . . X X     w M ' &.=.;.&.&.' ` ` ' ` H ~ C m C C C D C N ' 1.&.&.=.,.=.=.=.=.=.>.>.>.=.=.=.&.' ' ~ ( ( Y C A A A A A A A A A A A A A A A A A A A A A A A A A A A A A A A A A A A C ~ ' ~ A A ( ( ( ` ` ` ' &.&.=.&.=.,.&.=.,.=.&.&.@.' | =.=.=.,.=.=.=.=.=.=.,.=.,.>.=.>.,.>.;.@.,.=.@.=.=.&.,.>.1.` N C ~ &.=.A ` =.@.A A ' ' ( ' ( ~ Y m m ~ D &.,.,.=.#.<.#.=.>.=.=.@.~ A A C C C A A ~ ~ ~ ( ~ ~ ( ' ' ( ~ A A A A A A A A A A A A A A A A A A A A A A A A A A A A A A A A A A A A A A A A A A A A A A A A B D C m C T Y M I M M M M B E ^ ( ( ~ A C C A A A A C C C C Y A A A A A A A A A A A A A A A A A A A A A A A A A A A A A A A A A A m B A A B B M M M I T Y C C A A A A ~ ~ ( ( ( ' H C ~ ' ' ` ` ( ~ ~ E A B B A A A A A A A A A A A A A A A A A A A A A A A A A A A A A A A A A A A A A A A A A A A A A A A A A A A A A A A A A A A A A A A A A A A A A A A A A A A A A A A A A A A A A A A A A A A A A A A A A A A A A A A A A A A A A A A A A A A A A A A A A A A A A A A A A A A A A A A A A A A A A A A A A A A A A A A A A A A A ~ ` ' ' ( ~ ( ~ ~ A A ~ ( ' 5 X   . & . . . .     . . . . . . . . . . . . . . . . . . . . . . . . . . . . . . . . . . . . . . . . . . . . . . . . + & & * % + . . . . . . . . . . . . . . & $ + % % .     + + + + + X     O O O 1 p M M M M a y 4 4 4 5 # X X X X X X X                                                 ",
"                                                                                X X X + X X . . o o * o o o . .   . . $ * * * * & . . . $ $ $ & . . .       X 5 Y ( ' ( A C ~ ~ ` ` H A A A C E A B A Z N ' ,.&.| &.=.>.=.>.>.=.=.>.=.=.=.=.&.' ' ~ ( ( Q C Y A A A A A A A A A A A A A A A A A A A A A A A A A A A A A A A A A A C ~ ' ~ A A ( ( ( ` ` ` ( ' | =.&.,.1.=.=.,.=.=.=.&.` ~ ` | &.>.>.>.=.=.=.=.&.>.=.=.=.=.>.,.,.@.` A D | =.=.=.&.,./ Z C A / ~ @.` ` / / ( ' ~ ( ( ~ ~ ( ~ M C N &.>.=.=.>.6.@.>.=.=.=.=.| ~ A A C C A ~ ~ ~ A ~ E A ~ ~ ~ ~ A A A A A A A A A A A A A A A A A A A A A A A A A A A A A A A A A A A A A A A A A A A A A A A A A B D A B Y T Y T Y w X X 0 M Y B A E E C B A A A A A C C C C Y A A A A A A A A A A A A A A A A A A A A A A A A A A A A A A A A A A A A Y E Y u 5 X 5 d T T Y C C A ~ ~ ( ( ( ( ( ( ` ( ( ( ~ ( ' ' ~ E A A B B Y A A A A A A A A A A A A A A A A A A A A A A A A A A A A A A A A A A A A A A A A A A A A A A A A A A A A A A A A A A A A A A A A A A A A A A A A A A A A A A A A A A A A A A A A A A A A A A A A A A A A A A A A A A A A A A A A A A A A A A A A A A A A A A A A A A A A A A A A A A A A A A A A A A A A A A A A A A C ~ ~ ( ' ( ' ' ( ~ A A ~ ~ ( 5 X   . & . . . .     . . . . . . . . . . . . . . . . . . . . . . . . . . . . . . . . . . . . . . . . . . . . . . . . . + & & & % + + + % * * * % $ . . . . . = & % = & + . . . X X X X X     . O   X 1 u M M a i y 6 4 4 5 1 # X X X X X X                                                 ",
"                                                                                . . X X X X . . + * * * & % % % . + $ * * - = = % . . . . . . % . . .   . .     U ~ ( ~ Y ~ ( ' ~ ~ A B E E A A A B A H ~ ' &.&.' &.,.,.=.>.>.>.=.=.=.=.,.,.&.` ' ~ ( ( Q C A A A A A A A A A A A A A A A A A A A A A A A A A A A A A A A A A A A C ~ ' ~ A Y ( ( ( ` ` ` ` ` ( =.&.=.=.&.&.,.=.,.,.=.' D A / ' | =.,.=.=.=.=.&.,.=.=.=.&.| @.=.' Z m ~ | =.,.=.=.,.~ A A C C m ,.' A A ` | ( ~ ( ( ~ ~ ( ~ C E / &.=.=.=.>.1.#.>.=.=.=.,.=.( C A A A ~ ( ( ~ C A C C A D D A C A A A A A A A A A A A A A A A A A A A A A A A A A A A A A A A A A A A A A A A A A A A A A A A A A D A C Y M d P P w     : k k k j A T B B Y Y C A A A A A A A A A A A A A A A A A A A A A A A A A A A A A A A A A A A A A A A A B E B j M d @     X w d M k M C C A ~ ( ( ( ( ~ ~ ( ( ~ ~ ~ ( ( ~ E A A A C A A A A A A A A A A A A A A A A A A A A A A A A A A A A A A A A A A A A A A A A A A A A A A A A A A A A A A A A A A A A A A A A A A A A A A A A A A A A A A A A A A A A A A A A A A A A A A A A A A A A A A A A A A A A A A A A A A A A A A A A A A A A A A A A A A A A A A A A A A A A A A A A A A A A A A A A A A A C C A ~ ~ ~ ~ ( ( ` ~ A C A A ~ # X   . & . . . .     . . . . . . . . . . . . . . . . . . . . . . . . . . . . . . . . . . . . . . . . . . . . . . . . . . + + % % . . + = = , = * $ $ $ $ $ % = % = , = % . . . . . X . .     X       X # 0 y 5 5 0 0 5 5 : # # X X X X X X                                                 ",
"                                                                                                o o * % % + . . * * * * - - - * * .   . . . . . . . . . + + .   O O X # y M B m A A A D ` ~ C B A B D ' &.' ' | &.=.,.,.=.=.>.>.=.>.>.=.,.,.&.` ' ~ ( ( ~ C Y C A A A A A A A A A A A A A A A A A A A A A A A A A A A A A A A A C C ~ ( ~ A E ' ~ ( ` ` ` ` ` ` =.&.| ` H ` =.,.&.=.=.@./ A A D D | ,.=.&.=.,.=.>.&.=.>.@.~ D ~ H Z ` >.=.&.,.=.,.,.~ C A C A C ,.@.A A ' ` ~ ' ( ' ( ~ Y C A ' >.=.@.,.>.@.>.>.>.>.=.=.,.,.( B A A ~ ~ ' ( ~ A C C C A A A A C A A A A A A A A A A A A A A A A A A A A A A A A A A A A A A A A A A A A A A A A A A A A A A A A A A B Y Y t X @ X X         X @ r M T Y B Y Y B A A A A A A A A A A A A A A A A A A A A A A A A A A A A A A A A A A A A A A A A M W i X # #     X X X X X # d T m A ~ ( ( ( ( ( ~ ' ( T T ( ^ ~ C B C A E Y A B A A A A A A A A A A A A A A A A A A A A A A A A A A A A A A A A A A A A A A A A A A A A A A A A A A A A A A A A A A A A A A A A A A A A A A A A A A A A A A A A A A A A A A A A A A A A A A A A A A A A A A A A A A A A A A A A A A A A A A A A A A A A A A A A A A A A A A A A A A A A A A A A A A A A A A A A A A C A A A A C A D D A C C C A T #     . & . . . . .   . . . . . . . . . . . . . . . . . . . . . . . . . . . . . . . . . . . . . . . . . . . . . . . . . . . . . . . . . & * = % % $ $ $ * * * = * % = = + .       . . .       .         X X X X : 5 0 5 : # # # # X X X X X                                                 ",
"                                                                                            O . o o o o . . $ $ = = = = - - - - = .           .     . . . . . . O O   O u Y E Y M A C A ( ~ A A ~ C D ' ;.' ` | =.,.,.=.=.=.>.>.>.,.>.=.=.,.&.` ' ~ ' ' Q C Y C A A A A A A A A A A A A A A A A A A A A A A A A A A A A A A A A C C ~ ( ~ A A ' ~ ( ( ( ` ` ` ( ,.&.| / Z D &.,.=.=.=.&.' / D A Z | ,.=.&.=.,.,.=.&.=.,.&.A m Z m N | 6.,.=.,.>.;.;.E C A A Y A &.' D D ' ( ~ ' ~ ( ~ A C m C ' &.=.&.>.>.=.>.@.@.>.,.>.,.=.( B A ~ ( ( ( ~ ~ A A C A A A A A A A A A A A A A A A A A A A A A A A A A A A A A A A A A A A A A A A A A A A A A A A A A A A A A A C C B T T u       . + +         # u P Y Y Y Y B A A A A A A A A A A A A A A A A A A A A A A A A A A A A A A A A A A A A A A A A B ^ y         + . .       X w Y C D ~ ~ ~ ~ ( ' ^ ' _ Y M U Y T C A A A E E A C A A A A A A A A A A A A A A A A A A A A A A A A A A A A A A A A A A A A A A A A A A A A A A A A A A A A A A A A A A A A A A A A A A A A A A A A A A A A A A A A A A A A A A A A A A A A A A A A A A A A A A A A A A A A A A A A A A A A A A A A A A A A A A A A A A A A A A A A A A A A A A A A A A A A A A A A A A A A C C C C C C A A C C A A Y X     . . . . . . . . . . . . . . . . . . . . . . . . . . . . . . . . . . . . . . . . . . . . . . . . . . . . . . . . . . . . . . . . % % % % % % % % - - - = = % % = = . .                         O X       X # 5 5 5 # # X # # X X X X X                                                 ",
"                                                                                          . X X % % o o $ % % * * * * - - - - - % .     .     .   . X     . . . . . .   X w M Y B A B A ~ ( ~ ( ` ~ Z ~ | ` ~ &.=.,.=.=.=.,.,.=.=.,.,.=.=.,.&.` ' ~ ' ' Q C Y A A A A A A A A A A A A A A A A A A A A A A A A A A A A A A A A A C C ~ ( ~ A A ( ~ ( ( ( ( ( ' ' >.=.=.| D D ' @.1.,.=.=.;.@.` ~ H @.,.,.&.=.,.,.=.=.>.,.&.~ Z Z Z A ` &.=.,.,.=.~ ( C C E C A A ` H N A ( ( A A Y Y C C Y C C A A =.>.=.#.>.>.D / #.,.=.=.=.' C ~ ~ ( ( ~ A A A C C A A A A A A A A A A A A A A A A A A A A A A A A A A A A A A A A A A A A A A A A A A A A A A A A A A A A A A M C C Y T p X   . . $ $ % o X X X # t M Y Y Y Y C A A A A A A A A A A A A A A A A A A A A A A A A A A A A A A A A A A A A A A A B E i X X     +   . . .     + 5 A A ~ A A A Y ~ C ! ! v 1 # w v Y E E A B A A Y A A A A A A A A A A A A A A A A A A A A A A A A A A A A A A A A A A A A A A A A A A A A A A A A A A A A A A A A A A A A A A A A A A A A A A A A A A A A A A A A A A A A A A A A A A A A A A A A A A A A A A A A A A A A A A A A A A A A A A A A A A A A A A A A A A A A A A A A A A A A A A A A A A A A A A A A A A A A A A A A A A A A A A A A Y X O   . . . . . . . . . . . . . . . . . . . . . . . . . . . . . . . . . . . . . . . . . . . . . . . . . . . . . . . . . . . . . . . % = = * % * * = = = - - - = % * = = $ . .               . . .             X X # : : # # X # # X X X X X                                                 ",
"                                                                                          . X X o o . . . $ * = * % $ $ - - - % % .     .         . .     . . . . & + O   O 4 a Y ~ E E ( ( ` ' ( ~ Z A ( ` ~ &.,.=.=.=.>.1.=.| ` =.,.=.=.,.;.` ' ~ ' ' Q C Y A A A A A A A A A A A A A A A A A A A A A A A A A A A A A A A A A A C ~ ( ~ A A ( ~ ( ` ` ` ` ( ' ;.=.,.;.~ A ~ / &.| &.=.,.&.| ' ' | &.=.=.=.=.=.>.=.&.@.` ~ A A ~ ' ` ~ ' @.| ' B ~ C A ~ C C C A Z A D ~ ( ~ N C A M C ~ Y C Q ~ =.>.=.#.} } N H @.,.=.=.,.' C ~ ~ ~ ~ A A C C C A A A C C A A A A A A A A A A A A A A A A A A A A A A A A A A A A A A A A A A A A A A A A A A A A A A A A A A M Y Y d p w + + . . . . . . .       # M T Y C Y A A A A A A A A A A A A A A A A A A A A A A A A A A A A A A A A A A A A A A A A M i 5 @ X X . . . . . & X     X C A A C C C C C M v u 1 O O O 1 a B A A B A A Y A A A A A A A A A A A A A A A A A A A A A A A A A A A A A A A A A A A A A A A A A A A A A A A A A A A A A A A A A A A A A A A A A A A A A A A A A A A A A A A A A A A A A A A A A A A A A A A A A A A A A A A A A A A A A A A A A A A A A A A A A A A A A A A A A A A A A A A A A A A A A A A A A A A A A A A A A A A A A A A D A A A A A A A A Y # X . . $ . . . . . . . . . . . . . . . . . . . . . . . . . . . . . . . . . . . . . . . . . . . . . . . . . . . . . . . . . . . . . . % * * % $ % - = = = - % * % % % % . . . . .         . . . .           X   X X # # : # # # # X X X X X                                                 ",
"                                                                                              . . . .   . . & = * * * $ $ $ $ . o .               . .   . + . . . . .   O X X   ~ ( ' ( ' ( ~ ` ( ` A A ' ' ~ @.,.,.=.=.,.,.| ~ D @.,.>.=.,.&.( ' ~ ' ' Q C Y A A A A A A A A A A A A A A A A A A A A A A A A A A A A A A A A A A C ~ ( ~ A A ( ( ( ` ` ` ` ` ( &.;.,.&.D N A A N A ` &.=.&.` ~ ' ` ` @.,.,.=.=.,.=.' H A A A Z / =.| A A A B C C ~ C A Y C A Y C D ' | ~ ( ' ~ C Y A A A C ~ &.1.,.&.1.&.Z N Z / =.,.=.=.,.' m A A C C A A A A C A A A C C A A A A A A A A A A A A A A A A A A A A A A A A A A A A A A A A A A A A A A A A A A A A A A A A C C M E P 5 O     . . $ $ . . . . + +   @ P ! Y M T C C A A A A A A A A A A A A A A A A A A A A A A A A A A A A A A A A A A C C C Y i X       . .   . . . . .   + # Y A A A Y T T Y Y 0 O O O O . O X 6 B Y Y Y Y C C C C A A A A A A A A A A A A A A A A A A A A A A A A A A A A A A A A A A A A A A A A A A A A A A A A A A A A A A A A A A A A A A A A A A A A A A A A A A A A A A A A A A A A A A A A A A A A A A A A A A A A A A A A A A A A A A A A A A A A A A A A A A A A A A A A A A A A A A A A A A A A A A A A A A A A A A A A A A C C A A C C C C A A C T # X . . . . + . . . . . . . . . . . . . . . . . . . . . . . . . . . . . . . . . . . . . . . . . . . . . . . . . . . . . . . . . .   . . $ % % . . % = = = * % % . . . . .     . .           .   . .                 X # w w 5 # # @ X X X X                                                 ",
"                                                                                            . . + . X . . . o % * = * & & % $ + X X         . .       O . . . . . . . . .   X   P T ( ( ^ W ^ ' ' D A D ` / `  .=.=.1.-.,.&.~ ( | } #.>.>.>.@.` ` ` ~ ~ A A A C A A A A A A A A A A A A A A A A A A A A A A A A A A A A A A A A A N ~ ' ~ C ~ ( ( ( ( ( ( ( ( ` =.&.,.=.H Z D C N D ( &.;.&.( ~ ' ~ ' =.,.;.;.,.>.,.&.D m A ~ A ~ ( ~ E A A A B A A A A A A A A A ~ ( ( ~ ~ ~ ~ C A D A C C A ~ &.&.=.=.' D A H H | =.=.=.;.` C A A A A A A A A A A A A A A A A A A A A A A A A A A A A A A A A C C A A A A A A A A A A A A A A A A A A A A A A N A m A ~ E B C Y T T :   X . . . . . . . . . .     @ R T d p P M u Y Y M C C B A A A A A A A A A A A A A A A A D A B B A E Y C Y Y B M Y Y M Y p X   . . . . . . . . . . . .   T I k k k M M M T w     X X . X   u Y Y P I Y I B I B B E B M E A A A A A A A A A A A A A A A A A A A A A A A A A A A A A A A A A A A A A A A A A A A A A A A A A A A A A A A A A A A A A A A A A A A A A A A A A A A A A A A A A A A A A A A A A A A A A A A A A A A A A A A A A A A A A A A A A A A A A A A A A A A A A A A A A A A A A A A A A A C A C C A C Y Y Y Y A Y A A Y A C C A Y Y Y Y #   X + . . . . . . . . . . . . . . . . . . . . . . . . . . . . . . . . . . . . . . . . . . . . . . . . $ $ . . . . . . . . . . . . . + + % & . . % = = = & o . . X o X . .                       . .                 X # > w # # # # @ X                                                   ",
"                                                                . .                         . X + + X X + + + & + + o o o + + + @ X O       . .         . . . . . . . . . .       w W [ ..[ ^ ^ B N A ` | ` ` | 1. .&.-.-.^ Y &.@.#.>.>.>.>.@.` ` ` ~ E A A A C A A A A A A A A A A A A A A A A A A A A A A A A A A A A A A A A A N ~ ' ~ A ~ ( ( ( ( ( ( ( ( ` =.=.,.=.` H D A D H ~ ( ' ' ( ( ( ~ ( &.>.>.>.,.>.>...~ C A A C C A A B B A A B A A A A A A A A ~ ~ ` ~ ~ A C A A A A A C C A ~ H ~ ` ' ~ D D / ` D / =.=.~ Z D A A A A A A A A A A A A A A A A A A A A A A A A A A A A A A A A C C A A A A A A A A A A A A A A A A A A A A A A D D A A ~ ( ^ X.M I T w       . . . . . . . . . X   # l l +   X @ X d C B ~ Y A A A A A C A C A A A A A C A C A D A B A A B C Y M Y Y B Y M Y T f + . + . . . . . . . . . . . . R d :           R w . . . . . . + w P T I I Y Y T T I B T Y M B A A A A A A A A A A A A A A A A A A A A A A A A A A A A A A A A A A A A A A A A A A A A A A A A A A A A A A A A A A A A A A A A A A A A A A A A A A A A A A A A A A A A A A A A A A A A A A A A A A A A A A A A A A A A A A A A A A A A A A A A A A A A A A A A A A A A A A A A A A C A A A A C Y Y Y Y Y Y Y Y Y Y Y A B M m M I #         X . . . . . . . . . . . . . . . . . . . . . . . . . . . . . . . . . . . . . . . . . . . . . $ & $ $ $ $ . . . .         . o % % $ + . . + % o o o o X X X X X                           . .                   X # * @ @ @ @ @ X                                                   ",
"                                                                . . . . .                 . X X + + + + + & & & . . + + + + + X X X X         .     . . . . . . . . . . . .       @ r k l k M B ~ D A D D D / | 1.&.&.&.( A A ,.=.>.>.>.>.>.@.` ` ` ~ A C A A A A A A A A A A A A A A A A A A A A A A A A A A A A A A A A A A A A N ~ ( ~ ~ ~ ( ( ( ( ( ( ( ( ` &.=.=.=.&.` A C D H ~ ~ ~ ( ( ( ( ~ ~ ~ ..-.>.>.;.' ~ D A A A C B B A C B A A A A A A A A A A A ` ( ( ~ ~ A C C A A A A A A ~ ~ H ~ ` ` / H ~ ~ ` N A | ' N m D A A A A A A A A A A A A A A A A A A A A A A A A A A A A A A A A C C C A A A A A A A A A A A A A A A A A A A A A m A E ~ ^ Y d k w k T r       . . . . . . . . .     + e e .         5 a M E Y B A A A A C C C C Y A A A A A C C A B C Y A M M Y M ~ T M u 0 a T f + . + . . . . . . . . . . . . d w @       X X f * . . . . . . . # p P P d p p u i 4 6 M Y B B A A C C A A A A A A A A A A A A A A A A A A A A A A A A A A A A A A A A A A A A A A A A A A A A A A A A A A A A A A A A A A A A A A A A A A A A A A A A A A A A A A A A A A A A A A A A A A A A A A A A A A A A A A A A A A A A A A A A A A A A A A A A A A A A A A A A A A A A A A A A A A A C A A Y A C A C C B Y Y Y A B B Y R *         . + . . . . . . . . . . . . . . . . . . . . . . . . . . . . . . . . . . . . . . . + . . . $ * - - * $ $ . . . . .       . % & % $ . * & % + + + o o + + + o X .                                                 X X X X X X X X X                                                 ",
"                                                          O X . X . . . .               . . X + X + + & * & & & . + + + + + + + X X X         .     . . . . . . . . . . . .     X X X       # 5 ] ~ A B N N D | =.,.1.` A A E =.>.<.>.>.>.>.&.` ( ` ~ A C C A A A A A A A A A A A A A A A A A A A A A A A A A A A A A A A A A A D C ~ ( ( ~ ( ( ( ( ( ( ( ( ( ` &.,.=.&.,.| A Z A A ~ ~ ~ ( ( ( ( ~ A C ~ &.>.;.&.~ C A A A C A A A A A A A A A A A A A A A A A ( ( ( ~ ~ A A A C C C A A ~ ~ ~ ' ' ' ' ` ~ ~ ` ~ H D A A A A C A A A A A A A A A A A A A A A A A A A A A A A A A A A A A A A A C C C A A A A A A A A A A A A A A A A A A A A A N E ( ] ] M X   X w P w       . . . . . . . . .     . X X X X + @   O # 8 Y B B A A A A A A C C A Y A A A A C C A A A A C C M M Y T P 5 X O # P e . . . . . . . . . . . . . . .           X X . o .   . . . . +     2 { { w X X   X   X r M I T C C C C A A A A A A A A A A A A A A A A A A A A A A A A A A A A A A A A A A A A A A A A A A A A A A A A A A A A A A A A A A A A A A A A A A A A A A A A A A A A A A A A A A A A A A A A A A A A A A A A A A A A A A A A A A A A A A A A A A A A A A A A A A A A A A A A A A A A A A A A A A A A C A A A C C C C B B B B A Y Y T P > X X .   . . . . . . . . . . . . . . . . . . . . . . . . . . . . . . . . . . . . . . . . + + . $ $ * = = = = $ . . . . . . .     . % & % % + , * = & o o o o o o X X X .                                                     X     X X X X                                                 ",
"                                                        O X X X X . . . . .             X X + + . X + * * * * * X + + + + X . . O O             . . . . . . . . . . . . . . .                 X a M C Y A B A D ` | ..D N B D &.>.>.=.=.>.>.&.' ' ` ~ C C C A A A A A A A A A A A A A A A A A A A A A A A A A A A A A A A A A A ~ C ~ ' ( ( ( ( ( ( ( ( ( ( ( ` &.,.=.=.,.@.A A C A A ~ ~ ` ( ( ( ~ C m E &.,.,.&.~ N C A A C A A A A A A B B B A A A A A A A A ~ ~ D A A C C A A C A A ~ ` ( ( ` ` ` ` ` ( ' ' D / ~ N N H H Z A A A A A A A A A A A A A A A A A A A A A A A A A A A A A A A A A A A A A A A A A A A A A A A A A A A A A A A A ( Y M u d w X     X w X   X . . . . . . . . . . . . .         O X       4 Y A E A Y Y Y Y Y Y Y Y Y Y Y Y Y Y C B Y Y M C ~ Y y 0 u w X     # f & . . . . . + . . . . . . . . .           .         . . . . . . .   + f f @       X X   # 0 k I Y C C C C C A A A A A A A A A A A A A A A A A A A A A A A A A A A A A A A A A A A A A A A A A A A A A A A A A A A A A A A A A A A A A A A A A A A A A A A A A A A A A A A A A A A A A A A A A A A A A A A A A A A A A A A A A A A A A A A A A A A A A A A A A A A A A A A A A A A A A A A A A A C C A A A A A A Y B B B B k r : f X . X .   .   . . . . . . . . . . . . . . . . . . . . . . . . . . . . . . . . . . . . . . + + % * = = = = = = * $ . . . . .   . . . o % % & & , = * * * % o o . .   . .                                                               X X X                                                 ",
"                                                          . X . X . . . . . . .       . X X + + X + + * * * * * + X + . . .                 . O . . . . . . . . . . . . . . . . .   . . . X X X X 5 M Y E B B B D N A B A N A >.=.=.=.=.>.>.&.' ` ` ~ C C C A A A A A A A A A A A A A A A A A A A A A A A A A A A A A A A A A A A C ~ ' ( ( ( ( ( ( ( ( ( ( ( ( ;.,.,.=.=.' D A A A C C A ~ ( ' ~ ~ C B ~ &.,.,.&.~ C C A A A A A B B A A C C A A A A A A A A A C C C C C C A A C A A ~ ~ ( ( ( ` ` ` ~ ` ( ` ~ ~ D A C C A A A A A A A A A A A A A A A A A A A A A A A A A A A A A A A A A A A A A A A A A A A A A A A A A A C A A A A A A A C ^ M X     O   X     o     + . . . . . . . . . . . . . . .       O   X X i E C A A A Y A Y A Y A Y A Y A Y C Y C B Y Y M Y T M # O @ X O + . O + + . . . . . + . . . . . . . . . o o X X X . . . . . . + . . . . +     + +     +   @ X     X w P Y Y Y C C C A A A A A A A A A A A A A A A A A A A A A A A A A A A A A A A A A A A A A A A A A A A A A A A A A A A A A A A A A A A A A A A A A A A A A A A A A A A A A A A A A A A A A A A A A A A A A A A A A A A A A A A A A A A A A A A A A A A A A A A A A A A A A A A A A A A A A A A A A A A C A A A A A C B I Y Y B r X   X     X .   X   . . . . . . . . . . . . . . . . . . . . . . . . . . . . . . . . . . . . . . . + * = = = = = = = , = * $ . .     o X o o % & * * * * * = * % o .             . .                                                                                                               ",
"                                                            . . X . . o o o X X . . X X X X X + + + & * * & + + X X + X . .         . . . . . .   .     . . . . . . . . . . . . $ X .     . . . O 5 M Y Y A E E D N N N D / / 1.=.=.=.=.=.=.&.( ` ` ~ A C A A C A A A A A A A A A A A A A A A A A A A A A A A A A A A A A A A A A C ~ ' ( ~ ( ( ( ( ( ( ( ( ( ( =.=.,.=.' ~ A C A A C C C A ~ ~ ~ A A A ~ ( ' ' ` ~ A A A A C C A A A E E A A E A A A A A A A A A A A A A A A A C A ~ ` ~ ~ ~ ~ ' ' ( ` ( ( ~ E ~ A C A A C C A A A A A A A A A A A A A A A A A A A A A A A A A A A A A A A A A A A A A A A A A A A A A A A A A A A A B A B B I M u @ O @ X   X     +     + . . . . . . . .   . . . . $ + . . X X X O X i E m B A A C A C A C A C C C A C A A A Y B B Y I d 5 X   X     + . . . .   . . . . + . . . . . . . . .           . . . + + . . . . . . .       .   . X             # T Y Y Y Y C C A A A A A A A A A A A A A A A A A A A A A A A A A A A A A A A A A A A A A A A A A A A A A A A A A A A A A A A A A A A A A A A A A A A A A A A A A A A A A A A A A A A A A A A A A A A A A A A A A A A A A A A A A A A A A A A A A A A A A A A A A A A A A A A A A A A A A A A A A A A A A A A A A B B Y Y P r # X         X   . X   . . . . . . . . . . . . . . . . . . . . . . . . . . . . . . . . . . . . . . . . % & * = * * = = e = * % % o . . o o o o % * * = = = = % o o o o . .           .       .             . .                                                                                       ",
"                                                                X . . + o + X X X . X X X X X + * * * & + o + X + + + + X . . .     . . . . .           . . . . . . . . . . . . . . . . + + .     5 U ^ ' ( ( ' / ~ D N ~ =.&.>.=.=.=.=.,.=.&.` ` ` ~ A C C A C A A A A A A A A A A A A A A A A A A A A A A A A A A A A A A A A A C ~ ' ~ ~ ( ( ( ( ( ( ( ( ( ( ;.&.,.=.D N A B C C A A A C C C A C C A A C B B C C C C A D A C A C B A A B B A A A A A A A A A A A A A A A C C A ~ ` ( ~ ~ ~ ~ ( ( ~ ~ ~ ( ~ A A A A A A A A C A A A A A A A A A A A A A A A A A A A A A A A A A A A A A A A A A A A A A A A C C C C C A A A C A A A A B I I I X X     + .   . . . & . . +   . . . . . . .   . + . . . . . . +   X O   8 Y B E A A A A A A A C A C C A A A A A T M M W Y w     O X .   . . . & . . . . . . +   . . . . . . . . . . + + . . . . . . . . . . $ . . . . . . . .   +     . .   * T Y Y Y Y Y C A A A A A A A A A A A A A A A A A A A A A A A A A A A A A A A A A A A A A A A A A A A A A A A A A A A A A A A A A A A A A A A A A A A A A A A A A A A A A A A A A A A A A A A A A A A A A A A A A A A A A A A A A A A A A A A A A A A A A A A A A A A A A A A A A A A A A A A A A A A A A A A A B I Y T I r       X +   . + .   .   . . . . . . . . . . . . . . . . . . . . . . . . . . . . . . . . . . . . . . . . . + % * * * = = = * * % * # # o o o % * = = * = = = & % o o o * o X .                 .             . .                         X                                                             ",
"    X X       O                                                 . . . . . . X . X X X X X X + + + + + + + + + + o + + . .       . . . . . . . . & . .     . + + + + X . . . . . . . . . . . . . O X 1 M ^ ] ( ( ~ D D N D | 1.,.,.~ H H A ~ ~ ' ( ' ~ A C A A C A C C B B C C C A A A A A A A A A A A A A A A A A A A A A A A A A E A C ~ ' ( A ~ ( ( ( ( ` ( ' &.&.1.=.A m A A A A C C C C Y A A A C A A ~ ~ ( ~ A A C A A A C B A E A B C C B A A A A A A A A A A A A A C A A ( ( ( ~ A ~ ~ ( ( ( ( ' ( ~ A C A A A A A A A A A A A A A A A A A A A A A A A A A A A A A A A A A A A A A A A A A N Z A E C B Y Y Y Y B B C A Y A B A M 5 # : # X O   . . . . . . . . . . . . . . . . . . . . . . . . . . . . .   X   O y Y Y M D A A A A A A A A A A A E A N A T u # # # X X + O . . . . . . . . . . . . . . . . . . . . . . . . . . . . . . . . . . . . . . . . . . . . . . . . . . . .   .   # X X # y Y A E A A A A A A A A A A A A A A A A A A A A A A A A A A A A A A A A A A A A A A A A A A A A A A A A A A A A A A A A A A A A A A A A A A A A A A A A A A A A A A A A A A A A A A A A A A A A A A A A A A A A A A A A A A A A A A A A A A A A A A A A A A B C C C A A A A A A A A A A B A E A M Y T k # # @ X X         . . .   . . . . . . . . . . . . . . . . . . . . . . . . . . . . . . . . . . . . . . + + . . . . . & = * % * - = * . . o # o X o o o o & & % % * % % . . o o * . . .     . . .   . .     . X .       . . . .                                                                                 ",
"      X                                                         . . . . . . .   X X X X X X X X X + + + X X + + + + + . .       . . . . . . . . . + + +     X + + + X X . . . . . . . . . . . . O   O v ^ ^ ( ^ ( D B N D &.,.&.&.D D A N D A D ( ( ~ A C A A A C C C C A A A A A A A A A A A A A A A A A A A A A A A A A A A A C C C C ~ ( ~ N ~ ( ( ( ` ~ ~ ` ,.;.>.&.~ A ~ A A A A C C C A A A C A A ~ ~ ( ( ~ ~ A C A A A A B A C A A E Y C A A A A A A A A A A A A A A ~ ~ ~ ( ~ ~ A ~ ( ( ( ~ ~ ~ ~ D A A A A A A A A A A A A A A A A A A A A A A A A A A A A A A A A A A A A A A A A A A A D A A C Y Y Y P M M B Y Y Y I M B Y M #       O O . . . . . . . . . . . . . . . . . . . . . . . . . . . . . . . X   X a T Y B A A A A A A N N A D A A A N N A T w X   X       . . . . . . . . . . . . . . . . . . . . . . . . . . . . . . . . . . . . . . . . . . . . . . . . . . . . . . .   X   X X 4 C B B A A A A A A A A A A A A A A A A A A A A A A A A A A A A A A A A A A A A A A A A A A A A A A A A A A A A A A A A A A A A A A A A A A A A A A A A A A A A A A A A A A A A A A A A A A A A A A A A A A A A A A A A A A A A A A A A A A A A A A A A A A A A C C A A B B B B B C C B C B B B M T T i X X             . . . . . . .   . . . . . . . . . . . . . . . . . . . . . . . . . . . . . . . . . . . . . . . . . + & = % % = , = * + . o o o X # o o o % % % $ $ $ % % o o X X . . .     . . .           X + X       . X . .                                                                                 ",
"                                                                  . . . . .     . X X X X X X . X X + + X X + + + + . .         . . . . . . .   . & , = .   . % + + + + . . . . . . . . . . . . +   X v ^ ' ( ( ( D N B ~ &.=.( ~ C A C C ( ( ~ ( ( ~ C Z A D A A A A A A A A A A A A A A A A A A A A A A A A A A A A A A A A A A A A ~ ( ` ~ C ~ ( ( ( ~ ~ D D ;.' ( ~ A A A M A A A A C C C C C A A ~ ~ ( ( ( ( ~ A A D ~ ~ A A C B B E ( ~ Y A A A A A A A A A A C C A ~ ~ ~ ~ ~ ~ ~ ~ ~ ( ( ( ~ ~ ~ Y A A Y A A A A A A A A A A A A A A A A A A A A A A A A A A A A A A A A A A A A A A A A N A A B B T T T T Y Y Y Y Y I B B T ^ T :       . . . . . . . . . . . . . . . . . . . . . . . . . . . . . . . . . X O X p T T Y B B A A D D A B D D A B D B B E T w       X   . . . . . . . . . . . . . . . . . . . . . . . . . . . . . . . . . . . . . . . . . . . . . . . . . . . . . . . . . O   X   5 Y A B A A A A A A A A A A A A A A A A A A A A A A A A A A A A A A A A A A A A A A A A A A A A A A A A A A A A A A A A A A A A A A A A A A A A A A A A A A A A A A A A A A A A A A A A A A A A A A A A A A A A A A A A A A A A A A A A A A A A A A A A B A A A C C C C Y Y C C Y T T T Y B B B I T Y p           . . . . . . . . . .   . . . . . . . . . . . . . . . . . . . . . . . . . . . . . . . . . . . . . . . . + + + . . + * = = * . . + o o o * o o o % % % % . . + % o + .           .               . + + + . . . . X X X .                                                                               ",
"                                                        O .         . . . .     . . X X X X O   + + + . . . X + . . . . . . . . . . . . . . . . + = e * o . . % & + + X . . . . . . . . . . .   #   O v ^ ( ( ' ( A B B E ' ' E C m A C ~ >.>...( ( ~ C C A D A A A A A A A C B A A A A A A A A A A A A A A A A A A A A A A A A A A ~ ( ' ~ A A ~ ~ ( ~ E A A A ~ E A C C C C C C C A A C C C A C A ~ ~ ( ( ( ( ( ~ ~ ~ ~ ~ A A A A A A ~ ( ( ~ A A A A A A A A A A C A ~ ~ ~ ~ A A ~ ~ ( ' ( ~ ~ Y A A A C C Y A A A A A A A A A A A A A A A A A A A A A A A A A A A A A A A A A A A A A A A A B B B A I M P P P P P P M M P Y k I W I #   . . . . . . . . . . . . . . . . . . . . . . . . . . . . . . . . . . . + O O w U U T Y B B M M M M M M M M B Y B j M l e .   X X X X . . . . . . . . . . . . . . . . . . . . . . . . . . . . . . . . . . . . . . . . . . . . . . . . . . . . . . . . . O O   5 E E A A A A A A A A Y A A A A A A A A A A A A A A A A A A A A A A A A A A A A A A A A A A A A A A A A A A A A A A A A A A A A A A A A A A A A A A A A A A A A A A A A A A A A A A A A A A A A A A A A A A A A A A A A A A A A A A A A A A A A A A A A B A A C C A Y Y Y B M M M P P P M M Y I M P P w         . . . . . . . . . . . . . . . . . . . . . . . . . . . . . . . . . . . . . . . . . . . . . . . . . . . + o o + . . . $ * = % . . . o o # o o . . + % % * . . . + + .                       . X . X + & + + X . . X X X .                                                                               ",
"                                                        . . . .     . . . .     . . . X X .     + + + .     . . . . . .     . . . . . $ % * % $ = * = = o . o o & o + . . . + + . . . . . .     X   O p T T Y ~ E A A A A E ~ A C C ~ C Y :.;.~ ( ( ~ A C A A A A A A A C A B B A A A A A A A A A A A A A A A A A A A A A A A A A C ~ ( ~ A C A ~ ` ~ ~ C C C A A A C C A A A Q C C A C C C A A C A ~ ( ( ( ( ( ' ( ( ~ ~ ~ A C Y ~ ~ ~ ~ ( ' ' A A A A A A A A A A A ~ ~ ~ ~ A C D ~ ( ' ' ( ~ Y A C A A C C A A A A A A A A A A A A A A A A A A A A A A A A A A A A A A A A A A A A A A A A A E B I E M 5 @ * + * 2 # # 5 M T : : w >     .   . . . . . . . . . . . . . . . .     . . . . . . . . . . . . . .   + . O # w v T T P d 5 : # : : : : # r M k 5 # * + .       . . . . . . . . . . . . . . . . . . . . . . . . . . . . . . . . . . . . . . . . . . . . . . . . . . . . . . . . . .     X   5 C A A A A A A A A Y A A A A A A A A A A A A A A A A A A A A A A A A A A A A A A A A A A A A A A A A A A A A A A A A A A A A A A A A A A A A A A A A A A A A A A A A A A A A A A A A A A A A A A A A A A A A A A A A A A A A A A A A A A A A A A A A A C A A B B Y Y Y 4 5 1 # # # # # # 0 P P w @ # + . . . . . . . . . . . . . . . . . . . . . . .   . . . . . . . . . . . . . . . . . . . . . . . . . . . . . + & * , , = & $ $ + $ $ . . . . o # # . . . . + % & & . . . . . .       . . . . . . . $ & & + + & & $ + X X . X X X .                                                                               ",
"                                                      O . . . .                   . . . .       + + . .                     . . . . $ * = = = * * = & % o o o o & + . . . X & * o X .   . .     O   # d Y C C Y A B A E B C Y C A C ~ C Q >.&.~ ( ~ ~ A C C A A A A A C A A A A A A A A A A A A A A A A A A A A A A A A A A A A A A D ~ ~ C C E ~ ~ ~ D C C C A A ~ A C ~ A C ~ A A Y Y C C Y Y Q ~ ` ( ( ( ( ( ( ( ( ~ ~ A A A E ( ( ( ( ( ( ( A A A A A A A A C A A ~ ~ ~ A C A ~ ( ( ( ( ~ A C C C A A C C A A A A A A A A A A A A A A A A A A A A A A A A A A A A A A A A A A A A A A A A A D B B B u X   X   . .     X w P X         . . . . . . . . . . . . . . . . . . .     . . . . . . .   . . . . . .   . .   O + w P P p # X               @ p w X     . . . .     . . . . . . . . . . . . . . . . . . . . . . . . . . . . . . . . . . . . . . . . . . . . . . . . . . . . . . . . .     # # 0 B B A A A A A A A Y A A A A A A A A A A A A A A A A A A A A A A A A A A A A A A A A A A A A A A A A A A A A A A A A A A A A A A A A A A A A A A A A A A A A A A A A A A A A A A A A A A A A A A A A A A A A A A A A A A A A A A A A A A A A A A A A A A A C B C Y Y d X O O O O O       @ p f X       . . . . . . . . . . . . . . . . . . . . . . . . . . . . . . . . . . . . . . . . . . . . . . . . . . . . . & * e , , = * % $ . . . . . . . X o o .     . . + $ $ . . . .         . . . . . . . + & * * & + & & + + X X X X X                                                                                   ",
"  X                                                   O O X . .                                 . . . .       .             . . . $ % = = = = * & % % % o & o o + . . . X + * * * o             O # d P Y Y Y Y A B Y E B B Y C A M Y C ~ ,.*.( ~ ~ A A A C A A A A C C A E ~ ~ A A A A A A A A A A A A A A A A A A A A A A A A D ~ ~ ~ A C E ~ A ~ ~ ~ A C A A B E A C ~ ~ C A ( ( ~ Y C C Y ~ ~ ` ( ( ( ( ( ( ( ( ( ~ A C ~ ~ ~ ( ( ( ( ( ~ E A A A A A A A A C A A D A A A A ~ ( ( ~ E D A A A C C A A C C A A A A A A A A A A A A A A A A A A A A A A A A A A A A A A A A A A A A A A A A A B A M 5 X X X . . . + .     X # X     . . + & . . . . . . . . . . . . . . . .   . . . . . . $ . .     . . . . . . . .   . . + 2 # + .   . . X X       . * +   . . . . . . . . . . .   .         . . . . . . . . . . . . . . . . . . . . . . . . . . . . . .     . . . . . . . . . . . . . . . .   O u v M Y m A A A A A A A C C A A A A A A A A A A A A A A A A A A A A A A A A A A A A A A A A A A A A A A A A A A A A A A A A A A A A A A A A A A A A A A A A A A A A A A A A A A A A A A A A A A A A A A A A A A A A A A A A A A A A A A A A A A A A A A A A A A C B Y Y j # X O X O . . O     O # *     . . . . . . . . . . . . . . . . . . . . . . . . . . . . . . . . . . . . . . . . . . . . . . . . . . . . .   . & , e = * % + . . . . . . . .       X .   . . . . . . . . . .   .     . . . . . . + & * * * $ + & & + + + X X X .     . . X X X                                                                     ",
"                                                    O X X X X .                                     . . .   . .             . . . $ * = = * * % . + % % o o o o   . . X + & * e , + .             w P T U I Y Y Y B Y E C C A A A m A A ~ =.&.~ A A A A A C C A A A B C A ~ ( ' A A A A A A A A A A A A A A A A A A A A A C C C ~ ~ ~ A C C ~ ( C A ~ ~ ~ A A A m A C A ' ( A ~ ' ' ( ~ C C Y ~ ( ( ( ( ~ ~ ( ( ` ( ~ A m C ~ ' ( ( ( ( ( ( E B A A A A A A A A C A A A C C A ~ ( ( ( E C B C A Y C C A A C A Y A A A A A A A A A A A A A A A A A A A A A A A A A A A A A A A A A A C A C A Y Y I ~ P X     +   . . . . X X O   X     . . . . . . . . . . . . . . . . . . . . . . . . . . . $ . .     . . . . . . . .   + .   .   . . . + . .   . . . . . .   + . . . . . + . . . . . . . .     . . . . . . . . . . . . . . . . . . . . . . . . . . . . . . . . . . . . . . . . . . . . . . . .   O d T ! T m A A A A A A C C C A A A A A A A A A A A A A A A A A A A A A A A A C A A A A A A A A A A A A A A A A A A A A A C A A A A A A A A A A A A A A A A A A A A A A A A A A A A A A A A A A A A A A A A A A A A A A A A A A A A A A A A A A A A A A A A A C A C B Y Y y   O       . . .   X     .     .   . . . . . . . . . . . . . . . .   . . . . . . . . . . . . . . . . . . . . . . . . . . . . . . . . . .   . & * = = * % + + . . . . . . .         . . . . . . .   . . . . . .     . . .   . + & * & * & + + + $ X + . . + X .     . . X X X X                                                                   ",
"                                                                                                .         . . . .   .     . . X + + & * e * & * + + $ & * & + +       . + * , e e 2 # + + + X     . + + X X # p P W M B E N A N D m ~ &.&.;.;.( D A ~ ~ Y A A C A A Y C B Y ^ ( C C A A A A A A C C A A A A A A A A A A A A Y A Y E A A B A ~ ( ~ ( ' ( ~ A A A ~ ~ A A C A ~ ( ( ~ A A A C C ~ ( ( ( ( ( ( ( ' ~ ~ A A A A ~ ( ( ( ( ( E B B A A A A A A A A A A A B B A E ~ ~ ( ' ' ( ~ E A A B B A A Y A A A A A A A A A A A C C C C A A A A Y Y Y Y A A A A A A A A A A C C Y B Y Y B B Y I P X X *   . & . . . . . . . . . . . . . . . . . . . . . . . . . . . . . . . . . . . . . . . . . . . . . . . . . . . . . . . . . . . . . . . . . . . . . . . . . . . . . . . . . . . . . . . . . . . . . . . . . . . . . . . . . . . . . . . . . . . . . . . . . . . . . . . . . . . . . . . . . X X + X @ @ # # j Y Y B Y Y B Y A A A A A A A A A A A A A A A A A A A A A C A A Y A A A A A A A A A A A A A A A A A C C C C Y A A A A A A A A A A A A A A A A A A A D D A A C A A A A A A A Y A C C A A A A A A A A A A A A C C A A A A A A A A A A A A A A A A E m A T r @ + . .       . . . . . . . . . . . . . . . . . . . . . . . . . . . . . . . . . . . . . . . . . . . . . . . . . . . . . . . . . . . . . . . + + & & * + + + . . . . . . . . . . . . . . . . . . . . . . . . . . . .       . + + o o + & & & + + . . . + X . . . .       . X + .                                                                     ",
"                                                                                                          . . .     . .   . . X & + + * * & * * & + + & $ . . + X       + & * * * * + + + + X .   . . + .   X 2 p T P B A N A N A A ' ,.,.,.;.~ D A ~ ( ~ ~ Y C A A Y Y B Y ~ ( C C A A A A A A C C C C A A A A A A A A A A Y Y Y Y A A B A ~ ( ( ( ( ~ A A C A ~ ~ ~ ~ ~ ~ ~ ( ~ A A A A A ~ ( ( ( ( ( ( ( ~ ~ ~ A A A A A ~ ( ( ( ( ( ~ A B A A A A A A A A A A A B A A E ~ ( ~ ~ ~ ~ E Y A A E E A A C B B B A A A A A A A A C C C C A A A A C C C C C A A A A A A A A A C C Y M Y Y M Y T Y P .   .   . +   . . . . . . . . . . . . . . . . . . . . . . . . . . . . . . . . . . . . . . . . . . . . . . . . . . . . . . . . . . . . . . . . . . . . . . . . . . . . . . . . . . . . . . . . . . . . . . . . . . . . . . . . . . . . . . . . . . . . . . . . . . . . . . . . . . . . . . . .             X   d I Y B Y Y B A A A A A A A A A A A A A A A A A A A A A C C Y Y Y A C A A A A A C C C C A A A C A A C C Y Y Y A A A A A A A A A A A A A A A A A C A A A C C C A A A A A Y Y Y A C C A A A A A A A A A A A A C C A A A A A A A A A A A A A A A A A m Y T w . .   . .     . . . . . . . . . . . . . . . . . . . . . . . . . . . . . . . . . . . . . . . . . . . . . . . . . . . . . . . . . . . . . . . . + + + $ + + . . . . . . . . . . . . . . . . . . . . . . . . . . . . . .   . . X + o o + & & o + + + X . . . . . . .       . X X                                                                       ",
"                                                                                                            . .     . .   . . X & $ + & & & * * * & + + . . . X & o + X + & * * . . . . . .     . . . .     O + @ P P B A A D A N Z ` =.,.=.' N A Z ~ ( ( ~ ~ A A A A A A E ~ ( A A A A A A A A Y Y C C C A A D A A A A Y Y Y Y C A A C C A ~ ( ( ( ~ E B B A A A ~ ~ ( ( ( ( ( C A A C C ~ ( ' ( ( ( ( ( ( ~ ~ A A C A A A ~ ( ( ( ' ' ~ A B A A A A A A A A A A A C A A E ~ ( A Y A A A A A Y ' ( ~ Y A A A A A A A A A A A A A A C C C C C C A A A A Y Y Y A A A A A A A A A E B C A B Y E Y P +   .   . $   . . . . . . . . . . . . . . . . . . . . . . . . . . . . . . . . . . . . . . . . . . . . . . . . . . . . . . . . . . . . . . . . . . . . . . . . . . . . . . . . . . . . . . . . . . . . . . . . . . . . . . . . . . . . . . . . . . . . . . . . . . . . . . . . . . . . . . . .                 d I Y B Y A B A A A A A A A A A A A A A A A A A A A A A C C Y Y Y C C C A A A A A A A A A A A A A A A A C C A A A A A A A A A A A A A A A A A A A A C C C A A Y A A A A C C C A C A A A A A A A A A A A A A A A A A A A A A A A A A A A A A A A B B E T w   . . . .     . . . . . . . . . . . . . . . . . . . . . . . . . . . . . . . . . . . . . . . . . . . . . . . . . . . . . . . . . . . . . . . . . . . . . . . . . . . . . . . . . . . . . . . . . . . . . . . . . . . . .   . . + + + + + + X + & + + .     . . . .       . X X .                                                                     ",
"                                                                                                            . . .   .     . . . & + + & & & & * * & . . .   . . * & + + + $ & & . . + . .       + . . . . . X X   M Y Y A A D A D / ' ;.,.,.' A A N E ' ' ( ~ A A C B A E E ~ ( A A A A A A A A Y A C C C A A A A A A A A Y Y Y A A A C C A E ~ ~ ~ E A B B A A A ~ ~ ( ' ( ( ( C A ~ C C ~ ( ( ( ( ~ ( ' ( ~ E A C C A A ~ ~ ~ ( ( ( ~ E A C A A A A A A A A A C C C A A E ~ ~ B B C C C A E E ' ( ~ E A A A A A A A A A A A A A A A A C C C C A A A A A C C C A A A A A A A A Y B A A B Y Y M f .   . . . $ . . . . . . . . . . . . . . . . . . . . . . . . . . . . . . . . . . . . . . . . . . . . . . . . . . . . . . . . . . . . . . . . . . . . . . . . . . . . . . . . . . . . . . . . . . . . . . . . . . . . . . . . . . . . . . . . . . . . . . . . . . . . . . . . . . . . . . . . . . X X X X   X X d I Y B A A B A A A A A A A A A A A A A A A A A A A A A C C Y Y Y C C A A A A A A A A A A A A A A A A A C C A A A A A A A A A A A A A A A A A A A A C C A A A A A A A A C C C A A A A A A A A A A A A A A A A A A A A A A A A A A A A A A A A A D B A M > . . . . .     . . . . . . . . . . . . . . . . . . . . . . . . . . . . . . . . . . . . . . . . . . . . . . . . . . . . . . . . . . . . . . . . . . . . . . . . . . . . . . . . . . . . . . . . . . . . . . . . . . . . . . . . . + + + + + X + + + .         . X . .           .                                                                     ",
"                                                                                                      .       .     . .   . . X + + $ $ & & & & & + . . .   . + o + . . . . . . - * = = % + . . . . . . . X X X X P Y Y Y B C m H ' &.;.>.>.' A A B E ( ' ` ~ C A C B A E ` ( ` A A A A A A A A C C C C C C C B A A A A C C C C A A A A C A A Y A A A A A A A A A ~ ~ ( ' ( ( ~ C D D C C ~ ( ( ( ( ~ ( ' ' ~ ~ C C A A ~ ~ ~ ( ( ( ~ E A C A A A A A A A A A A A A C C A A A A B C A A A E E ~ A A A C B B B B A A A A A A A A A A A A A A A A C C C C C C C C A A A A A A A A A B A A C Y M 0 X . . .     . . . . . . . . . . . . . . . . . . . . . . . . . . . . . . . . . . . . . . . . . . . . . . . . . . . . . . . . . . . . . . . . . . . . . . . . . . . . . . . . . . . . . . . . . . . . . . . . . . . . . . . . . . . . . . . . . . . . . . . . . . . . . . . . . . . . . . . . . . . . .           d Y Y B A A N A A A A A A A A A A A A A A A A A A A A A A C C C C C C A A A A A B B A A C C B B A A A A A A A A A A A A A A A A A A A A A A A A C C C C C C C m A A A A A C A A A A A A A A A A A A A A A A A A A A A A A A A A A A A A A A A A B N i # X   . . . .     . . . . . . . . . . . . . . . . . . . . . . . . . . . . . . . . . . . . . . . . . . . . . . . . . . . . . . . . . . . . . . . . . . . . . . . . . . . . . . . . . . . . . . . . . . . . . . . . . . . . . . .   . + + + + + + + + X         . X X X . .         . . . .                                                               ",
"                                                                                                      .     . .     . .   . . X . + $ + $ & & + + . . . . . + & o o + . $ . $ . = = = = * % + . . . . . . X X     p d P T B A C A &.>.=.,.,.( A A C ~ ( ( ` ~ A E A C A ~ ` ` ` A A A A A A A A C Y Y Y Y C A C A A A A C C C C A A A A A A A A C C A A A A A A ~ ~ ~ ( ( ~ ~ ~ C A A A ~ ~ ( ( ( ( ( ( ' ` ~ A A A A A ~ ` ( ( ( ( ~ A B C A A A A A A A A A A A A A C B B C C A Y E E E E E ~ B B C C A A C A A A A A A A A A A A A A A A A A C C C C A Y Y Y A A A A A A A A A B A A A Y m #   . . . . . . . . . . . . . . . . . . . . . . . . . . . . . . . . $ $ + . . . . . . . . . . . . . . . . . . . . . . . . . . . . . . . . . . . . . . . . . . . . . . . . . . . . . . . . . . . . . . . . . . . . . . . . . . . . . . . . . . . . . . . . . . . . . . . . . . . . . . . . . . . . . . .           k Y A B A A N A A A A A A A A A A A A A A A A A A A A A A C C C A C C Y A A A A A A A A Y A C C A A A A A A A A A A A A A A A A A A A A A C C C Y A C C A A C M A A A A C C A A A A A A A A A A A A A A A A A A A A A A A A A A A A A A A A A A B A 6 X O . . . . .     . . . . . . . . . . . . . . . . . . . . . . . . . . . . . . . . . . . . . . . . . . . . . . . . . . . . . . . . . . . . . . . . . . . . . . . . . . . . . . . . . . . . . . . . . . . . . . . . . . . . .     . X X X X X + + + X .         . X X X . . .       . X X .                                                               ",
"                                                                                                      .         . . . .   . . X + + + . . & & $ . . . + $ + + & & % % = = - $ $ = - % % % % $ .   . .   . . .     @ O u Y C Y E E ,.a.*.,.,.' ~ Y C ~ ( ( ` ` ~ ` ~ A D ~ ` ` ` A A A A A A A A Y Y C B B C Y A A A A A A A C C A A A A A A A B C A A A A A A A ~ ~ ( ( ~ ~ ~ A A C A ~ ` ( ( ( ( ( ( ( ~ ~ A C A A A C ~ ( ' ( ( ( ~ A B A A C A A A A A A A A A A A A A A C C A E ~ ~ ~ E Y A A A A A A A A A A A A A A A A A A A A A A A A A C C Y Y Y Y Y Y C A A A A A A A A C A A C Y M #   + . . + . . + . . . . . . . . . . . . . . . . . . . . . . . . . $ % % $ + . . . . . . . . . . . . . . . . . . . . . . . . . . . . . . . . . . . . . . . . . . . . . . . . . . . . . . . . . . . . . . . . . . . . . . . . . . . . . . . . . . . . . . . . . . . . . . . . . . . . . . . . . . . . X X X   X X k Y Y B A A N A A A A A A A A A A A A A A A A A A A A A A A C C A A A Y Y Y C C Y Y B B B B Y Y I B A A A A A A A C A A A A A A A A C C C Y Y Y Y C M B C Y Y Y A A A A A A A A A A A A A A A A A A A A A A A A A A A A A A A A A A A A A A A A B E i X X . . $ . . .   . . . . . . . . . . . . . . . . . . . . . . . . . . . . . . . . . . . . . . . . . . . . . . . . . . . . . . . . . . . . . . . . . . . . . . . . . . . . . . . . . . . . . . . . . . . . . . . . . . . . .   . . . X . . . . + X       . . X X X . X X X + .     X X . . O                                                             ",
"                                                                                                    . .       .   . . .   . . X + & + . . + & & . . . & & + + % % % * = = = - $ - $ $ $ * = = %   + + . . . .     X   w P M M C m ] ] Y T ~ Y C Y C ~ ( ( ` ' ' | ` D D ~ ` ` / A A A A A A A A Y M M j a m M C C C A A A A A A B B B A A A A C Y A A A A A A A ~ ~ ( ( ` ~ A C ~ A A ~ ' ( ~ ` ( ( ( ~ ~ A C Z A A C C D ( ' ( ( ( ~ Y A Y A B A A A A A A A A A A A A A A A A A E ~ ( ~ E A B Y A A C C C C A A A A A A A A A A A A A A A A C C C M M M d a a Y C C C A A A A A C C B C E M # X + .   . .   . . . . . . . . . . . . . . . . . . . . . . . . . . $ * * * $ . . . . . . . . . . . . . . . . . . . . . . . . . . . . . . . . . . . . . . . . . . . . . . . . . . . . . . . . . . . . . . . . . . . . . . . . . . . . . . . . . . . . . . . . . . . . . . . . . . . . . . . . . . . . . .         k Y Y B A A B A A A A A A A A A A A A A A A A A A A A A A A C C A A A A Y Y Y Y B M k a a k M I I I B A A A B A A C C A A A A A A A C C Y Y Y Y B M i i m M C Y Y A A A A A A A A A A A A A A A C A A A A A A A A A A A A A A A A A A A A A A A M E k X   . . . . . .   . . . . . . . . . . . . . . . . . . . . . . . . . . . . . . . . . . . . . . . . . . . . . . . . . . . . . . . . . . . . . . . . . . . . . . . . . . . . . . . . . . . . . . . . . . . . . . . . . . . .       . X X . .   . + .     . + X X X X . X X + & o X . X X .   O                                                             ",
"                                                                                                      . . . . . . . . . . .     & & + . . . . .   . . + & & & % + % * = = = = = $ $ $ % = = * = . . . . . . .     @ O   O v Y Y T M y X     4 M T Y ~ ' ( ` ` ` ` ( ' ` ` / / ` D N D E m C ~ C ~ u     # M Y T B T B C A B E A A A C A A B B C M B C A A A A B B E ( ' ' ~ E A ' ~ A ~ ( ( ( ( ~ ( ~ ~ A C C A A A A A ~ ~ ( ' ( ( ' ( E A B A A A A A A A A A A C B B B A A Y ' ~ A C C A A B A A A A A A A A A A A A A A A A A A A A A A C C Y T T M #     X Y ~ M Y Y M A A A E Y M M T M X . . . . . . . . . . . . . . . . . . . . . . . . . . + & & & & % * = , = = $ .   . .     . . . . . . . . . . . . . . . . . . . . . . . . . . . . . . . . . . . . . . . . . . . . . . . . . . . . . . . . . . . . . . . . . . . . . . . . . . . . . . . . . . . . . . . . . . . . . . . . . . . . . . . .     O   u W Y A Y A D B A A A A A A A A A A A A A A A A A A A A A A A A Y B M C Y Y T T W M #     X d Y T M I T A B B B Y Y Y A A A A A B A B M Y T T T P 1     4 Y T B B E A M A E A A A A A A A C B M Y B M C E E A N A A A A A A A A A A A A B A A A Y B i + . . $ . . . .   . . . . . . . . . . . . . . . . . . . . . . . . . . . . . . . . . . . . . . . . . . . . . . . . . . . . . . . . . . . . . . . . . . . . . . . . . . . . . . . . . . . . . . . . . . . . . . . . . . . .     . X + + + +         . . . . X X X X X X X X + o o X X . . . X X O                                                         ",
"                                                                                                    . . . .   . . . . .   .     + + . . . . . . . . + & & & & & + % * = = = = = $ $ $ * = = & o . .     . . . . . + +   # P Y a M d 0 # O O w d d a B ( ( ( ` ~ ( ' ( ' ' ` ` / A B A E C M M u d 1 O   O w u p M Y C Y C m A B A A C B B Y T ~ T Y Y Y A E E E A A ~ ~ ~ ~ A A ' ~ ~ ~ ( ( ( ( ' ' ( ~ A C C A A A A A A ~ ~ ~ ~ ( ' ( E A A A A A A A A A A A A A A A A E E ~ ~ E A C A A A B A A A A A A A A A A A A A A A A A A A C B B B M i d d 0 # O X X u v y M Y C Y A B A C M Y ~ Y u O . . . . . . . . . . . . . . . . . . . . . . . . . + + & & & * = , , , = * $ . . . .   . X . . . . . . . . . . . . . . . . . . . . . . . . . . . . . . . . . . . . . . . . . . . . . . . . . . . . . . . . . . . . . . . . . . . . . . . . . . . . . . . . . . . . . . . . . . . . . . . . . . . . . . .       d T B M B B Y A A A A A A A A A A A A A A A A A A A A A A A A A T Y Y Y Y Y M u k 0 @     @ w p d d I E A B B M B B C A A A A D A E C B Y M u p u #     # u a y M Y Y B B B B B N A B B Y Y Y ~ E Y M B B C A A A A A A A A A A C A A A A A A A A B u +   . . . . . .   . . . . . . . . . . . . . . . . . . . . . . . . . . . . . . . . . . . . . . . . . . . . . . . . . . . . . . . . . . . . . . . . . . . . . . . . . . . . . . . . . . . . . . . . . . . . . . . . . . . .     . . X X X X         . . . . X X X . X X X X o o X X X . . . X X O                                                         ",
"                                                                                                      .         . .             . . . . . . . . . + + + $ & & & o o & * * * - = * - = = = = % + .       . . . . .   O   # T T #               O X X 5 M ^ ` ` ( ( ^ ~ ~ / E A N A A B A T a # O @ X O     X + @ 5 d M T E M Y A A E Y B M Y Y M P B Y Y ~ ~ ( ( ~ A A C C A A A ' ~ ~ ( ' ( ( ( ( ( ( ~ A C C A A A A C A A A A ~ ~ ( ~ E A A A A A A A A A A A A A A A A E ~ ~ E A B A A A A C A A A A A A A A A A A A A A A A B B A B B B I I X X @ X       X O # O t M B T B Y Y C C Y Y d w . . . . . . . . . . . . . . . . . . . . . . . . . . . + & & * * = = , , , = * * $ . . . X X . . . . . . . . . . . . . . . . . . . . . . . . . . . . . . . . . . . . . . . . . . . . . . . . . . . . . . . . . . . . . . . . . . . . . . . . . . . . . . . . . . . . . . . . . . . . . . . . . . . . . . .       d W Y Y T Y Y C A A A A A A A A A A A A A A A A Y A A A A A A A C Y C C Y P 0 X X X           X   # r I I A B A Y Y Y A A A A A B A C Y P 0 X X @ X O O X X X X i M Y Y B M B A B E A B T Y M Y M M Y C B B A A A A A A A A A A C A A A A A A C B I d X   . $ . . . .   . . . . . . . . . . . . . . . . . . . . . . . . . . . . . . . . . . . . . . . . . . . . . . . . . . . . . . . . . . . . . . . . . . . . . . . . . . . . . . . . . . . . . . . . . . . . . . . . . . . .       . . . .           . . . . . . . . . . X X X X X X X . . . X O O                                                         ",
"                                                                                                      .                         . . . . . . . . . . . . . . . . o o & % $ $ * * - = = e e * & o X . . . . . . . .   . O # T T X       X . .         X 5 Y ( ' ` ' ( ( ( ( / D N ~ E B Y ~ a O       . . .       X # w B Y M Y A B A Y Y Y Y M 5 # 4 M T ( ' ( ( ~ ~ C m C C A A ( ( ( ( ' ( ~ ~ ~ ~ ~ A C C C A A A A A C C C C E E ~ E Y A A A A A A A A A A A C C C C A A Y E A A B C A A A B A A A A A A A A A A A A A A A A B A A A B Y T T X               O O O # 0 a T M C C Y T Y p #   . . . . . . . . . . . . . . . . . . . . . . . . . . . . + & * = % - = = = = = = % $ o o X X .   . . . . . . . . . . . . . . . . . . . . . . . . . . . . . . . . . . . . . . . . . . . . . . . . . . . . . . . . . . . . . . . . . . . . . . . . . . . . . . . . . . . . . . . . . . . . . . . . . . . . .       d P u 5 0 0 M M C A A A A A A A A A A A A A A A A A A A A A A A B C C B Y U 0           .           # r I A B A Y Y A A A C B N B A C T Y w   O   X + X O       # 5 k I B M B A m E A B ~ P 5 5 # y P T T A A A A A A A A A A A A A A A C C B B Y T k @   . $ . . . .   . . . . . . . . . . . . . . . . . . . . . . . . . . . . . . . . . . . . . . . . . . . . . . . . . . . . . . . . . . . . . . . . . . . . . . . . . . . . . . . . . . . . . . . . . . . . . . . . . . . .       . .             . . . . .     . . . . X X . . . . . . . . O O                                                           ",
"                                                                                                            . .                 . . . . . . . . . . . . . . . . + o + + . + + & & * = , * * & + + X X . . . . . . . + + + { R + X . . . . + . + . +   X M ( ( ( ^ ( ( ( ~ ~ D E ' ( Y Y T p O O . . . . . . .   O X X d Y M B m M B C I Y Y p O   O 0 M ^ ] ( ( ( ~ A A A A A A ~ ( ( ` ` ` / ~ C C C A C A A A C A A A A A A C A A A A A C C A A A A A A A A A C A A B A C C C A A A A A A B B A A A A A A A A A A A A A A A A B A A A B Y I M @ + X . . + . . . . O + X 5 T Y B M Y Y M w O   . . . . . . . . . . . . . . . . . . . . . . . . . . . . . + & & % - - = = = = = % % % o X .     . . . . . . . . . . . . . . . . . . . . . . . . . . . . . . . . . . . . . . . . . . . . . . . . . . . . . . . . . . . . . . . . . . . . . . . . . . . . . . . . . . . . . . . . . . . . . . . . . . . .         P P #     O v T C A A A A A A A A A A A A A A A C C A A A A A A Y Y Y Y Y U u X   . . . + . . . + X   : B I M A B M M B C A A B A E Y Y P 5 X +   . . X . O         5 B B B Y B M A B M T v # X   # d Y T Y A C A A A A A A A A A A A C C C A A Y I d @ . . $ . . . .     . . . . . . . . . . . . . . . . . . . . . . . . . . . . . . . . . . . . . . . . . . . . . . . . . . . . . . . . . . . . . . . . . . . . . . . . . . . . . . . . . . . . . . . . . . . . . . . . . . . . . . . . .           . . . . .       . . . . X       .                                                                       ",
"                                                                                                            . .   .             . . . . . .     . . . . . . . . X X + X . . . + . + & & + o o + + + + . . . . . . . + O   2 e O . . . . . . . . . &     I ] ' ( ( ] ] ( E A D D ( ( Y j u 2 O O . . . . . . . . .     d W Y Y I ~ Y Y I M p # O O X # t B ~ ( ( ( ~ ~ ~ ~ ~ A A ~ ~ ~ ~ ~ ~ ~ D A A A A A A A A A A A A A A A A B C C C C C C C A A A A A A A A A A A A A C C C A A A A A C B B A A A A A A A A A A A A A A A A B A A B B I d 5 + .   . . . . . + . . .   # T Y T T P v w @ O . . . . . . . . . . . . . . . . . . . . . . . . . . . . . . . + $ % - = = , = = % + % o o X .     . . . . . . . . . . . . . . . . . . . . . . . . . . . . . . . . . . . . . . . . . . . . . . . . . . . . . . . . . . . . . . . . . . . . . . . . . . . . . . . . . . . . . . . . . . . . . . . . . . . .     .   f p +   O O q v Y A A A A A A A A A A A A A A A C C A A A A A A A Y Y P M u # O . . . . . . $ . + +   X I W B Y E Y Y A Y A A B C Y M y 0 @   O . . . . . X X X X   5 T Y Y E B E Y C M p w O     O w d M Y B B A A A A A A A A A A A A A A E E M i 5 X . . . . . . .       . . . . . . . . . . . . . . . . . . . . . . . . . . . . . . . . . . . . . . . . . . . . . . . . . . . . . . . . . . . . . . . . . . . . . . . . . . . . . . . . . . . . . . . . . . . . . . . . . . . . . . . . . .     . . . . . .             . .                                                                               ",
"                                                                                O                       . . . . . . . . . .     . . . . . . . . . . . . . . . .   O X X .   . . . . . X . X X @ @ X .   . . . . . . .     O O O . . . $ . . $ $ . &     Y ..^ E ] ( ^ ^ ~ ~ ` ` ~ ~ Y t X O +   . . . . . . . . .     P W M B B Y C Y Y p @     + X X # d Y ( ' ~ ( ( ( ~ ~ A A A ~ ~ E A A A A A A A A A A A C A A A A A A A A C A B B C A A A A A A A A A A A A A A A A A A A A A A A A C A A A A A A A A A A A A A A A A A A A A A B I I 0   O   . . . . . . . . . +   1 T M P P M 5 O O O . . . . . . . . . . . . . . . . . . . . . . . . . . . . . . + + $ $ $ - = = = % $ . + o o X .   . . . . . . . . . . . . . . . . . . . . . . . . . . . . . . . . . . . . . . . . . . . . . . . . . . . . . . . . . . . . . . . . . . . . . . . . . . . . . . . . . . . . . . . . . . . . . . . . . . . . . .     .   X   O .   O O Y A A A A A A A A A A A A A A A C C A A A A A A A B C P u X     . . . . . . . . . .   X I E k B Y Y M B A A A B B Y m # O O     . . . . . . X   @   r W B M B M Y M Y P # O +   O O @ w M Y C B A A A A A A A A B A A A A A A B i #   . . . . . . . .       . . . . . . . . . . . . . . . . . . . . . . . . . . . . . . . . . . . . . . . . . . . . . . . . . . . . . . . . . . . . . . . . . . . . . . . . . . . . . . . . . . . . . . . . . . . . . . . . . .     . . . .   .         . .                                                                                                   ",
"                                                                                O                     . . . . . . . . . . .       . . . . . . . . . . . . . .       X . .   . . . . X .     X + X .     . . . . . .   . + . O + . . . . . . . $ . *     T [ M r 0 w 4 i M E ( ' ' ^ ~ u   O 2 . . . & & . . . . + . X l P 5 : : # w M Y p     + .     @ u Y ( ( ^ ( ' ' ( Y A A C Y ~ A C N A A A A C A A A A C D A A A A A A A A A A C A A A A A A A A A A A A B B A A A A A A C A A A A A A Y A A A A A A A A A A A A A A A A B A B I T Y w   + + . . . $ . . . . . +   w T w # w w @     + X . . . . . . . . . . . . . . . . . . . . . . . . . . . . + + & % . . % = = * $ . . + o o + .   . . . . . . . . . . . . . . . . . . . . . . . . . . . . . . . . . . . . . . . . . . . . . . . . . . . . . . . . . . . . . . . . . . . . . . . . . . . . . . . . . . . . . . . . . . . . . . . . . . . . . . .     . &   . +   + # Y B C B Y I Y I Y B C A A A A A A A A A A A A A Y B Y T p     X . . . . $ $ . . . %   # I k : 5 5 5 4 i M Y Y A B E M # X X + . . . . . . .     X   w T u 5 r 5 5 5 Y Y X   #   O   O 5 M T Y M Y Y Y Y A C A A B A A A A M j i 4     . & . . $ . . .   . . . . . . . . . . . . . . . . . . . . . . . . . . . . . . . . . . . . . . . . . . . . . . . . . . . . . . . . . . . . . . . . . . . . . . . . . . . . . . . . . . . . . . . . . . . . . . . . . . . .                       . .                                                                                                     ",
"                                                                                                      . . . . . . .   . . . . . . . . . . . . . . . . . . . . . . . . . . . . . . . . . . . . . . . . . . . . . . . . . . . . . . . . . . . . . +     & R [ g         # P W [ ^ [ ^ T w     +   . . . . . . . . .   & g g +         e R g X   X + . O # f I W ^ [ [ [ W ~ Y Y I T I B B A D D B A A A A A A A A A A A A A A A A A A A A A A A A A A A A A A A A A A A A A A A A A A A A A A A A E C B A A B B A C A A B C A A C E I E B I I >     . . . . . . . . & &   . e f e O     . . . . . . . . . . . . . . . . . . . . . . . . . . . . . . . . . % % % o   . + * = & + . . + & & + .   . . . . . . . . . . . . . . . . . . . . . . . . . . . . . . . . . . . . . . . . . . . . . . . . . . . . . . . . . . . . . . . . . . . . . . . . . . . . . . . . . . . . . . . . . . . . . . . . . . . . . . . . . . . . . . . .   T I Y I P T T P P I T I A E D N B k A W A A I B T M I I w   O X . . . . . . . . . . . e g g #         # M T T I I T k X   + +   . . . . . . . .   . e P f     X   # g g w           X > M T T M T P I T T I B Y B j M B M Y k   X   . . . . . . . . . . . . . . . . . . . . . . . . . . . . . . . . . . . . . . . . . . . . . . . . . . . . . . . . . . . . . . . . . . . . . . . . . . . . . . . . . . . . . . . . . . . . . . . . . . . . . . . . . . . . . .             . .                                                                                                               ",
"                                                                                                      . . . . .         . . . . . . . . . . . . . . . . . . . . . . . . . . . . . . . . . . . . . . . . . . . . . . . . . . . . . . . . . . . . . .     $ = * . + .   . @ # > : @ f P f     X + . . . . . . . . .   . * * .   . .   + * +     X           w R [ w # + + @ X @ # Y I B B B B N B A A A A A A A A A A A A A A A A A A A A A A A A A A A A A A A A A A A A A A A A A A A A A A A A A B A A D A A A E A A C B C A A 6 X X X k T w     . . . . . . . . + +     & * + . . . . . . . . . . . . . . . . . . . . . . . . . . . . . . . . . . o * = = = = + + + + $ $ + . . + & & + . . . . . . . . . . . . . . . . . . . . . . . . . . . . . . . . . . . . . . . . . . . . . . . . . . . . . . . . . . . . . . . . . . . . . . . . . . . . . . . . . . . . . . . . . . . . . . . . . . . . . . . . . . . . . . . . . .     : M d @   X X # # : j B A B B W A B B M B k @ @ X w P p     . . . . . . . . . . .   . & & +   + . . X + # # X # P P >     . . . . . . . . . . . . + * &     + . + * & .     X         # d P P + X X @ X X : i E B I Y B Y k     . . . . . . . . . . . . . . . . . . . . . . . . . . . . . . . . . . . . . . . . . . . . . . . . . . . . . . . . . . . . . . . . . . . . . . . . . . . . . . . . . . . . . . . . . . . . . . . . . . . . . . . . . . . . . . .             . .                                                                                                               ",
"                                                                                                      . . .                 . . . . . . . . . . . . . . . . . . . . . . . . . . . . . . . . . . . . . . . . . . . . . . . . . . . . . . . . . . . + .       . . . X .             # l f .   . . . . . . . . . . . .   . .   . . + . . .       +   . X     X g [ +           X @ P I Y I B B B D A A A A A A A A A A A A A A A A A A A A A A A A A A A A A A A A A A A A A A A A A A A A A A A A B B A D A A C A B M B Y Y C Y E r       d T r     . . . . . . . . . .     . .   . . . . . . . . . . . . . . . . . . . . . . . . . . . . . . . . . . = , , , * * * & + . . . . . . + & & + . . . . . . . . . . . . . . . . . . . . . . . . . . . . . . . . . . . . . . . . . . . . . . . . . . . . . . . . . . . . . . . . . . . . . . . . . . . . . . . . . . . . . . . . . . . . . . . . . . . . . . . . . . . . . . . . . .     : P k X             r B A A A M M B B B E B #     # P f     . . . . . . . . . . . .     . . . . . X             w l >     . . . . . . . . . . + .     . . . . . . .         X X X       # f l X           # i I B T T I B d X   . . . . . . . . . . . . . . . . . . . . . . . . . . . . . . . . . . . . . . . . . . . . . . . . . . . . . . . . . . . . . . . . . . . . . . . . . . . . . . . . . . . . . . . . . . . . . . . . . . . . . . . . . . . . . . . .   . . . . . .             . .                                                                                               ",
"                                                                                                      . .                   . . . . . . . . . . . . . . . . . . . . . . . . . . . . . . . . . . . . . . . . . . . . . . . . . . . . . . . . . . . + . . . + .   . . + .     X @ X + > * . . .   . . . . . . . . . . . . . . . . . . . . . X X . . . .     X * w + O         O X w d P T A M B B A A A A A A A A A A A A A A A A A A A A A A A A A A A A A A A A A A A A A A A A A A A A A A A A B A A A C B B A E Y E E M 4 # : #       X w     . . . . . . . . . . . . . . . . . . . . . . . . . . . . . . . . . . . . . . . . . . . . . . . . . . = , , * & & * & + . . . . . . . + + . . . . . . . . . . . . . . . . . . . . . . . . . . . . . . . . . . . . . . . . . . . . . . . . . . . . . . . . . . . . . . . . . . . . . . . . . . . . . . . . . . . . . . . . . . . . . . . . . . . . . . . . . . . . . . . . . . .     X : #   . X   X     # r j M B I I W W k u :   X   X w #     X . . . . . . . . . . + + . . . .   . . X     X X   # #     X + . . . . . . . . . . . . . . + .   . . . . . . .     X X     X # >     X X X   X : 5 d Y Y M u :     . . . . . . . . . . . . . . . . . . . . . . . . . . . . . . . . . . . . . . . . . . . . . . . . . . . . . . . . . . . . . . . . . . . . . . . . . . . . . . . . . . . . . . . . . . . . . . . . . . . . . . . . . . . . . . . . . . . . . . .             .                                                                                                 ",
"                                                                                                      . . .           .         . . . . . . . . . . . . . . . . . . . . . . . . . . . . . . . . . . . . . . . . . . . . . . . . . . . . . . . . . . . . + & .   . . . . . . .   X         . $ . . . . . . . . . . . + . . + . .   . . . . + .   . .   . . .     .     X .         # k T Y M N B A A A A A A A A A A A A A A A A A A A A A A A A A A A A A A A A A A A A A A A A A A A A A A A A A D D B B C A Y Y B M M 0 X         X         . . . . . . . . . . . . + + . . . . . . . . . . . . . . . . . . . . . . . . . . . . . . . . . . . . o = * * o . . & + . . . . . . . . . . . . . . . . . . . . . . . . . . . . . . . . . . . . . . . . . . . . . . . . . . . . . . . . . . . . . . . . . . . . . . . . . . . . . . . . . . . . . . . . . . . . . . . . . . . . . . . . . . . . . . . . . . . . . . . . . . . . . . X         X X     X       6 k B T k k k w             .     + + . . . . . . . .   . . . . . .   . . . . .   .   + X       + + . . . . . . . . .   . + . . + . . . . . + + . .       .                 X X X       r Y T k #     . . . . . . . . . . . . . . . . . . . . . . . . . . . . . . . . . . . . . . . . . . . . . . . . . . . . . . . . . . . . . . . . . . . . . . . . . . . . . . . . . . . . . . . . . . . . . . . . . . . . . . . . . . . . . . . . . . . . . . . .     . . .                                                                                                     ",
"                                                                                                    . . . .           .         . . . . . . . . . . . . . . . . . . . . . . . . . . . . . . . . . . . . . . . . . . . . . . . . . . . . . . . . . . . .     . + . . . . . .         . .   . . . . . . . . . . . . . .   . . . . . . . . . . . .   . X .       . .   . + & X . X   w P W E Y Y E A A A A A A A A A A A A A A A A A A A A A A A A A A A A A A A A A A A A A A A A A A A A A A A A D D A N A E T Y Y M d 5 O X O + X   + . . + . $ . . . . . . . . . . . . . . . . . . . . . . . . . . . . . . . . . . . . . . . . . . . . . . . . . % = = % . . . . . . . . . . . . . . . . . . . . . . . . . . . . . . . . . . . . . . . . . . . . . . . . . . . . . . . . . . . . . . . . . . . . . . . . . . . . . . . . . . . . . . . . . . . . . . . . . . . . . . . . . . . . . . . . . . . . . . . . . . . . . . . . . . .     X X . + + .   o X     u T E T #   # #     X     X     . &   . . . . . . . . . .     . . . . . . . . . X       . + . . . . . . . . . . . . . . . . .   . . + . . . . . . . . . . .     X     & . . . + @ + X X d T T P #     . . . . . . . . . . . . . . . . . . . . . . . . . . . . . . . . . . . . . . . . . . . . . . . . . . . . . . . . . . . . . . . . . . . . . . . . . . . . . . . . . . . . . . . . . . . . . . . . . . . . . . . . . . . . . . . .     . . . . . .     . .                                                                                                       ",
"                                                                                                      . . .         . . . .   . . . . . . . . . . . . . . . . . . . . . . . . . . . . . . . . . . . . . . . . . . . . . . . . . . . . . . . . . . . + .     . + . . . . . . . . . . & & .   . . . . . . . . . . + . . . . . . + . . . . . . . + . X X .     + &       . . . .   + e d l k k M I C A A A A A A A A A A A A A A A A A A A A A A A A A A A A A A A A A A A A A A A A A A A A A A A D D B B A E B k T I p @     .   + . .   . . . . . . . . . . . . . . . . . . .   . . . . . . . . . . . . . . . . . . . . . . . . . . . . . . . . + + + + . . . . . . . . . . . . . . . . . . . . . . . . . . . . . . . . . . . . . . . . . . . . . . . . . . . . . . . . . . . . . . . . . . . . . . . . . . . . . . . . . . . . . . . . . . . . . . . . . . . . . . . . . . . . . . . . . . . . . . . . . . . . . . . . . . . .     X X   . .   . + o   X r P P T :   X         + . + + . . . . . . . . . . . . . . . . . . . . . . . . . + . .   . + $ . . . . . . . . . . . . + . . . .   . + . . . . . . . . + + .   . X + . . .       . . . X p l g d *   o . . . . . . . . . . . . . . . . . . . . . . . . . . . . . . . . . . . . . . . . . . . . . . . . . . . . . . . . . . . . . . . . . . . . . . . . . . . . . . . . . . . . . . . . . . . . . . . . . . . . . . . . . . . . . . . .         .   . .                                                                                                               ",
"                                                                                                      . . .         . . . . . . . . . . . . . . . . . . . . . . . . . . . . . . . . . . . . . . . . . . . . . . . . . . . . . . . . . . . . . . . .   . + + .   . . + . . . . . $ .   . . . + . . . . . . . . . .   . + + .   . .     . .     . X       . X .   + . . . . . . .   . X X   X ; 6 C A A A A A A A A A A A A A A A A A A A A A A A A A A A A A A A A A A A A A A A A A A A A A A A D D B B A A j :   @ X     & * . . . . . . $ . $ . . . . . . . . . + . . . . + . . . . . . . . . . . . . . . . . . . . . . . . . . . . . . . . . . . . . . . . . . . . . . . . . . . . . . . . . . . . . . . . . . . . . . . . . . . . . . . . . . . . . . . . . . . . . . . . . . . . . . . . . . . . . . . . . . . . . . . . . . . . . . . . . . . . . . . . . . . . . . . . . . . . . . . . . . . . . . . . . . . . . . . . . + . X .   . $ . . .       X X X X     X     X X +     . . . . . . . . . . . . .   . . . . .     . . . . . . . . $ . . . . . . . . . . . . . . . + . . + + .   . . . . . . $ .   . . . .   . . . . + $ + . . . .   + X X * .   X . . . . . . . . . . . . . . . . . . . . . . . . . . . . . . . . . . . . . . . . . . . . . . . . . . . . . . . . . . . . . . . . . . . . . . . . . . . . . . . . . . . . . . . . . . . . . . . . . . . . . . . . . . . . . . . .             . .                                                                                                               ",
"                                                                                                                    . .         . . . . . . . . . . . . . . . . . . . . . . . . . . . . . . . . . . . . . . . . . . . . . . . . . . . . . . . . . . . . . . . . . . . . . . . . . . . . . . . . . . . . . . . . . . . . . . . . . . . . . . . . . . . . . . . . . . . . . . . . . X           i Y A A B A A A A A A A A A A A A A A A A A A A A A A A A A A A A C C C A A A Y Y B B B B B B B B B B E Y B T M X X O . . . . . . . . . . . . . . . . . . . . . . . . . . . . . . . . . . . . . . . . . . . . . . . . . . . . . . . . . . . . . . . . . . . . . . . . . . . . . . . . . . . . . . . . . . . . . . . . . . . . . . . . . . . . . . . . . . . . . . . . . . . . . . . . . . . . . . . . . . . . . . . . . . . . . . . . . . . . . . . . . . . . . . . . . . . . . . . . . . . . . . . . . . . . . . . . . . . . . . . . . . . . . . . . . . . . .             . . . . . . . . . . . . . . . . . . . . . . . . . . . . . . . . . . . . . . . . . . . . . . . . . . . . . . . . . . . . . . . . . . . . . . . . . . . . . . . . . . . . . . . . . . . . . . . . . . . . . . . . . . . . . . . . . . . . . . . . . . . . . . . . . . . . . . . . . . . . . . . . . . . . . . . . . . . . . . . . . . . . . . . . . . . . . . . . . . . . . . . . . . . . . . . . . . . . . . . . . . . . . . .                                                                                                                       ",
"                                                                                                        .       .   . .         . . . . . . . . . . . . . . . . . . . . . . . . . . . . . . . . . . . . . . . . . . . . . . . . . . . . . . . . . . . . . . . . . . . . . . . . . . . . . . . . . . . . . . . . . . . . . . . . . . . . . . . . . . . . . . . . . . . . . . . .   .     X   X d I A A A A A A C A A A A A A A A A A A A A A A A A A A A A A A A B A A A A C B B T Y T T T T T T Y Y Y B I W P X O . . . . . . . . . . . . . . . . . . . . . . . . . . . . . . . . . . . . . . . . . . . . . . . . . . . . . . . . . . . . . . . . . . . . . . . . . . . . . . . . . . . . . . . . . . . . . . . . . . . . . . . . . . . . . . . . . . . . . . . . . . . . . . . . . . . . . . . . . . . . . . . . . . . . . . . . . . . . . . . . . . . . . . . . . . . . . . . . . . . . . . . . . . . . . . . . . . . . . . . . . . . . . . . . . . . . . . .         . . . . . . . . . . . . . . . . . . . . . . . . . . . . . . . . . . . . . . . . . . . . . . . . . . . . . . . . . . . . . . . . . . . . . . . . . . . . . . . . . . . . . . . . . . . . . . . . . . . . . . . . . . . . . . . . . . . . . . . . . . . . . . . . . . . . . . . . . . . . . . . . . . . . . . . . . . . . . . . . . . . . . . . . . . . . . . . . . . . . . . . . . . . . . . . . . . . . . . . . . . . . . . . .               .                                                                                                       ",
"                                                                                                        . .     . . . . . .     . . . . . . . . . . . . . . . . . . . . . . . . . . . . . . . . . . . . . . . . . . . . . . . . . . . . . . . . . . . . . . . . . . . . . . . . . . . . . . . . . . . . . . . . . . . . . . . . . . . . . . . . . . . . . . . . . . . . . . . . . .           r B B A A A A A A A A A A A A A A A A A A A A A A A A A A A A A A A A A A B B B M a i i i d d d d i T I r u k w   . . . . . . . . . . . . . . . . . . . . . . . . . . . . . . . . . . . . . . . . . . . . . . . . . . . . . . . . . . . . . . . . . . . . . . . . . . . . . . . . . . . . . . . . . . . . . . . . . . . . . . . . . . . . . . . . . . . . . . . . . . . . . . . . . . . . . . . . . . . . . . . . . . . . . . . . . . . . . . . . . . . . . . . . . . . . . . . . . . . . . . . . . . . . . . . . . . . . . . . . . . . . . . . . . . . . . . . .     . . . . . . . . . . . . . . . . . . . . . . . . . . . . . . . . . . . . . . . . . . . . . . . . . . . . . . . . . . . . . . . . . . . . . . . . . . . . . . . . . . . . . . . . . . . . . . . . . . . . . . . . . . . . . . . . . . . . . . . . . . . . . . . . . . . . . . . . . . . . . . . . . . . . . . . . . . . . . . . . . . . . . . . . . . . . . . . . . . . . . . . . . . . . . . . . . . . . . . . . . . . . . . . .                 . .                                                                                                       ",
"                                                                                                        . .     . . . . .       . . . . . . . . . . . . . . . . . . . . . . . . . . . . . . . . . . . . . . . . . . . . . . . . . . . . . . . . . . . . . . . . . . . . . . . . . . . . . . . . . . . . . . . . . . . . . . . .   . . . . . . . . . . . . . . . . . . . . . . . . . .       X w B B A A A B A Y A A A A A A A A A A A A A A A A A A A A A A A A A B M M B Y B M X X X X X X X X X I I :         . . . . . . . . . . . . . . . . . . . . . . . . . . . . . . . . . . . . . . . . . . . . . . . . . . . . . . . . . . . . . . . . . . . . . . . . . . . . . . . . . . . . . . . . . . . . . . . . . . . . . . . . . . . . . . . . . . . . . . . . . . . . . . . . . . . . . . . . . . . . . . . . . . . . . . . . . . . . . . . . . . . . . . . . . . . . . . . . . . . . . . . . . . . . . . . . . . . . . . . . . . . . . . . . . . . . . . . . . . . . . . . . . . . . . . . . . . . . . . . . . . . . . . . . . . . . . . . . . . . . . . . . . . . . . . . . . . . . . . . . . . . . . . . . . . . . . . . . . . . . . . . . . . . . . . . . . . . . . . . . . . . . . . . . . . . . . . . . . . . . . . . . . . . . . . . . . . . . . . . . . . . . . . . . . . . . . . . . . . . . . . . . . . . . . . . . . . . . . . . . . . . . . . . . . . . . . . . . . . . . . . . . . . .               .         .                                                                                               ",
"                                                                                                .               . .     . . . . . . . . . . . . . . . . . . . . . . . . . . . . . . . . . . . . . . . . . . . . . . . . . . . . . . . . . . . . . . . . . . . . . . . . . . . . . . . . . . . . . . . . . . . . . . . . . . . .     . . . . . . . . . . . . . . . . . . . . . . . . .     X > d E A A A A B C E A A A A A A A A A A A A A A A A A A A A A A A A A B M A Y I a 5             .     d l @       X . . . . . . . . . . . . . . . . . . . . . . . . . . . . . . . . . . . . . . . . . . . . . . . . . . . . . . . . . . . . . . . . . . . . . . . . . . . . . . . . . . . . . . . . . . . . . . . . . . . . . . . . . . . . . . . . . . . . . . . . . . . . . . . . . . . . . . . . . . . . . . . . . . . . . . . . . . . . . . . . . . . . . . . . . . . . . . . . . . . . . . . . . . . . . . . . . . . . . . . . . . . . . . . . . . . . . . . . . . . . . . . . . . . . . . . . . . . . . . . . . . . . . . . . . . . . . . . . . . . . . . . . . . . . . . . . . . . . . . . . . . . . . . . . . . . . . . . . .   . . . . . . . . . . . . . . . . . . . . . . . . . . . . . . . . . . . . . . . . . . . . . . . . . . . . . . . . . . . . . . . . . . . . . . . . . . . . . . . . . . . . . . . . . . . . . . . . . . . . . . . . . . . . . . . . . . . . . . . . . . . . . .         . .           .       .                                                                                               ",
"                                                                                                . .             . . .   . . . . . . . . . . . . . . . . . . . . . . . . . . . . . . . . . . . . . . . . . . . . . . . . . . . . . . . . . . . . . . . . . . . . . . . . . . . . . . . . . .     . . . . . . . . . . . . . . . .     . . . . . . . . . . . . . . . . . . . . . . .     . . > l I E C B A A B B A A A A A A A A A A A A A A A A A A A A A A A A A B B A E Y k #   X O . . . . . .   & & . . X . . . . . . . . . . . . . . . . . . . . . . . . . . . . . . . . . . . . . . . . . . . . . . . . . . . . . . . . . . . . . . . . . . . . . . . . . . . . . . . . . . . . . . . . . . . . . . . . . . . . . . . . . . . . . . . . . . . . . . . . . . . . . . . . . . . . . . . . . . . . . . . . . . . . . . . . . . . . . . . . . . . . . . . . . . . . . . . . . . . . . . . . . . . . . . . . . . . . . . . . . . . . . . . . . . . . . . . . . . . . . . . . . . . . . . . . . . . . . . . . . . . . . . . . . . . . . . . . . . . . . . . .     . . . . . . . . . . . . . . . . . . . . . . . . . . . . . . . .     . . . . . . . . . . . . . . . . . . . . . . . . . . . . . . . . . . . . . . . . . . . . . . . . . . . . . . . . . . . . . . . . . . . . . . . . . . . . . . . . . . . . . . . . . . . . . . . . . . . . . . . . . . . . . . . . . . . . . . . . . . . . . .         . .         . .     . .                                                                                               ",
"                                                                                                                . .         . . . . . . . . . . . . . . . . . . . . . . . . . . . . . . . . . . . . . . . . . . . . . . . . . . . . . . . . . . . . . . . . . .       . . . . . . . . . .       . . . . . . . . . . . . . . . . . . . . . . . . . . . . . . . . . . . . . . . . .   . .   # f r i 6 6 m A A C A A A A A A A A A A A A A A A A A A A A A A A A A B D E M i #     O O . . . . . . .     . . . + . . . . . . . . . . . . .   . . . . . . . . . . . . . . . . . . . . . . . . . . . . . . . . . . . . . . . . . . . . . . . . . . . . . . . . . . . . . . . . . . . . . . . . . . . . . . . . . . . . . . . . . . . . . . . . . . . . . . . . . . . . . . . . . . . . . . . . . . . . . . . . . . . . . . . . . . . . . . . . . . . . . . . . . . . . . . . . . . . . . . . . . . . . . . . . . . . . . . . . . . . . . . . . . . . . . . . . . . . . . . . . . . . . . . . . . . . . . . . . . . . . . . . . . . .       . . . . . . . . . .       . . . . . . . . . . . . . . . . . . . . . . . . . . . . . . . .       . . . . . . . . . . . . . . . . . . . . . . . . . . . . . . . . . . . . . . . . . . . . . . . . . . . . . . . . . . . . . . . . . . . . . . . . . . . . . . . . . . . . . . . . . . . . . . . . . . . . . . . . . . . . . . . . . . . . . . . . . . . . .     . . .                                                                                                                     ",
"                                                                                                                . .             . . . . . . . . . . . . . . . . . . . . . . . . . . . . . . . . . . . . . . . . . . . . . . . . . . . . . . . . . . . . . . . .       . . . . . . . . . .       . . . . . . . . . . . . . . . . . . . . . . . . . . . . . . . . . . . . . . . . +   . .     X       X i A A A A C A A A A A A A A A A A A A A A A A A A C A C A A E A i X     @ X . . . . . . . $   . * .   + . . . . . . . . . . . . . . . . . . . . . . . . . . . . . . . . . . . . . . . . . . . . . . . . . . . . . . . . . . . . . . . . . . . . . . . . . . . . . . . . . . . . . . . . . . . . . . . . . . . . . . . . . . . . . . . . . . . . . . . . . . . . . . . . . . . . . . . . . . . . . . . . . . . . . . . . . . . . . . . . . . . . . . . . . . . . . . . . . . . . . . . . . . . . . . . . . . . . . . . . . . . . . . . . . . . . . . . . . . . . . . . . . . . . . . . . . . . . . . . . . . . . . . . . .       . . . . . . . . . .       . . . . . . . . . . . . . . . . . . . . . . . . . . . . . . . .       . . . . . . . . . . . . . . . . . . . . . . . . . . . . . . . . . . . . . . . . . . . . . . . . . . . . . . . . . . . . . . . . . . . . . . . . . . . . . . . . . . . . . . . . . . . . . . . . . . . . . . . . . . . . . . . . . . . . . . . . . . . . . . . . . .                                                                                                                     ",
"                                                                                                  . . .       . . .             . . . . . . . . . . . . . . . . . . . . . . . . . . . . . . . . . . . . . . . . . . . . . . . . . . . . . . . . . . . . . . . . . . . . . . . . . . . . . . . . . . . . . . . . . . . . . . . . . . . . . . . . . . . . . . . . . . . . . . . . . . . .         .     a Y C D A A C C A A B N B A C A A A A A A A A A A C A C A M E Y M X     + . . . . .   . . . . . . . . . . . . . . . . . . . . . . . . . . . . . . . . . . . . . . . . . . . . . . . . . . . . . . . . . . . . . . . . . . . . . . . . . . . . . . . . . . . . . . . . . . . . . . . . . . . . . . . . . . . . . . . . . . . . . . . . . . . . . . . . . . . . . . . . . . . . . . . . . . . . . . . . . . . . . . . . . . . . . . . . . . . . . . . . . . . . . . . . . . . . . . . . . . . . . . . . . . . . . . . . . . . . . . . . . . . . . . . . . . . . . . . . . . . . . . . . . . . . . . . . . . . . . . . . . . . . . . . . . . . . . . . . . . . . . . . . . . . . . . . . . . . . . . . . . . . . . . . . . . . .   . . . . . . . . . . . . . . . . . . . . . . . . . . . . . . . . . . . . . . . . . . . . . . . . . . . . . . . . . . . . . . . . . . . . . . . . . . . . . . . . . . . . . . . . . . . . . . . . . . . . . . . . . . . . . . . . .       .       . . .     . .             .       . . .                                                                                                 ",
"                                                                                                      .       . . .             . . . . . . . . . . . . . . . . . . . . . . . . . . . . . . . . . . . . . . . . . . . . . . . . . . . . . . . . . . . . . . . . . . . . . . . . . . . . . . . . . . . . . . . . . . . . . . . . . . . . . . . . . . . . . . . . . . . . . . . . . . . . . . . . .     d Y C A A A A C D E B N B A A A A A A C C C A A Y Y A C A B Y M d X .   . . . . .     O O . . . . . . . . . . . . . . . . . . . . . . . . . . . . . . . . . . . . . . . . . . . . . . . . . . . . . . . . . . . . . . . . . . . . . . . . . . . . . . . . . . . . . . . . . . . . . . . . . . . . . . . . . . . . . . . . . . . . . . . . . . . . . . . . . . . . . . . . . . . . . . . . . . . . . . . . . . . . . . . . . . . . . . . . . . . . . . . . . . . . . . . . . . . . . . . . . . . . . . . . . . . . . . . . . . . . . . . . . . . . . . . . . . . . . . . . . . . . . . . . . . . . . . . . . . . . . . . . . . . . . . . . . . . . . . . . . . . . . . . . . . . . . . . . . . . . . . . . . . . . . . . . . . . . . . . . . . . . . . . . . . . . . . . . . . . . . . . . . . . . . . . . . . . . . . . . . . . . . . . . . . . . . . . . . . . . . . . . . . . . . . . . . . . . . . . . . . . . . . . . . . . . . . . . . . . . . . . . . . . .     . .         . .     .               .                                                                                                             ",
"                                                                                                                . . .   . . . . . . . . . . . . . . . . . . . . . . . . . . . . . . . . . . . . . . . . . . . . . . . . . . . . . . . . . . . . . . . . . . . . . . . . . . . . . . . . . . . . . . . . . . . . . . . . . . . . . . . . . . . . . . . . . . . . . . . . . . . . . . . . . . . . .     i Y C A A A A A A A B B B C C A A A A C C A A C C A C A A B M 5 w   X   . . . . .     O   . . . . . . . . . . . . . . . . . . . . . . . . . . . . . . . . . . . . . . . . . . . . . . . . . . . . . . . . . . . . . . . . . . . . . . . . . . . . . . . . . . . . . . . . . . . . . . . . . . . . . . . . . . . . . . . . . . . . . . . . . . . . . . . . . . . . . . . . . . . . . . . . . . . . . . . . . . . . . . . . . . . . . . . . . . . . . . . . . . . . . . . . . . . . . . . . . . . . . . . . . . . . . . . . . . . . . . . . . . . . . . . . . . . . . . . . . . . . . . . . . . . . . . . . . . . . . . . . . . . . . . . . . . . . . . . . . . . . . . . . . . . . . . . . . . . . . . . . . . . . . . . . . . . . . . . . . . . . . . . . . . . . . . . . . . . . . . . . . . . . . . . . . . . . . . . . . . . . . . . . . . . . . . . . . . . . . . . . . . . . . . . . . . . . . . . . . . . . . . . . . . . . . . . . . . . . . . . . . . . . . . . .   . . .   .                                                                                                                                   ",
"                                                                                                                . . . . . . . . . . . . . . . . . . . . . . . . . . . . . . . . . . . . . . . . . . . . . . . . . . . . . . . . . . . . . . . . . . . . . . . . . . . . . . . . . . . . . . . . . . . . . . . . . . . . . . . . . . . . . . . . . . . . . . . . . . . . . . . . . . . . . . . . .     i Y C A A C C C C B B B A B C C C C C C C C C C C C A C A B i X X   X   . . . . .       O . . . . . . . . . . . . . . . . . . . . . . . . . . . . . . . . . . . . . . . . . . . . . . . . . . . . . . . . . . . . . . . . . . . . . . . . . . . . . . . . . . . . . . . . . . . . . . . . . . . . . . . . . . . . . . . . . . . . . . . . . . . . . . . . . . . . . . . . . . . . . . . . . . . . . . . . . . . . . . . . . . . . . . . . . . . . . . . . . . . . . . . . . . . . . . . . . . . . . . . . . . . . . . . . . . . . . . . . . . . . . . . . . . . . . . . . . . . . . . . . . . . . . . . . . . . . . . . . . . . . . . . . . . . . . . . . . . . . . . . . . . . . . . . . . . . . . . . . . . . . . . . . . . . . . . . . . . . . . . . . . . . . . . . . . . . . . . . . . . . . . . . . . . . . . . . . . . . . . . . . . . . . . . . . . . . . . . . . . . . . . . . . . . . . . . . . . . . . . . . . . . . . . . . . . . . . . . . .   . . . . . . .   . . .   . .                                   O                                                                                             ",
"                                                                                                                . . . . . . .   . . . . . . . . . . . . . . . . . . . . . . . . . . . . . . . . . . . . . . . . . . . . . . . . . . . . . . . . . . . . . . . . . . . . . . . . . . . . . . . . . . . . . . . . . . . . . . . . . . . . . . . . . . . . . . . . . . . . . . . . . . . . . . . . .     i Y C A C C C C B B B A A A A C C C C C C A C C C C A C A Y r       X   . . . . .           . . . . . . . . . . . . . . . . . . . . . . . . . . . . . . . . . . . . . . . . . . . . . . . . . . . . . . . . . . . . . . . . . . . . . . . . . . . . . . . . . . . . . . . . . . . . . . . . . . . . . . . . . . . . . . . . . . . . . . . . . . . . . . . . . . . . . . . . . . . . . . . . . . . . . . . . . . . . . . . . . . . . . . . . . . . . . . . . . . . . . . . . . . . . . . . . . . . . . . . . . . . . . . . . . . . . . . . . . . . . . . . . . . . . . . . . . . . . . . . . . . . . . . . . . . . . . . . . . . . . . . . . . . . . . . . . . . . . . . . . . . . . . . . . . . . . . . . . . . . . . . . . . . . . . . . . . . . . . . . . . . . . . . . . . . . . . . . . . . . . . . . . . . . . . . . . . . . . . . . . . . . . . . . . . . . . . . . . . . . . . . . . . . . . . . . . . . . . . . . . . . . . . . . . . . . . . . .     . . . . . . . .       . . . . .                               O                                                                                           ",
"                                                                                                            . . . . . . . .     . . . . . . . . . . . . . . . . . . . . . . . . . . . . . . . . . . . . . . . . . . . . . . . . . . . . . . . . . . . . . . . . . . . . . . . . . . . . . . . . . . . . . . . . . . . . . . . . . . . . . . . . . . . . . . . . . . . . . . . . . . . . . . . . .     a Y C A C C A C M C C M M B C C C C C C C A A C A A A A C T u   X   + . . . . . .   .       . . . . . . . . . . . . . . . . . . . . . . . . . . . . . . . . . . . . . . . . . . . . . . . . . . . . . . . . . . . . . . . . . . . . . . . . . . . . . . . . . . . . . . . . . . . . . . . . . . . . . . . . . . . . . . . . . . . . . . . . . . . . . . . . . . . . . . . . . . . . . . . . . . . . . . . . . . . . . . . . . . . . . . . . . . . . . . . . . . . . . . . . . . . . . . . . . . . . . . . . . . . . . . . . . . . . . . . . . . . . . . . . . . . . . . . . . . . . . . . . . . . . . . . . . . . . . . . . . . . . . . . . . . . . . . . . . . . . . . . . . . . . . . . . . . . . . . . . . . . . . . . . . . . . . . . . . . . . . . . . . . . . . . . . . . . . . . . . . . . . . . . . . . . . . . . . . . . . . . . . . . . . . . . . . . . . . . . . . . . . . . . . . . . . . . . . . . . . . . . . . . . . . . . . . . . . . . .     . . . . . . . .       . . . . .             . .             O O                                                                                           ",
"                                                                                                  . .         . . . . .         . . . . . . . . . . . . . . . . . . . . . . . . . . . . . . . . . . . . . . . . . . . . . . . . . . . . . . . . . . . . . . . . . . . . . . . . . . . . . . . . . . . . . . . . . . . . . . . . . . . . . . . . . . . . . . . . . . . . . . . . . . . . . . . . .     i A Z A C C A C B Y B j 5 4 y k M C C B B C C C C B N N B Y u   X   X   . . . . .     O     . . . . . . . . . . . . . . . . . . . . . . . . . . . . . . . . . . . . . . . . . . . . . . . . . . . . . . . . . . . . . . . . . . . . . . . . . . . . . . . . . . . . . . . . . . . . . . . . . . . . . . . . . . . . . . . . . . . . . . . . . . . . . . . . . . . . . . . . . . . . . . . . . . . . . . . . . . . . . . . . . . . . . . . . . . . . . . . . . . . . . . . . . . . . . . . . . . . . . . . . . . . . . . . . . . . . . . . . . . . . . . . . . . . . . . . . . . . . . . . . . . . . . . . . . . . . . . . . . . . . . . . . . . . . . . . . . . . . . . . . . . . . . . . . . . . . . . . . . . . . . . . . . . . . . . . . . . . . . . . . . . . . . . . . . . . . . . . . . . . . . . . . . . . . . . . . . . . . . . . . . . . . . . . . . . . . . . . . . . . . . . . . . . . . . . . . . . . . . . . . . . . . . . . . . . . . . . . . . . .     . . . .     .   . . . .             .         . .                                                                                                 ",
"                                                                                                    . .           .             . . . . . . . . . . . . . . . . . . . . . . . . . . . . . . . . . . . . . . . . . . . . . . . . . . . . . . . . . . . . . . . . . . . . . . . . . . . . . . . . . . . . . . . . . . . . . . . . . . . . . . . . . . . . . . . . . . . . . . . . . . . . . . . . .     i A m A C B C C P P M 5     @ 4 M Y Y B M C C C A N N N B I w   X   .   . . . . . .   O . . . . . . . . . . . . . . . . . . . . . . . . . . . . . . . . . . . . . . . . . . . . . . . . . . . . . . . . . . . . . . . . . . . . . . . . . . . . . . . . . . . . . . . . . . . . . . . . . . . . . . . . . . . . . . . . . . . . . . . . . . . . . . . . . . . . . . . . . . . . . . . . . . . . . . . . . . . . . . . . . . . . . . . . . . . . . . . . . . . . . . . . . . . . . . . . . . . . . . . . . . . . . . . . . . . . . . . . . . . . . . . . . . . . . . . . . . . . . . . . . . . . . . . . . . . . . . . . . . . . . . . . . . . . . . . . . . . . . . . . . . . . . . . . . . . . . . . . . . . . . . . . . . . . . . . . . . . . . . . . . . . . . . . . . . . . . . . . . . . . . . . . . . . . . . . . . . . . . . . . . . . . . . . . . . . . . . . . . . . . . . . . . . . . . . . . . . . . . . . . . . . . . . . . . . . . . . . . . . . . .     . . . .     .       . . .           .         . .                                                                                                 ",
"                                                                                                  . .         .       . . . . . . . . . . . . . . . . . . . . . . . . . . . . . . . . . . . . . . . . . . . . . . . . . . . . . . . . . . . . . . . . . . . . . . . . . . . . . . . . . . . . . . . . . . . . . . . . . . . . . . . . . . . . . . . . . . . . . . . . . . . . . . . . . . . . . . . X u C M A C C Y v O X @   X O X O O   X y T B A B N A N N A X X         .   . . . . O O O . . . . . . . . . . . . . . . . . . . . . . . . . . . . . . . . . . . . . . . . . . . . . . . . . . . . . . . . . . . . . . . . .     . . . . . .   . .       . . . . . . . . . . . . . . . . . . . . . . . . . . . . . . . . . . . . . . . . . . . . . . . . . . . . . . . . . . . . . . . . . . . . . . . . . . . . . . . . . . . . . . . . . . . . . . . . . . . . . . . . . . . . . . . . . . . . . . . . . . . . . . . . . . . . . . . . . . . . . . . . . .     . . . . . .         . . .   . . . . . . . . . . . . . . . . . . . . . . . . . . . . . . . . . . . . . . . . . . . . . . . . . . . . . . . . . . . . . . . . . . . . . . . . . . . . . . . . . . . . . . . . . . . . . . . . . . . . . . . . . . . . . . . . . . . . . . . . . . . . . . . . . . . . . . . . . . . . . . . . . . . . . . . . . . . . . . . . . . . . . . . . . . . . . . . . . . . .       . . .           . . .                 . .                                                                                                       ",
"                                                                                                  . .         .         . . . . . . . . . . . . . . . . . . . . . . . . . . . . . . . . . . . . . . . . . . . . . . . . . . . . . . . . . . . . . . . . . . . . . . . . . . . . . . . . . . . . . . . . . . . . . . . . . . . . . . . . . . . . . . . . . . . . . . . . . . . . . . . . . . . . . . X u C m A B C U v O   X       X X X   O 5 M j M m m A A N A X X         . . . . . .     . . . . . . . . . . . . . . . . . . . . . . . . . . . . . . . . . . . . . . . . . . . . . . . . . . . . . . . . . . . . . . . . . .     . . . .         . . .       . . . . . . . . . . . . . . . . . . . . . . . . . . . . . . . . . . . . . . . . . . . . . . . . . . . . . . . . . . . . . . . . . . . . . . . . . . . . . . . . . . . . . . . . . . . . . . . . . . . . . . . . . . . . . . . . . . . . . . . . . . . . . . . . . . . . . . . . . . . . . . . .     .   . . . .                 . . . . . . . . . . . . . . . . . . . . . . . . . . . . . . . . . . . . . . . . . . . . . . . . . . . . . . . . . . . . . . . . . . . . . . . . . . . . . . . . . . . . . . . . . . . . . . . . . . . . . . . . . . . . . . . . . . . . . . . . . . . . . . . . . . . . . . . . . . . . . . . . . . . . . . . . . . . . . . . . . . . . . . . . . . . . . . . . . . . .       . . .             .                   .         .                                                                                               ",
"                                                                                                                            . . . . . . . . . . . . . . . . . . . . . . . . . . . . . . . . . . . . . . . . . . . . . . . . . . . . . . . . . . . . . . . . . . . . . . . . . . . . . . . . . . . . . . . . . . . . . . . . . . . . . . . . . . . . . . . . . . . . . . . . . . . . . . . . . . . . X u C M A B C U v O O X   X X O O       X 5 M I B B A A N B X .     O O . . . . . .         . . . . . . . . . . . . . . . . . . . . . . . . . . . . . . . . . . . . . . . . . . . . . . . . . . . . . . . . . . . . . . . .       .             . . . . .   . . . . . . . . . . . . . . . . . . . . . . . . . . . . . . . . . . . . . . . . . . . . . . . . . . . . . . . . . . . . . . . . . . . . . . . . . . . . . . . . . . . . . . . . . . . . . . . . . . . . . . . . . . . . . . . . . . . . . . . . . . . . . . . . . . . . . . . . . . . . . . . . .               .               . . . . . . . . . . . . . . . . . . . . . . . . . . . . . . . . . . . . . . . . . . . . . . . . . . . . . . . . . . . . . . . . . . . . . . . . . . . . . . . . . . . . . . . . . . . . . . . . . . . . . . . . . . . . . . . . . . . . . . . . . . . . . . . . . . . . . . . . . . . . . . . . . . . . . . . . . . . . . . . . . . . . . . . . . . . . . . . . . .   .     . . .       .                                   . .                                                                                               ",
"                                                                                                            . .             . . . . . . . . . . . . . . . . . . . . . . . . . . . . . . . . . . . . . . . . . . . . . . . . . . . . . . . . . . . . . . . . . . . . . . . . . . . . . . . . . . . . . . . . . . . . . . . . . . . . . . . . . . . . . . . . . . . . . . . . . . . . . . . . . . . .   u C m A B C c p + O X   X O O           X k P M M B M j k X .     O . . . . . . .         . . . . . . . . . . . . . . . . . . . . . . . . . . . . . . . . . . . . . . . . . . . . . . . . . . . . . . . . . . . . . . . .     . .           . . . . .     . . . . . . . . . . . . . . . . . . . . . . . . . . . . . . . . . . . . . . . . . . . . . . . . . . . . . . . . . . . . . . . . . . . . . . . . . . . . . . . . . . . . . . . . . . . . . . . . . . . . . . . . . . . . . . . . . . . . . . . . . . . . . . . . . . . . . . . . . . . . . . . . .       . .     .           . . . . . . . . . . . . . . . . . . . . . . . . . . . . . . . . . . . . . . . . . . . . . . . . . . . . . . . . . . . . . . . . . . . . . . . . . . . . . . . . . . . . . . . . . . . . . . . . . . . . . . . . . . . . . . . . . . . . . . . . . . . . . . . . . . . . . . . . . . . . . . . . . . . . . . . . . . . . . . . . . . . . . . . . . . . . . . . . . . . .         . .         .                                   . .                                                                                               ",
"                                                                                                                      .         . . . . . . . . . . . . . . . . . . . . . . . . . . . . . . . . . . . . . . . . . . . . . . . . . . . . . . . . . . . . . . . . . . . . . . . . . . . . . . . . . . . . . . . . . . . . . . . . . . . . . . . . . . . . . . . . . . . . . . . . . . . . . . . .       u C m C B M 1 +     X       O     O X     k I P M Y T I Y X . . . . . . O     . . . . . . . . . . . . . . . . . . . . . . . . . . . . . . . . . . . . . . . . . . . . . . . . . . . . . . . . . . . . . . . . . . . . . . . .             . .         . . . . . . . . . . . . . . . . . . . . . . . . . . . . . . . . . . . . . . . . . . . . . . . . . . . . . . . . . . . . . . . . . . . . . . . . . . . . . . . . . . . . . . . . . . . . . . . . . . . . . . . . . . . . . . . . . . . . . . . . . . . . . . . . . . . . . . . . . . . . . . . . . . .         .                   . . . . . . . . . . . . . . . . . . . . . . . . . . . . . . . . . . . . . . . . . . . . . . . . . . . . . . . . . . . . . . . . . . . . . . . . . . . . . . . . . . . . . . . . . . . . . . . . . . . . . . . . . . . . . . . . . . . . . . . . . . . . . . . . . . . . . . . . . . . . . . . . . . . . . . . . . . . . . . . . . . . . . . . . . . . . . . . . .         . . . . . . . . .       . .                                                                                                                           ",
"                                                                                                                      .         . . . . . . . . . . . . . . . . . . . . . . . . . . . . . . . . . . . . . . . . . . . . . . . . . . . . . . . . . . . . . . . . . . . . . . . . . . . . . . . . . . . . . . . . . . . . . . . . . . . . . . . . . . . . . . . . . . . . . . . . . . . . . . . .       u C m C B v O O   O +       O     O O O   P Y P u d k d d X . . . . . .       . . . . . . . . . . . . . . . . . . . . . . . . . . . . . . . . . . . . . . . . . . . . . . . . . . . . . . . . . . . . . . . . . . . . .   . . .         . . .             . . . . . . . . . . . . . . . . . . . . . . . . . . . . . . . . . . . . . . . . . . . . . . . . . . . . . . . . . . . . . . . . . . . . . . . . . . . . . . . . . . . . . . . . . . . . . . . . . . . . . . . . . . . . . . . . . . . . . . . . . . . . . . . . . . . . . . . . . . . . . . . O .       . X .     . . . . . .   . . . . . . . . . . . . . . . . . . . . . . . . . . . . . . . . . . . . . . . . . . . . . . . . . . . . . . . . . . . . . . . . . . . . . . . . . . . . . . . . . . . . . . . . . . . . . . . . . . . . . . . . . . . . . . . . . . . . . . . . . . . . . . . . . . . . . . . . . . . . . . . . . . . . . . . . . . . . . . . . . . . . . . . . . . . . . . . .         .   . . . . . . .       . .                                                                                                                           ",
"                                                                                                  .                   . . .   . . . . . . . . . . . . . . . . . . . . . . . . . . . . . . . . . . . . . . . . . . . . . . . . . . . . . . . . . . . . . . . . . . . . . . . . . . . . . . . . . . . . . . . . . . . . . . . . . . . . . . . . . . . . . . . . . . . . . . . . . . . . . . . . .       y C m C B v O O + O + .   . . .       O   p d w           . . . . . . . .       O . . . . . . . . . . . . . . . . . . . . . . . . . . . . . . . . . . . . . . . . . . . . . . . . . . . . . . . . . . . . . . . . . . . . .                 .             . . . . . . . . . . . . . . . . . . . . . . . . . . . . . . . . . . . . . . . . . . . . . . . . . . . . . . . . . . . . . . . . . . . . . . . . . . . . . . . . . . . . . . . . . . . . . . . . . . . . . . . . . . . . . . . . . . . . . . . . . . . . . . . . . . . . . . . . . . . . . . . O .       X o X .   . X + + X .   . . . . . . . . . . . . . . . . . . . . . . . . . . . . . . . . . . . . . . . . . . . . . . . . . . . . . . . . . . . . . . . . . . . . . . . . . . . . . . . . . . . . . . . . . . . . . . . . . . . . . . . . . . . . . . . . . . . . . . . . . . . . . . . . . . . . . . . . . . . . . . . . . . . . . . . . . . . . . . . . . . . . . . . . . . . . . . . . . .                 . .         . .     .           . .                                                                                                       ",
"                                                                                                  . . .               . . . . . . . . . . . . . . . . . . . . . . . . . . . . . . . . . . . . . . . . . . . . . . . . . . . . . . . . . . . . . . . . . . . . . . . . . . . . . . . . . . . . . . . . . . . . . . . . . . . . . . . . . . . . . . . . . . . . . . . . . . . . . . . . . . . .         u M M Y M v O . +           X .       O   d P e           . . . . . . . .       O . . . . . . . . . . . . . . . . . . . . . . . . . . . . . . . . . . . . . . . . . . . . . . . . . . . . . . . . . . . . . . . . . . . . .                                 . . . . . . . . . . . . . . . . . . . . . . . . . . . . . . . . . . . . . . . . . . . . . . . . . . . . . . . . . . . . . . . . . . . . . . . . . . . . . . . . . . . . . . . . . . . . . . . . . . . . . . . . . . . . . . .         .   . . . . . . . . . . . . . . . . . . . . . O O O O O .       + + o X   . + + + X .   . . . . . . . . . . . . .   . . . . . . . . . . . . . . . . . . . . . . . . . . . . . . . . . . . . . . . . . . . . . . . . . . . . . . . . . . . . . . . . . . . . . . . . . . . . . . . . . . . . . . . . . . . . . . . . . . . . . . . . . . . . . . . . . . . . . . . . . . . . . . . . . . . . . . . . . . . . . . . . . . . . . . . . . . . . . . . . . . .                   . . .       . .                 . .                                                                                                       ",
"                                                                                                                            . .             . . .                   .                       . .         . . . .   O . .         . . . .       O         . . . . . . . .     . .         . . . . O O . .         . O O O . . . .     . . . . . .             . . . .                 . . .             X O   @ p d #     .     . . .                             .   .   . . . .     . .         . . . . . . . . . . . . . . . .                 . .             . . . O O   . . . . . . . . . . O                   . . .                   . . .                               . .                         . . .                   . . . . . . . .       . . .             . . .                   . . . . . . .           . . . . . . . . . . . . . . . . . . . . . . . . . . . . . . . . . .         .   . .   . . . . . + & * - = - $ $ * * $ .             X .     X * * * + X X + & & + + . . . . . . . .             . . . .                 . . .             . . .                   . . .             . . . . . .     . . . .                 . . . .     . .         . .     . . . .     . . . . . .             . . . .                 . . .                   . . .                   . .               . . .         O             .                         . .                                 O O       . . O                                                                                               ",
"                                                                                                          .                 . .             . .                 . . . .                 .   . .         . . . .   . . .         . . . .       .         . . . . . . .     O O .         . . . .   O . . .       . O O   . . . .     .   . . . . . .         . . . .                 . . .             . .   X * e X   . .     . . .         . . . . . . . .   . .       . . . .     . . .       . . . . . . . . . . . . . . . .     O           . . O .         . . . .     .   . . . . . . . . O                   . . O O                 . . .                               . .   .           .         . . . .                 . . . . . . . .       . . .             . . .                   .   . . . . . .         . . . . . . . . . . . . . . . . . . . . . . . . . . . . . . . . . .                   . . . . . + * - = = - - % * = & + .   X X X X . .     X * * & + + + + + + + + . . . . . . . .             O . . .                 . . .               . .                 . . . .         .   . . . . . .     . . . .                 . . . .   . . .         . .       . . .     .   . . . . . .         . . . .                 . . .                   . . .               .   . .             . . . .                     . . . .                     . .                                   O         O O                                                                                               ",
"                                                                                                . .     . .                 . . .   . . . . . . .           . . . . . . . .         . . . . . .   .     . . . .     . . . .     . .   .     . .   .     . . . . . .         . .     O   . .         . . . .     . .         . .             . . . . . .   . . .         . . . .   . . .         .     . .     + +     . X     . . .     . . . . . .     .     . . .         . .     . . . .     . . . . . . . . . . . . . . . . . .   O     O . . . . . . .     . . .               . . . .     .       O O . . . . . .         . . . .   . . .             . . . .         . . . . . . . .     . . . .   . . .         .   . . . . . .         .       . . . . . . . .   . . .             . .             . . . . . .     . . . . . . . . . . . . . . . . . . . . . . . . . . . . . . . . .                     . .     . & = = - - - - - = = * + . . @ + + X         X & & + o + + o + + X . . . . . . . .   . . .     O O .         . . . .   . . .               . . . . . . .   .         . . .   . . . .   .             .   . .     .   . .     . . . .     . . . .     . .         . .             . . . . . .   . . .         . . . .   . . .         . . . .   . . .             . . . . . . . .             . . .   . .         . . . . . . . .     . . . .   . . .             . .                             O                                                                                                 ",
"                                                                                                . .     . .         .       . . . . . . . . . . .         . . . . . . . . . O   O . . . . . . . . .     O .         . . . .   O . .         . . . .     O .     . .         . . .   O . . .         . . . .     . .         . .                 . . . .     . .         . . . . . . . . .       X     . .             . .     . . .     . . . .             . . . .         . .     . . . .     . . . . . . . . . . . . . . . . . O O     O O . . . . . . . .   . . .               O O . . .   .       . . . . . . . . .       . . . . . . . . .       . . . . . .           . . . . . . . . . . . . .   . . .         . . . . . . . .                   . . . . . . . . . . . .       . . . .                 . . . .     . . . . . . . . . . . . . . . . . . . . . . . . . . . . . . . . .                     .       . & = = * $ % - = = = & .   . + + X     . .   X & + + & & + + + X .   . . $ % & + .   . . . . O O O .         . . . . . . . . .             . . . . . . . . .         . . .   . . . .                     . .     . . . .       .         . . . .     . .         . .                 . . . .     . .         . . . . . . . . .       . . . . . . . . .       . . . . . . . . .               . . .   .           . . . . . . . . .   . . . . . . . .             .                                                                                                                                 ",
"                                                                                                . .                             . . . . . . . . . .         . . . . .   . . . . . . . . O . . . . . . .                 . . . O O       . . . . . . . .         . O     . . . . . . . .     O           . . .   . .           .                       . . . . .   .         . . . .     . . . . .     . . .     .     .       X . . . . .                       . . . .       .       . . . .   . . . . . . . . . . . . . . . . . .         . . . . .   . . . .         . .         . . . .     . .         . . .       . . . .   . . . . . . . . .         . . . .         . . . . . . . . . .     . . . . . . . .         . . .   . . . .         . .           . . . . . . . . .         . .                       . . . . .     . . . .       . . .         . . . .     . .     . . . .     .                         . & = * % $ % * * = = + . . . + + X     . X . + & & + & & o + X .     . $ * = = & + . . . .             .         . . . .     . . . . . . . .     . . . .         . . . . . . . .                             . . . . . . . .                 . . .   . . .         .                       . . . . .   .         . . . .     . . . .   . . . . . . . . .         . . . .     . . . . . . . .       . . .         . . . . . . . . . .   . . . . . . .     . . .                                                                                                                                     ",
"                                                                                                        . .                         . . . . . . . .         . . . . .   . . . . . . . . O . . . . . . .             .   . . . O O O     . . . . . . . .         . O         . . . . . .     O O     . . . . .   . .                         .       . . . . . . . . . .     . . .       . . . . .     . . . . . . . . .     . . . . . . . .       .             . .                 . . . . .   . . . . . . . . . . . . . . . . . .         . . . . .   . . . .         . . .       . . . .     . .   O     . . .       . . . .     . . . . . . . .         . . . .         . . . . . . . .   .     . . . . . . . .   .     . .         . .       . . .             . . . . . . . .         . .             .         . . . . .     .   . .       . . .         . . . .     . .     .   . .     .           . .         . . & * * $ $ $ % & % % + + + + & + + .   X + X + o o + + o o + . .     $ % * = * & + + X . . .         . . . .     . . .       . . . . . . . .     . . . .     .   . . . . . . . .     . .                     . . . . . . . .             . . . . . . . .           .             .       . . . . . . . . . .     . . .       . . . .     . . . . . . . .         . . . . .   . . . . . . . .       . . .         . . . . .   . . . .     . . . . . .     . .                                                                                                                                       ",
"                                                                                                                              .         .   . . . . .       . . . .     O O             O   . .     . . O   . . . . . . . . . . .                   . . O   . .                   O . .     . . . . . . . . . .               .     . . . . . .         . .   . . . . .       . . .         . .             . . . . .           .   . .         . . . . . .                   . . . . . . . . . . . . . . . . . . . . . . . . . . .       . . . . .         O O     . . . .         . . .       . . . O       . . .       O . .         . . . . . . . .       . . . .     . . . . .                     . . . . . . . .       .         . . .       . . . .             . . . . . . . .       .     . . . . . .         . .             . . .       . . . .     . .         . .         . . .   .           . .     .   . . $ * + $ $ + . . + + % % & = & $ + .   X X . . + + + X + + + . . . . . $ % % * % + . + X X .         . . . .       . . .         . . . .         . . .       . . . . . . . .         . . . .   .     . .     . .         .       . . . . . . . . .                       . . . . . .         . .   . . . . .       . . .         . .         . . . . . . . .       . . .         . . . .         . . . . .     . . . . .                     . . .                                                                                                                                                 ",
"                                                                                                                            . .             . . . . . .     . . . .       O                 . .   O O O O O . . . . . . . . .   .                 O O O O O . .                   O . . . . . . . . . . . . .                 .     . . . . . .         . .     . . . .         . .         . .   . .       . .         . .         . .         . . . . . .                   . . . . . . . .   . . . . . . . . . . . . . . . . . .     . . . . . .           O O O . . . .         . . O O     . . . .     . . . .       O . .             .   . . . .     . . . .       . . . . .                       .     . . . .       .         . . . .     . . . .                 .   . . . .     . .     . . . . . .       . . .             . . .       . . .       .           . .         . . .                     . . . . . + & . + o . .   . . . % = = & + . .   . X . . . + X . + + + . . . . . . $ $ + + . . + X X . . .     . . . .         . .         . . .           . . .       . . . .     .           . . . . . .     . . . .                   . . . . . . . . . .                 .     . . . . . .         . .     . . . .         . .         . .             .   . . . .     . . . .             . . .       . . . . .       . . . .                         . .                                                                                                                                               ",
"                                                                                                                . .       . . .                       . . .     . O           O O             .     . . . . . O . . . . . .     . .                         . . . . O           . O O       . . . .     . . . .             . .   . . . . . . . .                       . . . . . . . . . . . . . . .       . . . . . . . . . .               . . . . . . . .       . .         . . . . . .     . . . . . . . . . . . . . . . .                 . .       . . .     . . . .         . . O       . . .     O . . . .           . . . . . . .           . . .         . .         .   . . . . . . . . . . . .         . . .               . . . .     . . .       . . . . . .           . . .       . . . . . . . .                       . .                   . .           .           . .                 . .     . . . . + + + o + X . . . . % % % % o . .   .       . X . . .     . . X .   . . $ . . . . . .         . .   . . . .         . .       . . . . . .       . .         . . . .               . . . . . . . . . . .         . . .           . . . .     . . . .             . .   . . . . . . . .               . . . .         . .       . . . . . . . . .           . . .     . .                   . . . . .         . .                                         . .                                                                                                                                       ",
"                                                                                                      .                   .             . .           . .       . .       .     O   .       . .     . . . .     O O . . . .     . .               . O       . . . . O .         . . O       . .   .     . . . .             . . . . . . . . . . .               .         . . . . . . . . . . . . . . .     . . . . . . . . . .               . . . . . . . . . .   . .         . . . . . .     . . . . . . . .     . . . . . .               O O .     . . . .     . . . .       . . . O     . . . .     O . . . .         . . . . . . . .           . .         . . .                 . . . . . . . . . .           . .               . . . .     . . . .     . . . . . .           . .       . . . . . . . . .               .         . .               . . . .         . .         . . .               . . .       . . + + + o X X . . . . % % % % + . .   .       . . . . .   . . + + .   . . . . . . % % . .       . .   . . . .         . .         . . . . .       . .         . . . .                 . . . . . . . . . .         . . . .         . .   .     . . . .             . . . . . . . . . . .               . . . .         . .         . . . . . . . .           . .       . .                 . . .   . .         . .                             .           . .                                                                                                                                       ",
"                                                                                                    . .                               . .           . . . .             . . . . . . . .             . .         O O             . . . O . .   . . . . .   . . . . . . . . .     . . . .       .             . . . . . .   . . .   . . . . .                 . . .         .     .           .   . . . .         . .         . . . .                 . . . . .   . . . . . .       .             . . . . . . . .     . . . . . .           O . .         O . . .         . . .       .   O .   . . .         . . . O O   . . . .   .                 . . . .         . . . .                 . .         .           . . . .             . .       . . .           .                 . . . .       . . . . .             .   . . . .                         . .   .           . . .                             .       . + & & + o X .         . . . . . . . .   . . .   . . X . . . + + + X . . . . . % % = = . . . .         . . . .     . . .       . . . . . . . .       .   .     . .   . . .           .     . . . .     .       . . . . . . . .     . .             . . .   . . . . . .   . . . . .                 . . . . . .     . . .       . . . .   .                 . . . .             . . . . . . . .         . .                     . .         . . .             .     .                                                                                                                                 ",
"                                                                                                    .         .                       .             . . . .             . . . . . . . .             . .         O               . . . . . . . . . . . .     . . . . . . . . .   . . . .     . .           . . . . . . . . . . .   . . . .       .       . . . . . .   . . .     .               . . . .         . .         . . . . . .       .       . . . .   . . . . .                       . . . . . . . . . . . . . . . .             . .         O . . .         . . O O   O . . . .     . .         . . . .     . . . .                     . . . .         . . . .                   .                     . . . .     . .   . . .       . . .                             . . . .       . . . .       .       . . . .   .                                               .                             . . . . + & & * + o .           . . . . . . .     . . .     . X X . + + + + + o $ . . $ % % % . . . . .             .       . . .       . . . . . . .           . .     . .     . . .         .     . . . . .   . .     . . . . . . . .     . .           . . . . . . . . . . .   . . . .       .       . . . .     .       . . .       . . . .                     . . . .             . . . . . . . .           .                     . .           . .                   .                                                                                                                                 ",
"                                                                                                      .       . .                     .           . . . . .       . O O     . . . .         . O           . . . . .             . . . . . . . .   O O . . . . . . . .   . . . .       . . . . .     . .           . . . . . . .     . . . .     . .         . . . . . .   . .   . . . .         . . . . . . . . .       . . . . . .         . .     . . . .     . .     . . . .                 . . . . . . . . . . . . . .       . . . . . . .   O . . O       . . . O                 . . .   . O O     . . . . . . . . O                       . . . . .             . . .                   .                   . . . . .   . . . .         .       . . . .                   . . . . .         . . . .     . .         . .                                                                                 . . X + & * * & + + X .                     . .     . .     . X + + + X . + & * = % % % % % . . o o o .                 . . . .   . . .                 . .     . . . .         . .         . .     . . . .     . . . . .             . . . . .     . .         . . . . . . . .     . . . .     . .         . .         . . . .   . . .                           . . . . .       .         . . . .   . . .                             .             .                                                                                                                                                       ",
"                                                                                                    . .     . . .           . .     . .             . . . .     . . . .     . . . .     . . . .             . . . .             . . . . . . O O     . . . . . . . . .   . . . .       . . . . .       .             . . . . . .     . . . .     . .         . . . . . .     .   .                   .                           . .         . .     . . . .     . . .   . . . . . .             . . . . . . . . . . . . . .     . . . . . . . .   . . .         . . . O       O     . . . . . . . .         . . . . . . . O     . .                 . . . .         . . . . . .       .         . .                 . . . .     . . . .         .       . . . . . .                 . . . .         . . . .     . .         . .                                                                                   . X + * * & & + + X .                               .     . X o o + X . + & = = % % % % % . . o % o o                 . . . .   . . .                 . . .   . . . .         . .         . .     . . . .       . . .               . . . . .       .             . . . . . .     . . . .     . .         . .         . . . .   . . .         . .                 . . . .     . . . .     . .         . .                                             .                                                                                                                                                     ",
"                                                                                                                .           . .                 . . . . . . . . . . . .         O       . . . .         . . . . . . . .         . .         O           . .   . . .         O O         . .         . . . .             . . . .       . . .     . . . .       .     .     . . .               .                                 .       . . . .     . . .       . .         . . . . . .   .     . . . . . . . . . . . . . . . . . . . .   .         . . . .     . . . .     . O . . . .   . . .                 . O . .         . . . .   .     . . . . . . . . . . . . . . .       . . . . . . . . . .         . . . . .   . .     . . .   . . . .         . . . . . .   .     . . . . . . . .       . . .     . . . .       .                                                                             . .   . . X $ $ $ $ + + . . . .                     .       . . . . X + + + + + + * % % % % % o . % % * * o         . .       .         . . . .         . . . .         . .     . . . .       . . .       . .           . . .               . .         . . . .             .   . .       . . .     . . . .       . . .       .         . . . .     . . . .   .     . . . . . . . . . . . .       .         . . . .         . .         . .                 . .         . .                                                                                                                                       ",
"                                                                                                                                                . . . . . . . . . . . .         O       . . . . . . O   . . . . . . . . .   O . . .                     . .     . .                   . . .         . . . . . .             .           . .     . . . .     . .           . . .                                                 . .     . . . .     . .         . .             . . . . . .     . . . . . . . . . . . . % % % & X X . .             . . . .     . . .       . . . . . .       .                   O . .         . . . . . .     . . . . . . . . . . . . . . .       . . . . . . . . . . . .   . . . . . . . . .       . . . . . . .       . . . . . . . . .     . . . . . . . .         . .     . . . .     .   .                                                                           . .       . . X + + + + + X . . .                   .       . X . . . X + + + + o o % % = % o . . % % * * o         . . .               . . .           . . . .             . . . . . .     . . . .     . . .           . . .             . . .         . . . . . .             . .         . .     . . . .     . . . . .               . . .       . . . . . .     . . . . . . . . . . . .                 . . . . .       . .         .                     .           .                                                                                                                                       ",
"                                                                                                                      O O O                                                                             . .         . .                     . . .               .                   . . .                                         . .         .                                                                                                                                             . .   . . . . . . . . . $ % = * * & + X .     . . .   .   . . .                                                                                                     . .       . . . . . . . . .                               .                               .                                                                                         . . .                                       . .     . . . . . .     . . . . X . . .         . . . .   . . . . . . . . .       . . X X X + + * % & o % % % % * * o . . .             .                                       . . . . . . . . . .     . . . .                                 O O       . . O . . . . . .                           .             . .                                                                                                         . .       .                                                                                                                                                                                   ",
"                                                                                                                        O O                                                                             . .         . .                     . . .               . .                 . .                                           . .         .                                                                                                                                         . X + o & * % % $ . . . . . $ % * = * % + .       . . .     . . . . . .                                                                                                   .     . . . . . . . .   .         . .                                                               .                                                                             .                                           .       . . . . .       . . . . . . .           . . . . . . . . . . . .   .     . . . . X X X X . . . o o & * * * * o o . . . .         . .                                     . . . . . . . . .       . . . .                                   O         O O . . . .   .                           .               .                                                                                                           .                                                                                                                                                                                           ",
"                                                                                                                                                                        . .         . .                                         . . . .   . . .             . .         .   . . . . . . .           .   . . .         .     . .                                                                     .   . . .                                                                           . X + o = = = * $ . . . . . $ % = = = % . .       . .         . . . . .           . . .     .   . . .           . .         .   . . .         . . .                                     . .                     .               . . .           . .   .         . . .         . . .                                                                                                                                                                                     . .                   . . . . .     . . o o % & o o o o . . . .           .                                                                                                                 O   . .             . .                 . .             . .                                                                                                                                                                                                                                                                                                       ",
"                                                                                                                                                                        . .                 . .                                 . . . . . . . . .       . . . .         . . . . . . . . .           .   . .         . .     . .             . . . . . .   . . . . . . . . . . .                     .   . .                       .                                                         . . % % % $ $ . . . $ % % * = * % % X .                                       . .       .   . .         . . . . .       .   . .         . . . .                                                                                                                                                                                                                                                                                                                                                 . .       . . . . . . . . o . . . .                                                                                                                                                                                                                                                                                                                                                                                                                                                                                               ",
"                                                                                                                                                                . .     . .         . .     . . . .                 . . .         . . . . .     . .         . . . .         . . . .     . . . .                     . .                         . . . . . . . . . . .   . . . .                                                                                                               . % % % % % % & & % * & & % + . . .       . . . . + X . .                                                 .                                                                                                                                                                                                                                                                                                                                 . . .                                                                     . . . .     . .                                                                                                                                                                                                                                                                                                                                                                                                                                                                                           ",
"                                                                                                                                                                . .     .           . .     . . . .                   . . .         . . . . .   . .         . . . .   .     . . . .     . . . .                     . .                                                                                                                                                                   . X o % % % % % % % % % % % + . . . .       . + + + + & + + . .   . .                                                                                                                                                                                                                                                                                                                                                                           . . .                                                                                   .     .                                                                                                                                                                                                                                                                                                                                                                                                                                                                                     ",
"                                                                                                                                                                                    .           .         .           .                 . . . . . . . .       . . . . .       . . .         . .       . . .                       .                                                                   . . .                                                                             . X X o + + . . . . $ $ % % $ . . . . .     . X + & & & & + X .     . .         .             . . .         .                 . . .         . .                                                                                                                                                                                                                                                                                                                                                                       . .                       .                                                                                                                                                                                                                                                                                                                                                                                                                                                                                     ",
"                                                                                                                                                                                                        . .                       .         . . . . . .     . . . . . .       . . .           .       . . .                       . . .                                                               . . .                                                                                 .   . . . . + % & * % % % $ + . . . + + + o + & & + + .                   . .             . . .         .                 . . .         . .                                                                                                                                                                                                                                                                                                                                                                         . .           .         . .                                                                                                                                                                                                                                                                                                                                                                                                                                                                                   ",
"                                                                                                                                                                                                                                                  . .         .         . .                                                                                                                                                                                                           . . . . . + + X . .   X + + + + + + + + + + X . + + & & + X .     . . . .                                                                                                                                                                                                                                                                                                                                                                                                                                                                                                                                                                                                                                                                                                                                                                                                                                                                                                                                                               ",
"                                                                                                                                                                                                                                                  . .         . .         .                                                                                                                                                                                                           . . . X X X + .       . + + + + + + + X + + X . + + & o + + . .       .                                                                                                                                                                                                                                                                                                                                                                                                                                                                                                                                                                                                                                                                                                                                                                                                                                                                                                                                                                 ",
"                                                                                                                                                                                                                                    . .   . .                 . . .                     . .                                                                                                                                                                                           . . X X X X . .       . X + + + + X X + + . . . . + + + + + X                                                                                                                                                                                                                                                                                                                                                                                                                                                                                                                                             O O O O O O     O O O O   O O O                                                                                                                                                                                                                                                                                                                                                                                               ",
"                                                                                                                                                                                                                                  . .   . .                       .                     . . .                                                                                                                                                                                       . . X X X X . . .       . . X X + . . . X X . . . . + + + + + + .                                                                                                                                                                                                                                                                                                                                                                                                                                                                                                                                           O O O O O O O O O O O O     O O                                                                                                                                                                                                                                                                                                                                                                                               ",
"                                                                                                                                                                                                                                                                                        .                                                                                                                                                                                           . . . . . . . X X .       X . . . . . . . . . . . . . . X X + + .                                                                                                                                                                                                                                                                                                                                                                                                                                                                                                                                           O O O O O O O O O O O O O O O O                                                                                                                                                                                                                                                                                                                                                                                               ",
"                                                                                                                                                                                                                                                                                                                                                                                                                                                                                      .     .   . X X . .     X . . . . . . . .   . . . . . . X + X .     .                                                                                                                                                                                                                                                                                                                                                                                                                                                                                                                                     O O O O O O   O     O O O O O O                                                                                                                                                                                                                                                                                                                                                                                               ",
"                                                                                                                                                                                                                                                  .         . .         . .         .                                                                                                                                                                                                           . . . .         . . . .           . . .       . + . .     . .                                                                                                                                                                                                                                                                                                                                                                                                                                                                                                                                   O O                     O   O O                                                                                                                                                                                                                                                                                                                                                                                               ",
"                                                                                                                                                                                                                                      . . .       . . .       . .       . . .       .                                                                                                                                                                                                               .               .               . .       . + .         . .                                                                                                                                                                                                                                                                                                                                                                                                                                                                                                                                 O O                         O O                                                                                                                                                                                                                                                                                                                                                                                               ",
"                                                                                                                                                                                                                                                      O O O                                                                                                                                                                                                                                                                                                                                                                                                             O                                                                                                                                           O O O                                                                                                                   O O                     O O O O                                                                                                               O O                                                                                                                                                                                                                                                                                                                                                                                                                                 ",
"                                                                                                                                                                                                                                                        O O                                                                                                                                                                                                                                                                                                                                                                           O                                               O                                                                                                                             O O                                                                                                                     O O                     O O                                                                                                                     O O                                                                                                                                                                                                                                                                                                                                                                                                                               ",
"                                                                                                                                                                                                                                                                                                                                                                                                                                                                                                                                                                                                                                    O O O O                         O O O O         O O O O                                                                                                                                                                                                                                     O O                                                                                                                                                                                                                                                                                                                                                                                                                                                                                                                                                                                           ",
"                                                                                                                                                                                                                                                                                                                                                                                                                                                                                                                                                                                                                                                                                                                                                                                                                                                                                                                                                                                                                                                                                                                                                                                                                                                                                                                                                                                                                                                                                                                              ",
"                                                                                                                                                                                                                                                                                                                                                                                                                                                                                                                                                                                                                                                                                                                                                                                                                                                                                                                                                                                                                                                                                                                                                                                                                                                                                                                                                                                                                                                                                                                              ",
"                                                                                                                                                                                                                                                                                                                                                                                                                                                                                                                                                                                                                                                                                                                                                                                                                                                                                                                                                                                                                                                                                                                                                                                                                                                                                                                                                                                                                                                                                                                              ",
"                                                                                                                                                                                                                                                                                                                                                                                                                                                                                                                                                                                                                                                                                                                                                                                                                                                                                                                                                                                                                                                                                                                                                                                                                                                                                                                                                                                                                                                                                                                              ",
"                                                                                                                                                                                                                                                                                                                                                                                                                                                                                                                                                                                                                                                                                                                                                                                                                                                                                                                                                                                                                                                                                                                                                                                                                                                                                                                                                                                                                                                                                                                              ",
"                                                                                                                                                                                                                                                                                                                                                                                                                                                                                                                                                                                                                                                                                                                                                                                                                                                                                                                                                                                                                                                                                                                                                                                                                                                                                                                                                                                                                                                                                                                              ",
"                                                                                                                                                                                                                                                                                                                                                                                                                                                                                                                                                                                                                                                                                                                                                                                                                                                                                                                                                                                                                                                                                                                                                                                                                                                                                                                                                                                                                                                                                                                              ",
"                                                                                                                                                                                                                                                                                                                                                                                                                                                                                                                                                                                                                                                                                                                                                                                                                                                                                                                                                                                                                                                                                                                                                                                                                                                                                                                                                                                                                                                                                                                              ",
"                                                                                                                                                                                                                                                                                                                                                                                                                                                                                                                                                                                                                                                                                                                                                                                                                                                                                                                                                                                                                                                                                                                                                                                                                                                                                                                                                                                                                                                                                                                              ",
"                                                                                                                                                                                                                                                                                                                                                                                                                                                                                                                                                                                                                                                                                                                                                                                                                                                                                                                                                                                                                                                                                                                                                                                                                                                                                                                                                                                                                                                                                                                              ",
"                                                                                                                                                                                                                                                                                                                                                                                                                                                                                                                                                                                                                                                                                                                                                                                                                                                                                                                                                                                                                                                                                                                                                                                                                                                                                                                                                                                                                                                                                                                              ",
"                                                                                                                                                                                                                                                                                                                                                                                                                                                                                                                                                                                                                                                                                                                                                                                                                                                                                                                                                                                                                                                                                                                                                                                                                                                                                                                                                                                                                                                                                                                              ",
"                                                                                                                                                                                                                                                                                                                                                                                                                                                                                                                                                                                                                                                                                                                                                                                                                                                                                                                                                                                                                                                                                                                                                                                                                                                                                                                                                                                                                                                                                                                              ",
"                                                                                                                                                                                                                                                                                                                                                                                                                                                                                                                                                                                                                                                                                                                                                                                                                                                                                                                                                                                                                                                                                                                                                                                                                                                                                                                                                                                                                                                                                                                              ",
"                                                                                                                                                                                                                                                                                                                                                                                                                                                                                                                                                                                                                                                                                                                                                                                                                                                                                                                                                                                                                                                                                                                                                                                                                                                                                                                                                                                                                                                                                                                              ",
"                                                                                                                                                                                                                                                                                                                                                                                                                                                                                                                                                                                                                                                                                                                                                                                                                                                                                                                                                                                                                                                                                                                                                                                                                                                                                                                                                                                                                                                                                                                              ",
"                                                                                                                                                                                                                                                                                                                                                                                                                                                                                                                                                                                                                                                                                                                                                                                                                                                                                                                                                                                                                                                                                                                                                                                                                                                                                                                                                                                                                                                                                                                              ",
"                                                                                                                                                                                                                                                                                                                                                                                                                                                                                                                                                                                                                                                                                                                                                                                                                                                                                                                                                                                                                                                                                                                                                                                                                                                                                                                                                                                                                                                                                                                              ",
"                                                                                                                                                                                                                                                                                                                                                                                                                                                                                                                                                                                                                                                                                                                                                                                                                                                                                                                                                                                                                                                                                                                                                                                                                                                                                                                                                                                                                                                                                                                              ",
"                                                                                                                                                                                                                                                                                                                                                                                                                                                                                                                                                                                                                                                                                                                                                                                                                                                                                                                                                                                                                                                                                                                                                                                                                                                                                                                                                                                                                                                                                                                              ",
"                                                                                                                                                                                                                                                                                                                                                                                                                                                                                                                                                                                                                                                                                                                                                                                                                                                                                                                                                                                                                                                                                                                                                                                                                                                                                                                                                                                                                                                                                                                              ",
"                                                                                                                                                                                                                                                                                                                                                                                                                                                                                                                                                                                                                                                                                                                                                                                                                                                                                                                                                                                                                                                                                                                                                                                                                                                                                                                                                                                                                                                                                                                              ",
"                                                                                                                                                                                                                                                                                                                                                                                                                                                                                                                                                                                                                                                                                                                                                                                                                                                                                                                                                                                                                                                                                                                                                                                                                                                                                                                                                                                                                                                                                                                              ",
"                                                                                                                                                                                                                                                                                                                                                                                                                                                                                                                                                                                                                                                                                                                                                                                                                                                                                                                                                                                                                                                                                                                                                                                                                                                                                                                                                                                                                                                                                                                              ",
"                                                                                                                                                                                                                                                                                                                                                                                                                                                                                                                                                                                                                                                                                                                                                                                                                                                                                                                                                                                                                                                                                                                                                                                                                                                                                                                                                                                                                                                                                                                              ",
"                                                                                                                                                                                                                                                                                                                                                                                                                                                                                                                                                                                                                                                                                                                                                                                                                                                                                                                                                                                                                                                                                                                                                                                                                                                                                                                                                                                                                                                                                                                              "
};
