/* XPM */
static char *_c1bbbb3eea9409b81ffd1c618744b97qex1efnb0m6UmKts[] = {
/* columns rows colors chars-per-pixel */
"460 460 256 2 ",
"   c #060201",
".  c #0A0604",
"X  c #0D0906",
"o  c #0E0A09",
"O  c #0A0707",
"+  c #130B05",
"@  c #120E0B",
"#  c #190E0B",
"$  c #160A03",
"%  c #15110E",
"&  c #1B130C",
"*  c #1A1107",
"=  c #161211",
"-  c #1A1512",
";  c #1C1916",
":  c #1D1B19",
">  c #181715",
",  c #110D10",
"<  c #22150C",
"1  c #27170A",
"2  c #211613",
"3  c #231A15",
"4  c #221D1A",
"5  c #2A1D16",
"6  c #321A0C",
"7  c #25211D",
"8  c #2B221C",
"9  c #2B2116",
"0  c #372519",
"q  c #38230D",
"w  c #2B2521",
"e  c #2B2724",
"r  c #342B24",
"t  c #392E25",
"y  c #352D29",
"u  c #362D28",
"i  c #393027",
"p  c #3C332C",
"a  c #36312D",
"s  c #3E3531",
"d  c #3E3935",
"f  c #3A3633",
"g  c #261D22",
"h  c #452B1A",
"j  c #4D2F19",
"k  c #462E22",
"l  c #41372D",
"z  c #483528",
"x  c #563A28",
"c  c #403732",
"v  c #443B35",
"b  c #483E36",
"n  c #463D39",
"m  c #493F3C",
"M  c #583C32",
"N  c #653C29",
"B  c #6B3D2E",
"V  c #582C14",
"C  c #5C412C",
"Z  c #4A4037",
"A  c #46413D",
"S  c #4B413D",
"D  c #4C473C",
"F  c #594437",
"G  c #67442C",
"H  c #76482D",
"J  c #684836",
"K  c #764C35",
"L  c #7B543B",
"P  c #775339",
"I  c #6E513A",
"U  c #5E421D",
"Y  c #4D4442",
"T  c #4E4945",
"R  c #4D4847",
"E  c #514644",
"W  c #524946",
"Q  c #554C4A",
"!  c #594E4C",
"~  c #5B4B44",
"^  c #56514D",
"/  c #5A514D",
"(  c #5C5147",
")  c #5C5451",
"_  c #5C5957",
"`  c #594F50",
"'  c #795745",
"]  c #605754",
"[  c #635A56",
"{  c #645D59",
"}  c #685F5C",
"|  c #695E55",
" . c #695046",
".. c #66615E",
"X. c #6A615D",
"o. c #75665A",
"O. c #6A6562",
"+. c #6A6868",
"@. c #736D69",
"#. c #79726C",
"$. c #747275",
"%. c #7A7572",
"&. c #7D7A7C",
"*. c #7B7777",
"=. c #706E71",
"-. c #5F5F61",
";. c #854C36",
":. c #87573A",
">. c #945A3C",
",. c #8E4A33",
"<. c #93623E",
"1. c #A3573D",
"2. c #875B43",
"3. c #965B44",
"4. c #8C5146",
"5. c #AC5A4A",
"6. c #8A6348",
"7. c #986647",
"8. c #976B53",
"9. c #9A7358",
"0. c #8F6B52",
"q. c #A66A49",
"w. c #A9734C",
"e. c #B6754D",
"r. c #A86C53",
"t. c #A87757",
"y. c #B77956",
"u. c #B66950",
"i. c #82766C",
"p. c #84796E",
"a. c #8A7869",
"s. c #987A68",
"d. c #857B72",
"f. c #8A7D73",
"g. c #827D7B",
"h. c #867B76",
"j. c #94796F",
"k. c #A87B65",
"l. c #B77C64",
"z. c #AB7C71",
"x. c #C57A57",
"c. c #C56C59",
"v. c #C87A65",
"b. c #D57868",
"n. c #DA746B",
"m. c #8A3C2B",
"M. c #B8845A",
"N. c #AB8259",
"B. c #8D8276",
"V. c #85817E",
"C. c #8D837A",
"Z. c #8C867B",
"A. c #92867A",
"S. c #95897D",
"D. c #97887A",
"F. c #9C826D",
"G. c #AB8467",
"H. c #B98867",
"J. c #B88A74",
"K. c #BB9477",
"L. c #B18C71",
"P. c #C8865B",
"I. c #D2895D",
"U. c #CD915E",
"Y. c #CC8D62",
"T. c #CB8C6C",
"R. c #C58967",
"E. c #D48967",
"W. c #C4936C",
"Q. c #CC946C",
"!. c #CA9366",
"~. c #D29365",
"^. c #D3946B",
"/. c #D49A6C",
"(. c #D89B6C",
"). c #C98C73",
"_. c #D88A74",
"`. c #C49473",
"'. c #CB9473",
"]. c #C59A74",
"[. c #CB9B74",
"{. c #CC9D7B",
"}. c #C6997A",
"|. c #D49374",
" X c #D39C74",
".X c #D39C7B",
"XX c #DA9B7C",
"oX c #D89778",
"OX c #E3877A",
"+X c #E1947B",
"@X c #CDA17B",
"#X c #CCA176",
"$X c #D5A175",
"%X c #D4A37B",
"&X c #D9A47C",
"*X c #D9A477",
"=X c #D8A06F",
"-X c #7F7D80",
";X c #827E81",
":X c #858282",
">X c #8A8584",
",X c #8D8986",
"<X c #8B8689",
"1X c #8E8A8A",
"2X c #948B83",
"3X c #9A8E82",
"4X c #928D8C",
"5X c #978984",
"6X c #9D9185",
"7X c #96918D",
"8X c #9C948B",
"9X c #9D978B",
"0X c #938F90",
"qX c #969192",
"wX c #9A9594",
"eX c #9D9995",
"rX c #9E9A9A",
"tX c #9B9798",
"yX c #A19486",
"uX c #A2958A",
"iX c #A49A8D",
"pX c #A89B8C",
"aX c #A49B93",
"sX c #A99E92",
"dX c #A29D9B",
"fX c #A39A98",
"gX c #BA9584",
"hX c #ABA295",
"jX c #A5A19E",
"kX c #ADA49A",
"lX c #ABA598",
"zX c #B0A69B",
"xX c #B2AA9E",
"cX c #A9A08F",
"vX c #AAA5A2",
"bX c #AEA9A5",
"nX c #A6A2A1",
"mX c #B4ACA3",
"MX c #B8AFA6",
"NX c #B2AEAA",
"BX c #B1A6A2",
"VX c #B9B0A6",
"CX c #B6B1AC",
"ZX c #BAB2AA",
"AX c #B5B1A6",
"SX c #A39FA0",
"DX c #D19C83",
"FX c #E69184",
"GX c #D4A582",
"HX c #DAA582",
"JX c #DBAA85",
"KX c #DBAC8B",
"LX c #D6A887",
"PX c #DBB18E",
"IX c #D8AC8D",
"UX c #E1A889",
/* pixels */
"_ _ _ _ _ _ _ _ -.-.-.-.-.-.O.O.O.O.O.O.+.+.+.+.+.+.+.+.+.+.=.=.=.=.=.=.=.$.$.$.$.$.$.$.$.$.$.$.*.*.*.*.$.*.*.*.&.&.&.&.&.&.&.&.&.&.&.&.&.;Xg.g.;X;X;X:X:X:X:X:X:X:X:X:X:X>X>X>X>X>X>X>X>X>X>X>X>X<X<X<X<X<X<X>X>X>X<X>X>X:X:X:X>X>X>XV.V.V.V.V.:X:X:X:X:X:X:X:X:XV.V.V.V.V.V.:XV.V.g.g.g.g.g.g.g.g.g.g.g.*.*.*.g.g.g.*.*.*.*.*.*.*.*.%.%.%.%.%.*.%.%.%.%.%.%.%.#.#.#.@.@.@.@.@.@.@.@.@.@.@.@.@.@.@.@.@.O.O.O.O.@.@.@.O.O.O.O.O.O.O.O.O.O.O.O.O.O.O.O.O.O.O.O.O.O.............} ......} } { { { { { { { { { { { { { { { { ......O.O.O.O.O.O.O.O.O.O.............O.O.O.O.O.O.O.O...O.O.O.O.O.O.X.O.O.O.X.X.O.O.O.O.O.O.O.O.O.X.X.X.X.X.X.X.X.X.X.} } } } } } } } } } } } } } } } { { { } } } { { } } } { } | | { | | | { { { { { ..{ { [ [ [ { ..........{ [ { ..{ { { { { | | | { { { [ [ [ { { [ [ [ [ [ ] ] ] ] ] [ ] ] ] ] _ ) _ _ ) ) ) ) ) ^ ^ ^ ^ ^ ^ ^ ^ Q Q ^ Q Q Q Q Q Q Q Q T T T T T T T T Y Y Y Y Y A A A A A A A A n n n n d d d d f f f f ",
"_ _ _ _ _ _ _ _ -.-.-.-.-.-.O.O.O.O.O.O.+.+.+.+.+.+.+.+.+.+.=.=.=.=.=.=.$.$.$.$.$.$.$.$.$.$.$.$.*.*.*.*.$.*.*.*.&.&.&.&.&.&.&.&.&.&.&.&.g.;Xg.;X;X;X:X:X:X:X:X:X:X:X:X:X:X>X>X>X>X>X>X>X>X>X<X<X>X<X<X<X<X<X<X>X>X>X>X>X>X>X:X:X>X>X>XV.V.V.V.V.:X:X:X:X>X>X>X:XV.V.V.V.V.V.V.:XV.V.g.g.g.g.g.V.g.g.g.g.g.g.*.*.g.g.g.g.*.*.*.*.*.*.*.*.%.%.%.%.%.%.%.%.%.%.%.%.#.#.#.@.@.@.@.@.@.@.@.@.@.@.@.@.@.@.@.@.@.@.O.O.@.@.@.O.O.O.O.O.O.O.O.O.O.O.O.O...O.O.O.O.O.O.O.O.............} ......} } { { { { { { { { { { { { { { { { ......O.O.O.O.O.O.O.O.O.O.............O.O.O.O.O.O.O.O...O.O.O.O.O.O.X.O.O.O.X.X.O.O.O.O.O.O.O.X.X.X.X.X.X.X.X.X.X.X.X.} } } } } } } } } } } } } } } } { { } } } } { { } } } { { { { { | | | { { { { { ..{ { [ [ [ { ..........{ [ { ..{ { { | { | | | { [ [ [ | | { | [ [ [ [ [ ] ] ] [ ] [ ] ] ] ] _ ) ) _ ) ) ) ) ) ^ ^ ^ ^ ^ ^ ^ ^ Q Q ^ Q Q Q Q Q Q Q Q W T T T T T T Y Y Y Y Y Y A A A A A A A A n n n n d d d d f f f f ",
"_ _ _ _ _ _ _ _ -.-.-.-.-.O.O.O.O.O.O.O.+.+.+.+.+.+.+.+.+.=.=.=.=.=.=.=.$.$.$.$.$.$.$.$.$.$.$.$.$.*.*.*.*.*.*.*.&.&.&.&.&.&.&.&.&.&.&.&.;X;X;X;X;X:X:X:X:X:X:X:X:X:X:X:X>X>X>X>X>X>X>X>X>X<X<X<X<X<X<X<X<X<X<X<X>X>X>X>X>X>X>X:X>X>X>X>XV.V.V.V.:X:X:X:X:X:XV.V.V.V.V.V.V.V.V.:Xg.g.g.g.g.g.V.V.g.g.g.g.g.g.g.*.g.g.g.g.g.*.*.*.*.*.*.%.%.%.%.%.%.%.%.%.#.%.#.%.#.#.@.@.@.@.@.@.@.@.@.@.@.@.@.@.@.@.@.@.@.@.@.@.@.O.@.O.O.O.O.O.O.O.O.O.O.O.O.O.....O.O.O.O.O.O.O...} ........{ ......{ } { { { { { { { { { _ { { { { { { { ....................O.O.................................O.O.O.O.....O.O.X.X.X.X.O.O.X.X.X.} } } } } X.X.X.X.X.X.X.X.} } } } } } } } } } } } } } } } { { { { } } } { } } } } { { { { | | | { { { { { ..{ { [ [ [ [ ..{ ......{ [ { { { { { | { | | | { { | | | | | | [ [ [ [ [ ] [ [ [ [ [ ] ] ] ] _ ) ) ) ) ) ) ) ) / / ^ ^ ^ ^ ^ ^ Q Q Q Q Q Q Q Q Q Q Q T T T T T Y Y Y Y Y Y Y Y A A A A A A A A n n n n d d d d f f f f ",
"_ _ _ _ _ _ _ -.-.-.-.-.-.O.O.O.O.O.O.O.+.+.+.+.+.+.+.+.=.=.=.=.=.=.=.=.$.$.$.$.$.$.$.$.$.$.$.*.$.*.*.*.*.*.*.*.&.&.&.&.&.&.&.&.&.&.&.;X;X;X:X:X:X:X:X:X:X:X:X:X:X:X:X>X>X>X<X<X<X<X<X<X<X<X<X<X<X<X<X,X,X<X<X<X<X<X>X>X<X>X>X>X>X>X>X>X>XV.V.V.V.:X:X:X:X:X:XV.V.V.V.V.V.V.V.:Xg.g.g.g.g.V.V.V.g.g.g.g.g.g.g.g.g.g.g.*.g.*.*.*.*.*.*.%.%.%.%.%.%.%.%.#.#.#.#.%.#.#.@.@.@.@.@.@.@.@.@.@.@.@.@.@.O.@.@.@.@.@.@.@.O.O.O.O.O.O.O.O.O.O.O.O.O.O.....................O...} ........} ......{ } { { { ..{ { { { _ _ { { { { { { { { ..................O...................................O.O.O.O.....O.O.X.X.X.X.O.O.} } } } } } } } } } } } } } } } } } } } } } } } } } } } } } } } { { { { } } { { } } } } { { { { | | | { { { { { ..{ { [ [ [ [ ..{ ......{ [ { { { { { | { | | | { | | | | | | | [ [ [ [ [ [ [ [ [ [ [ ] ] ] ] _ ) ) ) ) ) ) ) ) ) / ^ ^ ^ ^ ^ ^ Q Q Q Q Q Q Q Q Q Q Q T T T T T Y Y Y Y Y Y Y Y A A A A A A n n n A n n d d d d f f f f ",
"_ _ _ _ _ _ -.-.-.-.-.-.O.-.-.-.+.+.+.+.+.+.+.+.+.+.+.=.=.=.=.=.=.=.=.$.$.$.$.$.$.$.$.$.$.$.$.$.$.$.*.*.*.&.&.*.&.&.&.&.&.&.&.&.&.&.g.g.&.;X;X;X:X:X:X:X:X:X:X:X:X:X>X>X>X>X>X>X<X<X<X<X<X<X<X<X<X<X,X,X,X,X<X<X<X<X<X<X<X<X>X>X>X>X>X>X>X>XV.V.V.V.>X>X>X>XV.V.:XV.V.V.V.V.V.:Xg.g.g.g.V.V.V.V.g.g.g.g.g.g.g.g.g.g.g.g.g.*.*.*.*.*.*.%.*.%.%.%.%.%.%.#.#.#.#.$.#.#.#.@.@.@.@.@.@.@.@.@.O.@.@.@.O.O.@.@.@.@.@.@.@.@.O.O.O.O.O.O.O.O.O.O.O.....O.................O.............{ ....{ { ..{ { { ..{ { { { { { { { { { { { { { { { { ............O...................................X.O.O.X.....O.X.X.X.X.X.X.O.X.X.} } } } } } } } } } } } } } } } } } } } } } } } } } } } } } } } } { { { { { } } } { { | { { | | | | { } } } { { { [ | | | { { ..X...| | { { { { { { { { { { | | | | | | | | [ [ [ [ [ [ [ [ ] ] ] ] ] ] ] _ ) _ _ ) ) ) ) ) ) ) ^ ^ ^ ^ ^ ^ ^ ^ ^ Q Q Q Q Q Q Q Q T W T T T T T Y Y Y Y Y Y S A A A A A n n n n n n v d d d f f f f ",
"_ _ _ _ _ -.-.-.-.-.-.-.-.O.-.O.+.+.+.+.+.+.+.=.+.+.=.=.=.=.=.=.=.=.=.$.$.$.$.$.$.$.$.$.$.$.*.*.*.*.*.*.&.&.&.&.&.&.&.&.&.&.&.&.g.g.g.g.;X;X;X:X:X:X:X:X:X:X:X:X>X>X>X>X<X<X>X<X<X<X<X<X,X<X<X<X<X<X,X,X,X,X<X<X<X<X<X<X<X<X>X>X>X>X>X>X>X>X>X>XV.V.>X>X:X>XV.V.:XV.V.V.V.V.V.:Xg.g.g.V.V.V.g.g.g.g.g.g.g.g.g.g.g.g.g.g.g.*.*.*.*.*.*.%.%.%.%.%.%.%.%.%.%.%.%.%.#.#.#.@.@.@.@.@.@.@.@.@.@.@.@.@.O.O.@.@.@.@.@.@.O.O.O.O.O.O.O.O.O.O.O.O.........................O.............{ { { { { ..{ { { { { { { { { { { { { [ { _ { { { { { { { ................} } ........................X.X.X.......X.X.X.} X.X.X.X.X.X.X.} } } } } } } } } } } } } } } } } } } } } } } } } { { { { } } } } { { { } } } } { { | { { | | | | { } } } { { { | | | | { { ..X...| | { { { { { { { { { { | | | | | | | | [ [ [ [ [ [ [ [ ] ] ] ] ] ] ] _ ) _ ) ) ) ) ) ) ) ) ^ ^ ^ ^ ^ ^ ^ ^ ^ Q Q Q Q Q Q Q Q T W T T T T T T Y T Y Y Y Y A A A A n n n n m n n v d d d f f f f ",
"_ _ _ _ _ -.-.-.-.-.-.-.O.O.O.O.+.+.+.+.+.+.+.=.=.=.=.=.=.=.=.=.=.=.$.$.$.$.$.$.$.$.$.$.$.*.*.*.*.*.*.&.&.&.&.&.&.&.&.&.&.&.&.&.g.g.&.;X;X;X:X:X:X:X:X:X:X:X:X:X>X>X>X>X>X>X<X<X<X<X<X<X,X,X,X,X<X,X,X,X<X,X,X<X<X<X<X<X<X>X>X>X>X>X>X>X>X>X>X>XV.V.V.>X:X:XV.V.:XV.V.V.V.V.V.:Xg.g.V.V.V.g.g.g.g.g.g.g.g.g.g.g.g.g.g.g.*.*.*.*.*.*.*.*.*.%.%.%.%.%.%.%.%.%.%.%.#.#.#.@.#.@.@.@.@.@.@.@.@.@.@.@.O.@.@.@.@.O.O.@.O.O.O.O.O.O.O.O.O.O.O...........................O.............} { { ........{ { { { { { { { { { { { _ _ _ _ _ { { { { } ................} } ..........................X.X.......X.X.X.} } X.X.X.X.X.X.X.} } } } } } } } } } } } } } } } } } } } } { } { { { { { } } { { { { } } } } } { { | | { | { | | | { } } { { { [ | { | { { ..X...| | | { { { { { { | | | [ [ { { { { | | [ [ [ [ [ [ [ [ ] ] ] ] ] ] ] _ ) _ _ ) ) ) ) ) / / / ^ ^ ^ ^ ^ ^ Q ^ Q Q Q Q Q Q Q Q W W T T T Y T Y Y Y Y Y Y Y Y A A A n n n n m n n v d d d f f f f ",
"_ _ _ _ _ -.-.-.-.-.-.-.O.O.O.O.+.+.+.+.+.+.+.+.=.=.=.=.=.=.=.=.=.=.$.$.$.$.$.$.$.$.$.*.*.*.*.&.*.*.*.&.&.&.&.&.&.&.&.&.&.&.&.&.&.&.&.;X;X:X;X:X:X:X:X:X:X:X:X:X>X>X>X>X>X<X<X<X<X<X<X<X<X<X,X,X<X,X,X,X<X,X,X<X<X<X<X<X<X>X>X>X>X>X>X>X>X>X>X>XV.V.V.>X:X:XV.V.:XV.V.V.V.V.V.:Xg.V.V.V.V.g.g.g.g.g.g.g.g.g.g.g.g.g.g.*.*.*.*.*.*.*.*.*.*.%.%.%.*.%.%.%.%.%.%.%.#.#.#.@.@.@.@.@.@.@.@.@.@.@.@.@.O.@.@.@.@.O.O.@.O.O.O.O.O.O.O.O.O.O.O...........................O.............} { { ........{ { { { { { { { { { { { [ _ _ _ _ _ { { { { } ............} } } { ........................X.X.....X.X.X.X.} } X.X.X.X.X.X.X.X.X.} } } } } } } } } } } } } } } } } } { { } } { { { { } } } { { { } } } } } { { | | { { { | | | { } } { { { | | { | { { ..X...| | | { } } { { { | | | [ { { { { { | | [ [ [ [ [ [ [ [ ] ] ] ] ] ] ] _ ) _ _ ) ) ) ) ) / / / ^ ^ ^ ^ ^ Q Q ^ Q Q Q Q Q Q Q Q W W T T T Y Y Y Y Y Y Y Y Y Y A A A n n n n n n n v d d d f f f f ",
"_ _ _ _ _ -.-.-.O.O.O.O.O.O.+.+.+.+.+.+.+.+.+.+.=.=.=.=.=.=.$.$.$.$.$.$.$.$.$.$.*.$.*.*.*.&.&.&.&.&.&.&.&.&.&.&.&.&.&.&.;X:X:X:X;X;X;X;X;X:X:X:X:X:X:X:X:X:X:X:X<X>X>X>X>X>X>X>X>X>X<X<X,X,X<X<X,X,X,X<X<X,X,X,X<X<X<X<X<X>X>X>X>X>X>X>X>XV.V.V.V.>X>X>X>X:XV.V.V.V.V.V.V.V.V.V.V.V.V.V.V.g.g.g.g.g.g.g.g.g.g.g.g.g.*.*.g.g.*.*.%.%.%.%.%.%.*.*.%.%.%.$.#.#.#.#.$.$.#.#.@.@.@.@.@.@.@.@.@.@.@.@.O.O.@.@.@.O.O.O.O.O.O.O.O.O.O.O...........O.....O.O.O.O.........} } ....{ { { { ......} ..{ { { { { { { { { { { _ _ { { { { { { _ { { { { { } ............{ { { X.} } { { } } X.X.X.X.X.X.X.X.X.X.X.X.X.X.X.X.X.X.X.X.X.X.X.X.X.} } } } } } } } } } } } } } } } } } } } } } } } { { { { { } } } | | { { { { | | { { { { { { { { } } } } } } } } X.X.} } } { | | { { { { { { { { { { | [ [ [ [ | [ [ [ [ [ [ [ [ ] ] ) ) ) ) ) _ ) ) _ ) ) ) ) ) ) ) ) / / ^ ^ ^ ^ ^ ^ ^ ^ ^ Q Q ^ Q T T T T Y Y T T Y Y Y Y Y Y A A A A A A A n n n n n d d d d d d d d ",
"_ _ _ _ -.-.-.-.O.O.O.O.O.O.+.+.+.+.+.+.+.+.+.+.=.=.=.=.=.=.$.$.$.$.$.$.$.$.$.$.*.*.*.*.&.&.&.&.&.&.&.&.&.&.&.&.&.&.&.g.:X:X:X:X;X;X;X;X:X:X:X:X:X:X:X:X:X:X:X:X<X<X>X>X>X>X>X<X>X>X<X<X,X,X<X<X,X,X,X<X<X,X,X,X<X<X<X<X<X<X>X>X>X>X>X>X>X>XV.V.V.>X>X>X>X:XV.V.:X:X:X:XV.V.:X:XV.V.V.V.V.V.g.g.g.g.g.g.g.g.g.g.g.g.*.*.g.g.g.*.*.%.%.%.%.%.%.*.%.%.%.$.#.#.#.#.$.$.#.@.@.@.@.@.@.@.@.@.@.@.@.@.@.@.@.@.@.O.O.O.@.@.@.O.O.O.O.O.........O.O.....O.O.O.....................{ { { ......{ ..{ { { { { { { { { { { _ [ { { { { { { { { { { { _ { { ..........{ { { X.} { { { { } X.X.X.X.X.X.X.X.X.} } X.X.X.X.X.X.X.X.X.X.X.X.X.X.} } } } } } } } } } } } } } } } { { { { { } { { { { { { { { } } | | { { { { | | { { { { { { | | } } } } } } } } X.X.} { { { | | { { { { { { { { { { | [ [ [ [ | [ [ [ [ [ [ [ [ ] ] ) ) ) ) ) _ ) ) _ ) ) ) ) ) ) ) ) / / ^ ^ ^ ^ ^ ^ ^ Q Q Q Q Q Q T T T T Y Y T T Y Y Y Y Y Y A A A A A A A n n n n n n d d d d d d d ",
"_ _ _ _ -.-.-.-.O.O.O.O.O.+.+.+.+.+.+.+.+.+.+.+.=.=.=.=.=.$.$.$.$.$.$.$.$.$.$.$.$.*.*.*.&.&.&.&.&.&.&.&.&.&.&.&.&.&.&.g.;X;X:X:X;X:X:X:X:X:X:X:X:X:X:X:X:X:X:X:X>X>X>X>X>X>X>X>X<X<X<X<X,X,X<X<X,X,X<X<X<X<X,X,X<X<X<X<X<X<X<X>X>X>X>X>X>X>X>XV.>X>X>X>X>X:XV.V.>X>X>X>X>X>X>X>XV.V.V.V.V.V.g.g.g.g.g.g.g.g.g.g.g.g.*.*.g.g.g.*.%.%.%.%.%.%.%.*.%.%.%.$.#.#.#.#.#.#.#.@.@.@.@.@.@.@.@.@.@.@.@.@.@.@.@.@.@.@.@.O.@.@.@.@.@.O.O.O.................O.O.O.......................{ { ......{ ..{ { { { { { { { _ { { _ _ _ { { { { { { { { { _ _ _ _ { { { { { ......} } { { { { } } } } } } } } } } { } } } X.X.X.X.X.X.X.X.X.X.X.X.} } } } } } } } } } } } } } } } { { { { { { { { { { { { { { { { { { { { { { { { { { { { { { | | } } } } } } } } } } { { { { | | | | { { { { { { { { | [ [ [ [ [ [ [ [ [ [ [ [ [ ] ] ] ) ] ] ] _ ) ) ) ) ) ) ) ) ) ) ) / / ^ ^ ^ ^ ^ ^ ^ Q Q Q Q Q Q T T T T T Y T T Y Y Y Y Y Y A A A A A A A n n n n n n d d d d d d d ",
"-.-._ _ -.-.-.-.O.O.O.+.+.+.+.+.+.+.+.+.+.+.+.=.=.=.=.=.=.$.$.$.$.$.$.$.$.$.$.$.$.*.*.*.&.&.&.&.&.&.&.&.&.&.&.&.&.g.g.:X;X:X:X:X:X:X:X:X:X:X:X:X:X:X:X:X:X:X:X:X<X<X<X<X<X<X<X>X<X<X<X,X,X<X<X<X,X,X<X<X<X<X,X,X,X,X<X<X<X<X<X<X>X>X>X>X>X>X>X>X>X>X>X>X>X>XV.V.>X>X>X>X>X>X>X>XV.V.V.V.V.g.g.g.g.g.g.g.g.g.g.g.g.g.*.*.g.g.g.*.*.%.%.%.%.%.%.%.%.%.%.%.#.#.$.$.#.#.#.@.@.@.@.@.@.@.@.@.@.@.@.@.@.@.@.@.@.@.@.O.@.@.O.O.O.O.O.O.......O.........O.............................} ......{ ..{ { { { { { { { _ { { _ _ _ { { { _ _ [ { { { _ _ _ { { { { { { ......{ { { { { { { { { { { { { { { { { { { } } X.X.X.} } } } } } } } } } } } } } } } { { { { { { } } { { { { { { { { { { { { { { { { { { { { { { { { { { { { { { | | } } } { { { { { } { { { { { | | | | | | | | | | { | [ [ [ [ [ [ [ [ [ [ [ [ [ [ ] ] ] ] ] ] ] _ ) _ _ ) ) ) ) ) ) ) ) / / ^ ^ ^ ^ ^ ^ ^ Q Q Q Q Q Q T T T T T Y T T Y Y Y Y Y Y A A A A A A A n n n n n n d d d d d d d ",
"-.-.-.-.-.-.-.-.O.+.+.+.+.+.+.+.+.+.+.+.+.=.=.=.=.=.=.=.$.$.$.$.$.$.$.$.$.*.*.*.$.$.&.&.&.&.&.&.&.&.&.&.&.&.&.&.&.;Xg.g.;X;X:X:X:X:X:X:X:X:X:X:X:X:X:X:X:X:X:X:X<X<X<X<X<X<X>X>X<X,X,X,X,X<X<X<X,X<X<X<X<X<X<X,X,X,X,X<X<X<X<X<X>X>X>X>X>X>X>X>X>X>X>X>X>X>XV.V.V.V.V.V.V.V.V.V.V.V.V.V.V.g.g.g.g.g.g.g.g.g.g.g.g.g.g.g.g.g.g.*.*.%.%.%.%.%.%.%.%.%.%.%.#.#.$.$.#.#.#.@.@.@.@.@.@.@.@.@.@.@.@.@.@.@.@.@.@.@.@.O.O.O.O.O.O.O.O.O.......O.......................................} ......{ { { { { { { { { { { { { _ [ [ { { _ _ _ _ [ { { { [ { { _ [ { { { } ....{ { { { { { { { { { { { { { } } { { { { } } X.X.} } } } } } } } } } } } } } } } { { { { { { { } } } } } } } } } { { { { { { { { { { { { { { { { { { { { { { { { } } } } } } } } } | | | { [ [ [ | | | | | | { | { | [ [ [ [ [ [ [ [ [ [ [ [ [ [ ] ] ] ] ] ] ] / ) _ _ ) ) ) ) ) ) ) ) ^ / ^ ^ ^ ^ ^ ^ Q Q Q Q Q Q T T T T T T T T T Y Y Y Y Y Y A A A A A A A n n n n d n v d d f f f f ",
"-.-.-.-.-.-.-.-.+.+.+.+.+.+.+.+.+.+.+.+.=.=.=.=.=.=.=.=.$.$.$.$.$.$.$.$.*.*.*.*.*.*.*.&.&.&.&.&.&.&.&.&.&.&.&.&.;Xg.g.;X;X;X:X:X:X:X:X:X:X:X:X:X:X:X:X:X:X:X:X<X<X<X<X<X<X<X<X<X,X,X,X,X<X<X<X<X<X<X<X<X<X<X<X<X,X,X,X,X<X<X<X<X>X>X>X>X>X>X>X>X>X>X>X>X>X>XV.:XV.V.V.V.V.V.V.V.V.V.V.V.V.g.g.g.V.g.g.g.g.g.g.g.g.g.g.g.g.g.*.*.*.*.%.%.%.%.%.%.%.%.%.%.#.#.$.$.#.#.@.@.@.@.@.@.@.@.@.@.@.@.@.@.O.O.@.@.@.@.O.O.O.O.O.O.O.O.O.O.....O.O.....................................} } ......{ } { { { { { { { { { { { _ [ [ [ _ _ _ _ _ _ [ [ { [ { { _ [ [ { { { { { { { { { { { { { { { { { { { { { { { { { { } } } } } } } } } } } } { } } { } } } { { { { { { { { } } } } } } } } } } { { { { { { { { { { { { { { { { { { { { { { [ [ { { } } } { { { | [ [ [ [ [ [ [ [ [ [ [ [ [ | | [ [ [ [ [ [ [ [ [ [ [ [ [ ] ] ] ] ] ] ] ) ) ) _ ) ) ) ) ) ) ) ) ) ^ / ^ ^ ^ ^ ^ ^ Q Q Q Q Q Q W T T T T T T T T Y Y Y Y Y Y A A A A A A A n n n n n n v d d f f d f ",
"-.-.-.-.-.-.O.O.+.+.+.+.+.+.+.+.+.+.+.+.=.=.=.=.=.=.=.=.$.$.$.$.$.$.$.$.*.&.&.&.*.*.&.&.&.&.&.&.&.&.&.&.&.&.&.&.;X:X:X;X:X:X:X:X:X:X:X:X:X:X:X:X:X:X:X:X:X:X<X<X<X<X<X<X<X<X<X<X,X,X,X,X<X<X<X<X<X<X<X<X<X<X<X<X,X<X,X,X,X<X<X<X>X>X>X>X>X>X>X>X>X>X>X>X>X>X>XV.:XV.V.V.V.:X:X:XV.V.V.V.V.g.g.g.V.V.g.g.g.g.g.g.g.g.*.g.g.g.*.*.*.*.*.%.%.%.%.%.%.%.%.%.#.#.#.#.#.#.@.@.@.@.@.@.@.@.@.@.@.O.O.@.O.O.O.O.O.O.O.O.O.O.O.O.O.O.O.O...........................................} { { ......{ } { { { { { { { { { { { [ _ [ [ [ _ _ _ _ _ [ _ _ _ _ _ _ _ [ { { { { { { { { [ [ { { { { { { { { { { { { { { { { { { { } } } } } } } } { { { { { { } } { { { { { { { { { } } } { { { { } } } { { { { { | | { { { { | | { { { { | | { { [ [ | | } } { { [ [ [ [ [ [ [ [ [ [ [ [ [ [ [ [ | [ [ [ [ [ [ [ [ [ [ [ [ [ [ [ [ [ ] ] ] ] ) ) ) _ _ ) ) ) ) ) ) ) ) ^ / ^ ^ ^ ^ ^ Q Q Q Q Q Q Q T T T W W T T T T Y Y Y Y Y Y A A A A A A A n n n n n n v d d d d d d ",
"-.-.-.-.-.-.O.O.+.+.+.+.+.+.+.+.+.+.+.=.=.=.=.=.=.=.=.$.$.$.$.$.$.$.$.*.&.&.&.&.*.*.&.&.&.&.&.&.&.&.&.&.&.&.&.&.:X:X:X:X:X:X:X:X:X:X:X:X:X:X:X:X:X:X:X:X:X<X<X<X<X<X<X<X<X<X<X<X,X,X,X,X<X<X<X<X<X<X<X<X<X<X<X<X<X<X,X,X,X<X<X<X>X>X>X>X>X>X>X>X>X>X>X>X>X>X>XV.>X>X>X>X>X>X>X>XV.V.V.V.V.g.g.g.V.V.V.g.g.g.g.g.g.g.*.*.g.g.*.*.*.*.*.%.%.%.%.%.%.%.%.%.#.#.#.#.#.#.@.@.@.@.@.@.@.@.@.@.O.O.O.O.O.O.O.O.O.O.O.O.O.O.O.O.O.O.O.O.................................} } ....{ } { { ......{ { { { { { { { { { { { { _ _ [ [ [ _ _ _ _ _ _ _ _ ) ) _ [ _ _ { { { { { { { { [ [ { { { { { { { { { { { { { { { { { { { } } } } } } } } { { { { { { } } { { { { { { { { { { { { { { { { } } } { { { { { | | { { { { | | | { { { { | { { [ [ [ | | } { { [ [ [ [ [ [ [ [ [ [ [ [ [ [ [ [ | [ [ [ [ [ [ [ [ [ [ [ [ [ [ [ | [ ] ] ] ] ) ) ) ) ) ) ) ) ) ) ) ) ) ^ / ^ ^ ^ ^ ^ Q Q Q Q Q Q Q T W T W W W T T T Y Y Y Y Y Y A A A A A A A n n n n n n v v v d d d d ",
"-.-.-.-.O.O.O.O.+.+.+.+.+.+.+.+.+.+.=.=.=.=.=.=.$.$.$.$.$.$.$.$.$.$.$.$.*.*.&.&.*.*.&.&.&.-X-X-X&.&.&.&.&.&.;X;X;X;X;X:X:X:X:X:X:X:X:X:X:X<X<X<X<X<X<X<X<X<X<X<X<X,X,X,X,X<X,X<X<X<X<X<X<X<X<X<X<X<X<X<X<X,X,X,X<X<X<X<X<X,X,X<X>X>X>X>X>X>X>X>X>X>X>X>X>X>X>XV.>X>X>X:X:XV.V.V.V.V.V.V.V.g.g.g.V.g.g.V.g.g.g.g.g.g.*.*.g.g.*.*.*.%.%.%.%.%.%.%.%.%.%.#.$.$.#.#.@.@.@.@.@.@.@.@.@.@.@.@.@.@.@.@.O.O.O.O.O.O.O.O.O.O.O.O.O.O.O.O.O.O..._ { O.O..._ _ { ......{ _ { ......{ { { { { _ _ O..._ _ { ) _ { _ _ { _ _ _ _ _ _ _ _ _ { _ _ { _ _ ) _ _ _ { _ ) _ _ _ ) [ ] ] { { [ [ { { { { { { { { { [ { [ [ [ [ { [ { { { { { { { { { { { { { { { { { { { { { { } } { { { { { { { { { { { { { { { { { { { { { { { { { { { { { { { { { { { { { { { { [ [ [ [ [ [ [ [ | | | [ [ [ [ [ [ | | [ [ ] ] ] [ [ ] ] ] [ [ [ ] ] ] ] ] ] ] ] ) ) ) ) ) ) ) ) ) ) / / ^ ^ ^ ^ Q Q Q Q Q W W W W W W W W W E W T T T Y Y Y A A A A A A A A A A n n d d d d d d v d d d ",
"-.-.-.O.O.O.O.O.+.+.+.+.+.+.+.+.+.+.=.=.=.=.=.=.$.$.$.$.$.$.$.$.$.$.$.$.*.*.&.&.*.*.&.&.&.-X-X-X&.&.&.&.&.&.;X;X;X;X:X:X:X:X:X:X:X:X:X:X>X<X<X<X<X<X<X<X<X<X<X<X,X,X<X<X<X<X,X,X<X<X<X<X<X<X<X,X<X<X<X<X<X<X,X,X<X<X4X1X<X,X<X<X>X>X>X>X>X>X>X>X>X>X>X>X>X>X>X:X>X>X>X:X:XV.V.V.V.V.V.V.V.g.g.g.V.g.g.V.g.g.g.g.g.g.*.*.g.g.*.*.*.%.%.%.%.%.%.%.%.%.%.#.$.$.#.#.@.@.@.@.@.@.@.@.@.@.@.@.@.+.+.@.O.O.O.O.O.O.O.O.O.O.O.O...{ { _ { ........O.O.{ ..{ { { { { ................{ { ..{ { ..{ _ _ _ O...{ _ _ { ....) _ _ { _ _ ) ) _ _ _ ) _ _ _ _ ) _ ) ^ ) _ { [ { [ ] { { ] ] { { { { { { [ [ [ { { [ [ [ [ { { { { { { { { { { { { { { { { { { { { { { { { { } { { { { { { { { { { { { { { { { { { { { { { { { { { { { { { { { { { { { { { { { { { { { { { { { | | | [ [ [ [ [ [ | [ [ [ ] ] ] [ [ ] ] ] ] [ [ ] ] ] ] ] ] ] ] ] ] ) ) ) ) ) ) ) ) / / ^ ^ ^ ^ Q Q Q Q Q Q W W W W E E E E E T T T Y Y Y Y A A A A A A A A n A n n d d d d d d v d d d ",
"O.O.O.O.O.O.O.O.+.+.+.+.+.+.+.+.=.=.=.=.=.=.=.=.$.$.$.$.$.$.$.$.$.$.$.$.*.&.&.&.&.&.&.&.&.&.-X-X&.&.&.&.&.;X:X:X:X:X:X:X:X:X:X:X:X:X:X:X<X<X<X<X<X<X<X<X<X<X<X<X<X<X<X<X<X<X<X<X<X<X<X<X<X<X,X,X<X<X1X<X<X<X<X,X<X<X1X4X4X<X<X<X>X>X>X>X>X>X>X>X>X>X>X>X>X>X>X:X>X>X>X:X:XV.V.V.V.V.V.V.V.g.g.g.V.g.g.V.g.g.g.g.g.g.*.*.g.g.*.*.*.%.%.%.%.%.%.%.%.%.%.%.$.#.#.#.@.@.@.@.@.@.@.+.@.@.@.@.+.O.O.O.O.O.O.O.O.O.O.O...............{ ....{ _ _ { ....{ { { { { { ..............{ { { ......{ { { _ _ _ _ _ { { _ _ _ _ _ { { _ _ _ _ { _ _ _ _ _ { { _ _ _ ) ) _ _ _ { { ] [ [ ] [ { { { { { { { [ [ { { { { { { { { { { { { { { { { { { { { { { { { { { { { { { } } { { { { { { { { { { { { { { { { { { { { { { { { { { { { { { { { { { { { { { { { { { { { { { { { [ [ [ [ [ [ [ [ [ [ [ [ ] ] ] ] [ ] ] ] [ [ [ [ ] ] ] ] ] ] ] ) ] ) ) ) ) ) ) ) ) / / / ^ ^ ^ ^ Q Q Q Q Q Q W W E E E E E E Y Y T T Y Y Y Y Y Y A A A A A A n n n n n n d d d d d d d d ",
"O.O.O.O.O.O.O.+.+.+.+.+.+.+.+.+.=.=.=.=.=.=.=.$.$.$.$.$.$.$.$.$.*.*.$.*.&.&.&.&.&.&.&.&.&.&.-X-X&.&.&.g.;X:X:X:X:X:X:X:X:X:X:X:X:X:X:X<X<X<X<X<X<X<X<X<X<X<X<X<X<X<X<X<X<X<X<X<X<X<X<X<X<X<X<X<X4X4X1X<X<X<X<X<X,X<X1X4X4X<X<X>X>X>X>X>X<X<X<X<X>X>X>X>X>X>X>XV.>X>X>X:X:XV.V.V.V.V.V.V.V.V.g.g.V.g.g.V.g.g.g.g.g.g.*.*.g.g.*.*.*.%.%.%.%.%.%.%.%.%.%.%.$.#.#.#.@.@.@.@.@.@.+.+.@.@.@.@.@.O.O.O.O.O.O.O.O.O.O.O...{ { _ { { ......{ { _ ) ) _ _ ^ ) _ ......{ _ { { { { ..{ { { _ ...._ _ .._ ^ _ _ _ _ _ _ _ { { { _ ) ) _ _ _ _ _ _ _ ) ) ) _ ) _ _ ) ) ) _ _ [ ] ) ) ) ) ] [ { { { [ [ [ [ [ { { { { { { { { [ { { { { { { [ { { { { { { { { { { { { { { } } { { { { { { { { { { { { { { { { { { { { { { { { { { { { { { { { { { { { { { { { { { { { { { { { [ [ [ [ [ [ [ [ [ [ [ [ [ [ ] ] ] ] ] ] ] ] ] ] ] ] ] ] ) ) ) ) ] ) ] ) ) ) ) ) / / / / ^ ^ Q Q Q Q Q Q Q Q W W W W W E E E E T T T Y Y Y Y Y Y A A A A A A n n n n n n d d d d d d d d ",
"-.O.O.O.O.+.+.+.+.+.+.+.+.+.+.+.=.=.=.=.=.$.$.$.$.$.$.$.$.$.$.$.*.&.&.&.&.&.&.&.&.&.&.&.&.&.-X-X&.g.;X;X:X:X:X:X:X:X:X:X:X:X:X:X:X:X<X<X<X<X<X<X<X<X<X<X<X<X<X<X,X,X<X<X,X<X,X,X<X<X<X<X<X<X<X<X4X4X4X<X<X<X<X<X<X<X<X4X<X<X<X<X>X>X>X<X<X>X>X>X>X>X>X>X>X>X>XV.>X>X>XV.:XV.V.V.V.V.V.V.V.g.g.g.V.g.g.V.g.g.g.g.g.g.*.*.g.g.*.*.%.%.%.%.%.%.%.%.%.%.%.#.#.#.#.#.@.@.@.@.@.@.@.@.@.@.@.@.@.+.+.O.O.O.O.O.O.O.O.O.@.O.{ _ _ { { .._ { O.O.{ ) Q Q Q ^ _ _ { { { _ { { { { { ..{ { _ { { _ _ _ ^ Y A T T A d d T ) ) { _ _ ^ ) _ _ Q ) _ _ ) ^ ^ ) Q ^ ) _ _ _ _ _ _ _ _ ) ) ) ) ) [ [ [ [ [ [ [ [ [ [ { { { { [ [ [ [ { { { { [ [ { { { { { { { { { { { { } } { { { { { { { { { { { { { { { { { { { { { { { { { { { { { { { { { { { { { { { { { { { { { { { { { { [ [ [ [ [ [ [ [ [ [ [ [ ] ] ] ] ] ] ] ] ] ] ] ] ] ] ] ] ) ) ) ) ) ) ) ) ) ) ) ) / / / ^ ^ ^ Q Q Q Q Q Q Q Q W W Q Q W W W W W W T T Y Y Y Y Y Y S S A A A A n n n n n n n v d d d d d f ",
"O.O.O.O.+.+.+.+.+.+.+.+.+.+.=.=.=.=.=.=.$.$.$.$.$.$.$.$.$.$.$.$.&.&.&.&.&.&.&.&.&.&.&.&.&.&.-X-Xg.g.;X:X:X:X:X:X:X:X:X:X:X:X:X:X:X:X<X<X<X<X<X<X<X<X<X<X<X<X<X<X,X,X<X<X,X,X,X,X4X4X4X4X4X4X4X4X4X4X4X4X<X<X<X<X<X1X<X<X<X,X<X<X,X,X,X,X,X,X,X,X>X>X>X>X>X>X>XV.>X>X>XV.:XV.V.V.V.V.V.V.V.V.V.g.V.g.g.V.g.g.g.g.g.g.*.*.g.g.*.*.%.%.%.%.%.%.%.%.%.%.#.#.#.@.#.@.@.@.@.@.@.@.@.+.@.@.@.@.@.+.@.@.O.O.O.O.O.O.O.O.@.O.{ { ..O.O.O.{ _ ) ^ R T ^ _ ) ^ ^ ^ ^ _ { ..{ { { ..........{ _ _ ^ Q Y d y 4 f Y A f f a y T _ O.{ _ _ _ ) Q ) _ _ _ ) _ _ ) _ _ _ ) Q Q ^ [ [ [ ) ) [ [ [ ] ] [ [ [ [ [ [ _ _ _ _ _ _ [ [ [ [ { { { { [ [ [ [ [ { { { { { { { { } } } } { { { { { { { { [ [ [ [ [ [ [ [ [ { { { { { { { { [ [ [ [ [ [ [ [ [ [ [ [ [ [ [ [ { { { { { { { { [ [ [ [ [ [ [ [ [ [ [ [ ] ] ] ] ] ] ] ] ] ] ] ] ] ] ) ) ) / / / ) ) ) ) ) ) ) / / / / / ^ Q Q Q Q Q Q Q Q Q W W Q Q Q Q Q W W W T T Y Y Y Y Y Y S S A A A A n n n n n n n v v v d d d f ",
"O.O.O.O.+.+.+.+.+.+.+.+.+.=.=.=.=.=.=.=.$.$.$.$.$.$.$.$.$.$.*.*.*.&.&.&.&.&.-X-X&.&.&.-X&.&.-X-X:X:X:X:X:X:X:X:X:X:X:X:X:X:X:X:X:X:X<X<X<X<X<X<X<X<X<X<X<X<X<X<X<X<X<X<X<X<X<X,X4X4X4X4X4X4X4X1X4X4X4X4X4X1X<X<X4X<X<X,X<X<X,X,X,X,X,X,X,X,X,X,X>X>X>X>X>X>X>XV.>X>X>XV.:XV.V.V.V.V.V.V.V.g.g.g.V.g.g.V.g.g.g.g.g.g.*.*.g.g.*.*.%.%.%.%.%.%.%.%.%.#.#.#.#.#.@.@.@.@.@.@.@.@.@.@.@.@.@.+.+.O.O.O.O.O.O.O.O.O.O.O.O...{ { ....{ _ Q A f y y f T _ _ _ ^ Q Q ^ _ { _ _ { { { { { { { ) R Y n a w 4 w T O..._ ) A w n ^ _ ) R R ^ ^ _ ) ^ ^ ^ ) ) ^ Q T T Y n f f n Y W T Y E ) [ [ _ _ [ [ _ [ [ [ _ _ _ _ _ _ _ _ [ [ [ { { [ [ [ [ { { { { { { { { { { { } } { { { { { { { { [ [ [ [ [ [ [ [ [ [ { { { { [ { { { [ [ [ [ [ [ [ [ [ [ [ [ [ [ [ [ { { { { { { { { ] ] ] [ ] [ [ [ [ [ [ ] ] ] ] ] ] ] ] ] ] ] ] ] ) ) ) / / / / / ) ) ) ) ) ) / / / / / / ^ Q Q Q ! ! Q Q Q Q W W Q Q Q W W W W W T T Y Y Y Y Y Y S S A A A A n n n n n n n n v v d d f f ",
"O.O.O.+.+.+.+.+.+.+.+.+.=.=.=.=.=.=.=.$.$.$.$.$.$.$.$.$.*.$.*.*.*.&.&.&.&.&.-X-X&.&.&.&.&.&.-X-X:X:X:X:X:X:X:X:X:X:X:X:X:X:X:X:X:X:X<X<X<X<X<X<X<X<X<X<X<X<X<X<X<X4X4X4X4X<X1X<X4X4X4X4X4X4X4X<X4X4X4X4X4X<X<X<X4X4X,X<X<X<X,X<X,X,X,X,X,X,X,X,X>X>X>X>X>X>X>XV.>X>X>XV.:XV.V.V.V.V.V.V.V.g.g.g.V.g.g.V.g.g.g.g.g.g.*.*.g.g.*.*.%.%.%.%.%.%.%.%.%.%.#.#.#.#.@.@.@.@.@.@.@.@.@.@.+.+.O.O.O.O.O.O.O.O.O.O.O.O.O.O.O.{ _ _ ^ R n a 7 4 7 w e e f A _ _ ) ) ^ ^ ) ) ) _ _ _ _ _ _ _ { Q n d a w ; ; n _ O._ ) { Q e a A T d y f A T _ Q A n Y T Y n e w w w 7 4 w a e r r w y Y / ) ) _ _ [ [ [ [ _ _ _ _ _ _ _ _ _ [ [ [ { { [ [ [ { { { { { { { { [ { { { } { { { { { { { { [ [ [ [ [ [ [ [ [ [ [ { { { { { { { { [ [ [ [ [ [ [ [ [ [ [ [ [ [ [ [ [ [ [ [ [ [ [ [ ] ] ] [ ] [ [ [ [ [ [ ] ] ] ] ] ] ] ] ] ] ] ] ] ) ) / / / / / / ) ) ) ) ) / / / / / / ^ ^ Q Q Q ! ! Q Q Q Q W W W W W W W E E W T T Y Y Y Y Y Y S S A A A A n n n n n n n n v v d d f f ",
"-.-.O.O.+.+.+.+.+.+.+.=.=.=.=.=.=.=.$.$.$.$.$.$.$.$.$.*.$.*.&.&.*.*.&.&.&.&.&.&.-X-X-X;X;X;X;X;X:X:X:X:X:X:X:X:X:X:X:X:X:X:X:X:X<X<X<X<X<X<X<X<X<X<X<X<X<X<X<X<X<X<X<X<X<X<X<X<X4X4X4X4X4X4X<X<X4X4X4X<X4X<X<X<X<X<X<X<X<X,X,X,X,X,X>X>X>X>X>X>X>X<X<X>X>X>X>X>X>X>X:XV.V.V.V.V.V.V.V.g.V.V.g.g.g.g.g.g.g.g.g.g.g.g.g.*.*.*.*.*.*.*.*.%.%.%.%.%.#.#.#.#.#.#.@.@.@.#.@.@.$.@....._ Q A T ) ^ ) O._ O.O.O.@.O._ _ Q T ^ ^ n y e e w 4 7 w 7 4 7 a Q ^ { _ R Q ) ) ) ) ^ R n a a f R f w 7 w 7 w a { _ { O.O._ f 4 ; - 4 w 4 - e A _ f 4 w a a e 4 7 e - 4 A y - f w ; - 4 w e n ) ) _ { _ _ _ ) ) { _ ) ) _ _ _ _ _ _ [ [ [ { { { ] ] ] ] [ [ [ [ [ [ { { { { { } { { ] ] ] [ { { [ [ [ [ [ [ ] [ [ [ [ [ [ [ [ { ] ] ] [ [ [ [ { [ [ [ { { [ [ ] { [ [ ] ] ] [ [ [ [ [ ] ] ] ] ] ] ] ] ] ] ] ] ] / / / / / / / / / / ] ] ) / / / / / / / / / ) / / / / / ^ ^ ^ ^ ! ! Q Q Q Q Q Q Q Q Q W W W W W T T Y Y Y Y Y Y Y Y A A A A A A n n n n n d d d d d d d ",
"-.-.O.+.+.+.+.+.+.+.+.=.=.=.=.=.$.=.$.$.$.$.$.$.$.$.$.*.*.*.&.&.*.*.&.&.&.&.&.&.-X-X;X;X;X;X;X;X:X:X:X:X:X:X:X:X:X:X:X:X:X:X:X:X<X<X<X<X<X<X<X<X<X<X<X<X<X<X<X<X<X<X<X<X<X<X<X<X4X4X4X4X4X4X<X<X4X4X1X<X4X<X<X<X<X<X<X<X<X,X,X,X,X,X<X>X>X>X>X>X>X<X<X>X>X>X>X>X>X>X:XV.V.V.V.V.V.V.g.g.V.V.g.g.g.g.g.g.g.g.g.g.g.g.*.*.*.*.*.*.*.*.*.%.%.%.%.%.#.#.#.#.#.#.@.@.@.#.@.@.O._ Q ^ Q T d d A A A Q ^ O.O._ _ ) ) ) _ ^ Y f y w w e 4 : w a a e 4 4 f d T ^ ) _ ) Y T R Q T A d y 7 e ; = ; 7 7 w y A A A n f e : % ; = - : ; - 7 d a 4 - 7 y e 4 - - - 7 a f e w e - 4 w 8 4 8 d Q ^ _ _ _ ) _ _ ) _ _ ) ) _ _ [ _ _ _ [ [ [ [ [ { ] ] ] ] [ [ [ [ [ [ [ { { { { { { { ] ] ] ] { { [ [ [ [ [ [ ] ] [ [ [ [ [ [ [ { ] ] [ [ [ [ [ [ [ [ [ { { [ ] ] { [ [ ] ] ] ] [ [ [ [ ] ] ] ] ] ] ] ] ] ] ] ] ] / / / / / / / / / / ) ] ) / / / / / / / / / / / / / / / ^ ^ ^ ^ ! ! Q Q Q Q Q Q Q Q Q W W E W W T T T Y Y Y Y Y Y Y A A A A A A n n n n d d d d d d d d ",
"O.O.O.+.+.+.+.+.+.+.+.=.=.=.=.=.=.$.$.$.$.$.$.$.$.$.$.*.*.&.*.*.&.&.&.&.&.-X-X-X-X;X-X-X;X;X;X;X:X:X:X:X:X:X:X:X:X:X:X:X:X:X:X:X<X<X<X<X<X<X<X<X<X<X<X<X<X<X<X<X<X<X<X<X<X<X<X<X<X<X<X<X<X<X<X<X4X4X1X<X4X<X1X1X<X1X<X<X<X,X,X,X,X,X<X>X>X>X>X<X>X>X>X>X>X>X>X>X>X>X>XV.:XV.V.V.V.V.g.g.V.V.g.g.g.g.g.g.g.g.g.g.g.*.*.*.*.*.*.*.*.*.%.%.%.%.%.%.#.#.#.#.#.@.@.@.@.@.#.@.) n a f 4 w e A ....T d d ) _ Q Q ^ _ { { _ d 7 7 4 ; w 7 4 w f d y : % 7 e n Q ^ _ ) Y A f d T R f 7 - ; % % ; 7 4 4 7 - - - % X o - 4 w - % - ; - 4 e 4 ; ; w e 4 - - ; % a n 4 : e 4 ; f S a ; - y A ^ ) _ ) ) ) _ ) _ ) ^ ) _ _ _ _ _ _ _ _ [ [ [ [ [ [ ] ] [ [ [ [ ] [ [ { { { { { { [ ] ] ] [ [ { [ [ [ [ [ ] ] ] [ [ ] ] [ [ [ [ ] ] ] [ ] ] ] ] ] [ [ [ [ [ ] ] [ [ ] ] ] ] ] ] [ [ ] ] ] ] ] ] ] ] ] ] ] ] ] ] / / / / / / ) / / / ) ] ) / / / / / / / ! / ! ! / / / / ^ ^ ^ ^ Q Q Q Q Q Q W W Q Q W W W E E W T T Y Y Y Y Y Y Y Y A A A A A A n n n n d d d d d d d d ",
"O.O.O.+.+.+.+.+.+.+.=.=.=.=.=.=.$.$.$.$.$.$.$.$.$.$.*.*.*.*.&.&.&.&.&.&.&.-X-X-X-X-X-X;X;X;X:X:X:X:X:X:X:X:X:X:X:X:X:X:X:X:X<X<X<X<X<X<X<X<X<X<X<X<X<X<X<X<X<X<X<X<X<X<X<X<X<X<X<X<X<X<X<X<X<X<X4X4X4X<X4X1X1X1X<X1X1X<X<X,X,X,X,X,X<X>X>X>X>X<X>X>X>X>X>X>X>X>X>X>X>XV.:XV.V.V.V.V.g.V.V.V.g.g.g.g.g.g.g.g.g.g.*.*.*.*.*.*.*.*.*.*.%.%.%.%.%.%.$.$.#.#.#.@.@.@.@.@.$.O.Y e 7 7 w w 7 e Y ^ Q T a Y R Q _ _ _ O.{ { a - 7 7 - 4 w 7 w e y w ; = ; e A T A Y ^ ) d w e T T e % ; - - - 4 7 : - - @ % - % % 4 a T a 7 - ; : - ; 4 e w 7 7 4 - % - 4 = e y o = y w a Y ^ v 3 - y Y ^ ) ) ) ^ ) ) ^ ) ^ ^ ) ) _ _ _ _ _ _ _ ] ] ] ) ] ] ] ] ] ] ] ] ] ] [ [ { { { { [ [ ] ] ] [ [ [ ] ] ] ] ] ] ] ] ] ] ] ] ] ] ] ] [ [ ] [ ] ] ] ] ] ] [ [ [ [ ] ] [ [ ] ] ) ) ] ] [ [ ] ] ) ) ] ] ] ] ] ] ) ) ) ) / / / / ) ) ) / / / / ) / / / / / / / / ! ! ! ! ^ / / / ^ ^ ^ ^ Q Q Q Q Q W W W Q Q W W W E E W T T Y Y Y Y Y Y Y Y A A A A A A n n n n n d d d d d d d ",
"O.+.O.+.+.+.+.+.+.+.=.=.=.=.=.=.$.$.$.$.$.$.$.$.$.$.*.*.&.&.&.&.&.&.&.&.-X-X-X-X-X-X;X;X;X:X:X:X:X:X:X:X:X:X:X:X:X:X:X:X:X<X<X<X<X<X<X<X<X<X<X<X<X<X<X<X<X<X<X<X<X<X<X<X<X<X<X<X<X<X<X<X<X<X<X<X4X4X4X<X<X<X<X1X<X<X4X<X<X,X,X,X,X,X<X>X>X>X>X<X>X>X,X>X>X>X>X>X>X>X>X:X:XV.V.V.V.V.g.g.V.V.g.g.g.g.g.g.g.g.g.g.g.g.*.*.*.*.*.*.*.*.%.%.%.$.$.%.$.#.#.@.#.@.@.@.@.@.@._ a w y y 4 e 7 - ; w f T d d d Q O.{ _ { { ) e @ 4 4 - 4 w 7 7 7 4 ; ; ; : e n Y d n Q Q y w w a a 4 = - @ @ % - ; - - - - - - % % : y d a 7 - - ; - % % w 4 ; - - % @ @ % - - = % ; y d A A A f 4 - a ) T ^ ^ ^ ^ ^ ) ^ _ _ _ _ ) ^ _ _ _ _ _ _ _ ) ) ) ] ] ] ] ] ] ] ] ] ] [ [ [ [ [ [ [ [ [ ] ] ] ] [ ] ] ] ] ] ] ] ] ] ] ] ] ] ] ] ] [ [ [ ] ] ] ) ) ] ] ] ] ] ] ] ] ] ] ] ) ) ) ) ) ] ] ] ] ) ) ) ) ] ] ] ] ] ] ] ] / / ) ) ) ) / / / / / / / / / / / / ! ! / / / / ^ ^ / / ^ ^ ^ ^ Q Q Q Q Q Q W W Q Q Q W W W W W T T Y Y Y Y S Y Y Y S A A A A A A A n n n n n n d d d d ",
"O.+.+.+.+.+.+.+.=.=.=.=.=.=.=.=.$.$.$.$.$.$.$.$.*.*.*.&.&.&.&.&.&.&.&.&.-X-X-X;X;X;X;X;X:X:X:X:X:X:X:X:X:X:X:X:X:X:X:X:X<X<X<X<X<X<X<X<X<X<X<X<X<X<X<X<X<X<X<X1X<X<X<X<X4X4X4X4X1X4X<X<X<X<X<X<X4X4X1X<X<X<X<X<X<X<X1X<X<X,X,X,X,X,X<X>X>X>X>X>X>X>X,X>X>X>X>X>X>X>X>X:X:XV.V.V.V.V.g.g.V.V.g.g.g.g.g.g.g.g.g.g.*.*.*.*.*.*.*.%.*.%.%.%.%.$.$.$.$.$.#.#.@.@.@.@.@.@.O.Y 7 y T T e e 4 ; 4 7 7 y f y y A { { ) _ { T : X - ; - 7 ; 4 7 4 ; = - - ; : e d Y Q Y a 4 y y : - 7 4 @ @ @ % % % % % % @ @ o X X @ = ; 4 - @ @ = % @ @ % % % = - - @ X @ - @ @ 4 4 4 f T f y w ; % e Q T R ^ Q Q ^ ) ^ _ _ _ _ _ _ _ _ _ _ _ _ _ ) ) ) ] ] ] ] ] ] ] ] ] ] [ [ [ [ [ [ ] ] ] ] ] ] ] ] ] ] ] ] ] ] ] ] ] ] ] ] ] ] ] ] ] ] ] ] ] ] ] ] ) ) ] ] ] ] ] ] ] ] ) ) ) ) ) ) ] ] ] ) ) ) / ) ) ) ) ) ) ) ) ) / / ) ) / / / / / / / / / / / / / / / / / / / / ^ ^ / / ^ ^ ^ ^ ! ! Q Q Q Q Q Q Q Q Q W W W W W T T Y Y Y Y S Y Y Y S A A A A A A A A n n n n n d d d d ",
"O.O.+.+.+.+.+.+.=.=.=.=.=.=.=.=.$.$.$.$.$.$.$.$.*.*.&.&.&.&.&.&.&.&.&.&.&.-X;X;X;X;X;X;X:X:X:X:X:X:X:X:X:X:X:X:X:X:X:X:X<X<X<X<X<X<X<X<X<X<X<X<X<X<X<X<X<X<X4X4X<X<X1X4X4X4X4X4X4X4X4X4X4X4X4X4X4X4X4X<X<X<X<X<X<X<X<X<X<X,X,X,X,X,X>X>X>X>X>X>X>X>X,X>X>X>X>X>X>X>X>X:X:XV.V.V.V.V.g.g.V.V.g.g.g.g.g.g.g.g.g.g.*.*.*.*.*.*.%.%.%.%.%.%.#.#.$.$.#.%.#.#.@.@.@.@.@.@...d - f ) Y O.^ f w 7 - = 7 y a e y Y ) _ { _ d ; = - - - 4 % ; : ; - % = - = @ : f Q ) n ; ; e w - % 4 ; X = - = % @ @ @ @ % % % @ % = - ; % @ @ @ % @ @ @ X @ % = - = % @ % % @ - 4 - % 7 d e 4 - - 7 a Y T ^ ^ R T R Q Q ^ ^ ^ ^ ) ) _ _ _ _ _ _ _ _ _ ) ] ] ] ] ] ] ] ] ] ] ] ] ] ] ] ] ] ] ] [ [ ] ] ] ] ] ] ] ] ] ] ] ) ) _ _ ) ) ) ) ) ] ] ] ] ] ] ] ) ) ] ] ] ] ) ) ] ) ) ) ) ) ) ) ] ] ] ) / / / / / ) / ) ) ) ) ) / / / ) / / / / / / / / / / / / ) ) ) ) ) ) ) ) ^ ! ^ / ^ ^ ^ ^ ! ! ! ! Q Q Q Q Q Q Q W W W W W T T Y Y Y Y Y Y Y Y S A A A A A A A n n n n n n d d d d ",
"O.O.+.+.+.+.+.+.=.=.=.=.=.=.=.=.$.$.$.$.$.$.$.$.*.*.*.&.&.&.&.&.&.&.&.&.&.-X;X;X;X;X;X;X:X:X:X:X:X:X:X:X:X:X:X:X:X:X:X<X<X<X<X<X<X<X<X<X<X<X<X<X<X<X<X<X<X4X4X4X4X1X<X1X4X4X4X4X4X4X4X4X4X4X4X4X4X4X4X<X<X<X<X<X<X<X<X<X<X,X,X,X,X,X<X>X>X>X>X>X<X,X,X>X>X>X>X>X>X>X>X:X:XV.V.V.V.V.g.g.V.V.g.g.g.g.g.g.g.g.g.g.*.*.*.*.*.%.%.%.%.%.%.%.#.#.%.%.%.%.#.#.@.@.@.@.+.@.O.f - f Q a f R _ ^ a @ @ y a A f 4 e T ) _ ) y : 7 7 - - - = - - - % % - - % @ : f Q ^ d % w ; - 4 4 % @ @ X @ @ @ @ @ @ @ @ @ @ @ o @ % - % % = - = @ @ @ @ % = @ o X @ @ %   . - - o % ; 7 4 - % : a T ^ ^ ) ^ R T T Y Y Y T R ^ ^ ^ ) _ _ _ _ _ _ _ _ _ _ ] ] ] ] ] ] ] ] ] ] ] ] ] ] ] ] ] ] [ [ ] ] ] ] ] ] ] ] ] ] ] ) ) ) ) ) ) ) ) ) ) ) ] ] ] ] [ ) ) ) ] ] ) ) ) ] ) ) ) ) ) ) ) ] ] ) / / / / / / / / ) ) ) ) ) / / / / / / / / / / / / / / / / ) ) ) ) ) ) ) ) ! ! ! / / / ^ ^ / / ! ! ! Q Q Q Q Q Q W W W W W T T Y Y Y Y Y Y Y Y S A A A A A n n n n n n v v d d d d ",
"+.+.+.+.+.+.+.+.=.=.=.=.=.=.=.$.$.$.$.$.$.$.$.$.&.&.&.&.&.&.&.&.&.&.&.;X;X;X;X;X:X:X:X:X:X:X:X:X:X:X:X<X<X<X<X<X<X<X<X<X<X<X<X<X,X,X,X<X<X<X<X<X<X<X<X<X<X<X<X4X4X4X<X<X<X<X<X<X4X4X4X<X<X4X4X4X4X4X4X<X4X,X,X,X,X,X,X,X,X,X,X,X,X,X,X,X,X,X,X,X>X>X,X,X>XV.V.:X,X>XV.V.V.:XV.V.V.V.V.V.V.V.g.g.g.g.g.g.g.g.g.g.*.*.*.*.%.%.%.%.%.%.*.*.%.$.#.@.@.#.@.@.@.@.@.@..._ ..y 4 d e e e ; e ^ { A 7 % 4 d ) d @ - d Y n e ; ; ; - % - @ @ = ; - @ @ @ % @ - a T Y e = - ; : ; - % @ o @ @ @ @ @ @ @ @ @ @ o X @ @ % % - @ @ % - % @ @ @ @ @ o o o @ @ X % @ @ 7 e 4 % % 4 - % w a d R R R R T Y Y Y T Y Y Y Y Y T ^ _ ^ Q ^ _ _ _ ) ) _ [ _ ) [ ) ! ] ] ] ] ] ] ] ] ] ] ] ] ] ] ] ] ] ] ] ] ) ) ) ) ) ] ] ] ] ] ] ] [ ] ] ] ] ] ] ) ] ] ] ] ] ) ) ) ) ) ) ) ) ) ) ) ) ) / / / / / / ) / / / / / / / / ) / / ) ) ) ) / ) ) / / ) ) ) ) ) ) ) / / / / / / / / / / / / / / / ! ! ! Q Q Q Q Q Q Q Q W E W E E Y Y Y Y Y Y S S S S A A A n A A n n n n n n d d d d ",
"+.+.+.+.+.+.+.+.=.=.=.=.=.=.=.$.$.$.$.$.$.$.$.$.&.&.&.&.&.&.&.&.&.&.;X;X;X:X;X;X:X:X:X:X:X:X:X:X:X:X<X<X<X<X<X<X<X<X<X<X<X<X<X<X,X,X<X<X<X<X<X<X<X<X<X<X<X<X<X1X4X4X<X<X<X<X<X<X4X4X4X1X<X4X4X4X4X4X4X1X4X,X,X,X,X,X,X,X,X,X,X,X,X,X,X,X,X,X,X,X>X>X,X,X>XV.V.:X,X>XV.V.V.:XV.V.V.V.V.V.V.V.g.g.g.g.g.g.g.g.g.g.*.*.*.%.%.%.%.%.#.#.#.#.#.@.@.@.@.@.@.@.@.@.@.O...{ O.e : y 7 ; 4 w w w a A d e - w Y Q y 4 e y a 7 - - - % @ - % @ = - - @ @ @ - @ % 4 e e 4 = 4 4 ; - % @ @ o o o @ @ @ @ @ @ @ @ o X @ @ % % = @ o % = % @ @ @ @ @ o o o @ @ @ % @ - y a w ; @ 4 4 4 e a f T Q ^ ^ Q Y d f a e e y y y f n A ^ ^ ^ _ _ ) _ _ ^ ) / / _ ) ) ] ] ] ] ] ] ] ] ] ] ] ] ] ] ] ] ] ] ] ] ) ) ) ) ) ] ] ) ] ] ] ] ] ] ] ] ] ] ) ) ) ] ] ) ] ) ) ) ) ) ) / ) ) ) ) ) / / / / / / / / / / / / / / / / ) / / ) ) ) ) / ) ) / / ) ) ) ) ) ) / / / / / / / / / / / / / / / / ! ! Q Q Q Q Q Q Q Q W W E E E E E Y Y Y Y Y S Y Y S A A A n A A n n n n n n d d d d ",
"+.+.+.+.+.+.+.+.=.=.=.=.=.=.$.$.$.$.$.$.$.$.$.$.&.&.&.&.&.&.&.&.&.g.g.;X;X;X;X;X:X:X:X:X:X:X:X:X<X<X<X<X<X<X<X<X<X<X<X<X<X<X<X<X,X<X<X<X<X<X<X<X<X1X<X<X<X<X<X<X4X4X4X4X4X4X1X4X4X4X4X<X<X4X4X4X4X4X4X1X4X,X,X,X,X,X,X,X,X,X,X,X,X,X,X,X,X,X,X,X>X<X,X<X>XV.:X:X>X>XV.V.V.:XV.V.V.V.V.V.V.g.g.g.g.g.g.g.g.g.g.g.*.*.*.*.%.%.%.%.%.%.%.$.#.#.#.#.@.@.@.@.@.@.O...{ _ @.7 7 e e ; 4 e 7 % - f T Y 7 - e R A 7 - 4 w ; % = = @ @ - % % % - % @ @ % % @ @ % - % % % w 4 = @ @ @ @ o o o o o @ @ @ @ X X o @ @ @ @ @ % @ X @ % @ @ o @ @ o o o o @ @ X X X - y e 4 - % - : e n n d Y T Y Y n a w 4 ; = - - ; ; 4 7 w a a f n A Y Q _ ^ ) ^ ^ _ _ ) _ _ ] ] ] ] ] ] ] ) ) ) ) ) ) ) ) ) ) ) ) ) ) ) ) ) ) ) ) ) ] ] ] ] ] ] ) ) ) ) ) ) ) ) ) ) ) ) ) ) ) ) ) ) ) ) / / / / / / / / / / / / / / / / / ) / / ) ) ) ) / ) ) ) ) ) ) / / ) / / / / / / / / / / / / / / / / ! ! ! Q Q Q Q Q Q Q Q W W W W E E E Y Y S Y Y Y Y S Y S A A A A A n n n n n n d d d d ",
"+.+.+.+.+.=.=.=.=.=.=.=.=.=.$.$.$.$.$.$.$.*.$.*.&.&.&.&.&.&.g.&.;Xg.;X;X;X;X:X:X:X:X:X:X:X:X:X:X<X<X<X<X<X<X<X<X<X<X<X<X<X<X<X<X<X<X<X1X<X<X4X4X<X1X1X4X<X<X1X4X4X4X4X4X4X4X4X4X4X4X4X<X<X4X4X4X4X4X4X1X4X,X,X,X,X,X,X,X,X,X,X,X,X,X,X,X,X,X,X,X>X<X,X>X>XV.:X>X>X>XV.V.V.V.V.V.g.V.V.V.V.g.g.g.g.g.g.g.*.*.*.*.*.*.%.%.%.%.%.%.%.%.%.%.#.@.@.@.@.@.@.@.+.O..._ ) _ @.7 y f A a w 7 7 7 : 7 d Q d : - y a ; = 4 ; - = - - % = ; % @ % % % @ @ = o X o % % @ @ % w ; @ X o @ @ X o o o @ @ @ @ @ X X X @ @ @ @ @ % o X @ @ @ X X o o X X o X @ @ @ X X = 7 - o @ ; @ - a Q R n f f a w 4 = % % % @ % % % % % % - % = ; 4 w e d Y ) _ ) ^ _ _ / ) ) ) ) ) ) ) ) ) ) ) ) ) ) ) ) ) ) ) ) ) ) ) ) ) ) ) ) ) ) ) ) ) ) ) ) ) ) ) ) ) ) ) ) ) ) ) ) ) ) ) / / ) ) ) / / / / / / / / / / / / / / / / / ) / / ) ) ) ) / ) ) ) ) ) ) / / / / / / / / ! ! ! ! ! ! ! ! ! ! ! ! ! ! Q Q Q Q Q Q Q Q W W E E E E E Y Y Y Y Y Y Y Y Y S A A A A A n n n n n n v d d d ",
"+.+.+.+.=.=.=.=.=.=.=.=.=.$.$.$.$.$.$.$.*.*.*.*.&.&.&.&.&.&.&.&.&.&.;X;X;X:X:X:X:X:X:X:X:X:X:X:X<X<X<X<X<X<X<X<X<X<X<X<X<X<X<X<X<X<X<X1X<X1X<X<X<X<X4X1X<X4X4X4X4X4X4X4X4X4X4X4X4X4X4X1X<X4X4X4X4X4X4X,X1X<X<X,X,X,X,X,X,X,X,X,X,X,X,X,X,X,X,X,X>X>X<X>X:XV.:X>X>X>XV.V.>XV.V.g.g.g.V.V.g.g.g.g.g.g.*.*.*.*.*.*.*.*.*.%.%.%.%.%.@.#.$.$.#.@.@.@.@.@.@.O.O.{ _ Q ^ ^ ..e d A ) Y w 7 w y e : e A d e - ; 4 - % 4 - - = - - - - - % @ @ % @ @ @ - @ X X @ - % % % ; = @ o @ % @ X @ @ @ @ @ @ @ o X X X o @ @ @ @ @ X X @ @ o X X X X X X X o @ @ @ % @ = - X . % - @ ; f Y n a e w 4 - @ X @ % - @ % % % @ @ @ @ - = - - - ; w a T ) ) ^ _ _ / ) ) ) ) ) ) ) ) ) ) ) ) ) ) ) ) ) ) ) ) ) ) ) ) ) ) ) ) ) ) ) ) ) ) ) ) ) ) ) ) ) ) ) ) ) ) ) ) ) ) ) / / ) ) ) / / / / / / / / / / / / / / / / / ) / / ) ) ) ) / ) ) ) ) ) ) ) / / / / ! / ! ! ! ! ! ! ! ! / ! ! ! ! ! Q Q Q Q Q Q Q Q W W W E E E E E Y Y Y Y Y Y Y Y Y Y A A A A A n n n n n n v v d d ",
"+.+.+.+.=.=.=.=.=.=.=.=.$.$.$.$.$.$.$.*.*.*.&.&.&.&.&.&.&.&.&.;X;X;X;X;X:X:X:X:X:X:X:X:X:X:X:X:X<X<X<X<X<X<X<X<X<X<X<X<X<X<X<X<X<X<X<X<X<X<X<X4X4X4X4X4X4X4X4X4X4X4X4X4X4X4X4X4X4X4X4X<X<X4X4X4X4X4X1X,X1X,X,X,X,X,X,X,X,X,X,X,X,X,X,X,X,X,X,X,X>X>X>X>X:XV.:X>X>X>XV.>X>X>XV.g.g.g.g.g.g.g.g.g.g.g.*.*.*.*.*.*.%.%.%.%.%.%.%.$.%.*.*.*.%.#.@.@.@.@.@.O.{ _ ^ Y T T Q e f f T d w e y e e w y f e y w : 4 : % % - - % % - - = % % @ @ % % @ @ - ; @ X X @ @ @ % @ @ @ @ % % @ X @ @ @ @ o @ @ o X X X X o @ @ @ @ X o @ @ X X o X X X X X o @ @ o % @ @ @ X . = o @ w a w ; : : % % @ @ @ @ @ @ @ % % % @ @ % % ; ; ; : 4 4 w a d Q ^ ! ) ) / ) ) ) ) ) ) ) ) ) ) ) ) ) ) ) ) ) ) ) ) ) ) ) ) ) ) ) ) ) ) ) ) ) ) ) ) ) ) ) ) ) ) ) ) ) ) ) ) ) ) / ! / ) ) ) ! / / / / / / / / / / / / / / / / ) / / ) ) ) ) / ) ) ) ) ) ) ) ) / / ! ! ! ! ! ! ! ! ! ! ! ! ! ! ! ! ! Q Q Q Q Q Q Q Q W W E E E E E E Y Y Y Y Y Y Y Y Y Y S A A A A n n n n n n n n n n ",
"+.+.+.+.=.=.=.=.=.=.=.=.$.$.$.$.*.*.*.*.*.&.&.&.&.&.&.&.&.&.&.&.;X;Xg.;X:X:X:X:X:X:X:X:X:X:X<X<X<X<X<X<X<X<X<X<X<X<X<X<X<X<X<X<X<X<X<X<X<X<X4X4X4X4X4X4X4X4X4X4X4X4X4X4X4X4X4X4X4X4X4X<X<X4X4X4X4X4X1X,X<X<X,X,X,X,X,X,X,X,X,X,X,X,X,X,X,X,X,X,X>X,X>X>XV.V.>X>X>X>X:X>X>X>XV.g.g.V.g.g.g.g.g.g.g.g.g.*.*.*.%.%.%.%.%.%.%.%.$.$.%.#.@.O.{ _ ) ^ ^ ^ ^ R T T A d f f a e y e a e e y e 7 7 e y e 4 a a 7 w w - - : - % % = - % @ @ @ @ % % @ @ = ; % X o @ o @ @ X o @ @ @ @ @ o @ @ @ o o X X X o X X X X @ @ @ @ o @ @ @ X X @ X X X X X o @ @ X % @ X @ @ X o X @ 7 w @ X % @ X X X @ % @ o . - - - = % % % = ; - - : 4 4 w e y T ^ ^ ^ ^ ^ ) ) ) ) ) ) ) ) ) ) ) ) ) ) ) ) ) ) ) ) ) ) ) ) ) ) ) ) ) ) ) / / ) ) ) ) ) ) / / / / / / / / / / ) / / / ) ) / / / / / / / / / / / / / / / / / / ) / / ) ) ) ) ! ) ) / / ) ) ) ) / / ! ! ! ! ! ! ! ! ! ! ! ! ! ! ! ! Q Q Q Q Q Q Q Q W W W E E E E E E Y Y Y Y Y Y Y Y Y Y A A A A A n n n n n n n n n n ",
"+.+.+.=.=.=.=.=.$.$.=.=.$.$.$.$.*.$.*.*.&.&.&.&.&.&.&.&.&.&.&.g.;X;Xg.:X:X:X:X:X:X:X:X:X:X:X<X<X<X<X<X<X<X<X<X<X<X<X<X<X<X<X<X<X1X<X<X<X<X4X4X4X4X4X4X4X4X4X4X4X4X4X4X4X4X4X4X4X4X4X4X<X<X4X4X4X4X4X4X,X<X,X,X,X,X,X,X,X,X,X,X,X,X,X,X,X,X,X,X,X<X,X>X>XV.V.>X>X>X>X:X>X>X>XV.g.g.V.g.g.g.g.g.g.g.g.*.*.*.*.*.%.%.%.%.%.%.%.$.$.O._ Q A f y e e e y y y y a y e 7 7 : w e w 7 : w 7 4 4 7 7 : - 7 f a 7 w w 4 w 7 ; = % - ; = @ @ @ @ % % @ @ % @ @ @ % % @ o @ X o @ @ @ @ o o @ @ @ o o X X X @ o X X X @ @ % @ o @ @ @ X X @ X X X X X o @ @ @ - @ X - ; @ . @ X = - X % - . o X o @ % = % @ 4 4 4 ; = % % = 4 ; - ; ; ; - ; e T _ ) ^ ! ! ) ) ) ) ) ) ) ) ) ) ) ) ) ) ) ) ) ) ) ) ) ) ) ) ) ) ) ) ) ) / / / ) ) ) ) ) / / / / / / / / / / / ) / ! ! ) ) / / / / / ) ) / / / / / / / / / / / ) / / ) ) ) ) ! ) ) / / ) ) ) ) / / / ! ! ! ! ! ! ! ! ! ! ! ! ! ! ! Q Q Q Q Q Q Q Q W W W E E E E E E Y Y Y Y Y Y Y Y Y Y S A A A A n n n n n n n n n n ",
"=.=.=.=.=.=.=.=.$.$.$.$.$.$.$.$.*.*.*.&.&.&.&.&.&.&.&.&.&.;X;X;X:X:X:X:X:X:X:X:X:X:X:X:X:X<X<X<X<X<X<X<X<X<X<X<X<X<X<X<X<X<X<X1X4X4X4X4X4X4X4X4X<X<X<X4X4X4X4X4X4X4X4X4X4X4X4X4X7X4X4X4X4X4X<X<X,X4X4X4X4X,X,X,X,X,X,X,X,X,X,X,X,X,X,X,X,X<X<X>X>X>X>X>X>XV.V.V.V.V.V.V.V.V.V.g.V.V.g.g.g.g.g.g.*.*.*.*.%.%.*.*.#.*.&.*.#.@.{ ^ d d d d a w 4 7 : 4 7 w w w 7 7 7 ; - ; ; - - : 7 4 - - - ; - - % w a e ; - : 7 w 7 4 : : ; = @ @ % % @ o X % - % @ @ @ @ @ @ % @ @ @ % % % @ X X X X X X X X X X X X X o @ @ @ o @ @ @ @ @ @ X . . . . X X X X o o @ @ o o o o - % @ o @ @ o X @ X % - @   % e y ; ; a a 4 % ; - ; 4 4 4 @ % e Q ^ R R ^ ^ Q _ ^ ^ / / ) ) ) ) / / ! ! / / ) ) ) ) ) ) ) ) ) ) ) ) ) ) ) / ! / ) / ) / / / / ) / / ! / / ) ) ) / / / / ) ) ) ) / / / / / / / / / / / / / / / / ) ) ) ) ) ) / ) ) ) ) ) ) ) ) ) / / ) / / / / ^ / / / ^ ^ Q Q Q Q Q Q Q Q Q W W W W E E E E E E E E E E Y Y Y Y Y Y S S A A A A A A A n n n n n n n d d ",
"=.=.=.=.=.=.=.=.$.$.$.$.$.$.$.$.*.*.*.&.&.&.&.&.&.&.&.&.;X;X:X:X:X:X:X:X:X:X:X:X:X:X:X:X:X<X<X<X<X<X<X<X<X<X<X<X<X<X<X<X<X<X1X1X4X1X4X4X4X4X1X1X<X<X4X4X4X4X4X4X4X4X4X4X4X4X4X4X4X4X4X4X4X4X4X<X,X4X4X4X4X,X,X,X,X,X,X,X,X,X,X,X,X,X,X,X,X<X>X>X>X>X>X>X>XV.V.V.V.V.V.V.V.V.V.g.V.V.g.g.g.g.g.g.V.g.*.g.g.g.*.$.*.*.@..._ ^ Y d A f e 7 : ; 4 e a e 4 - - ; ; ; 4 - - : : ; : 7 4 ; - % - - & % @ : w 4 % @ - ; 7 4 ; : 4 4 : - @ @ @ @ @ @ % % % @ @ @ @ o @ % @ @ @ % % % @ X X X X X X X X X X X X X o @ @ @ o @ @ @ @ @ o X X X X X X X X o o o o @ o o o o % @ @ o @ @ X X X X @ % % @ 4 a ; : y Y d 4 % - ; = @ - - @ ; d _ ) T T ^ _ ^ Q ^ ^ ! ^ ) ) ) ) ) / / / / / ) ) ) ) ) ) ) ) ) ) ) ) ) ) / / ! / ) / / / / / / ) / ! ! / / ) ) ) / / / / ) ) / / / / / / / / / / / / / / / / / / ) ) ) ) ) ) / ) ) ) ) ) ) ) ) ) / / / / / / ^ ^ / ^ ^ ^ ! Q Q Q Q Q Q Q Q Q W W W W W E E E E E E E E E Y Y Y Y Y Y Y Y A A A A A A A A n n n n n n n n ",
"=.=.=.=.=.=.=.=.$.$.$.$.$.$.$.$.*.*.*.&.&.&.&.&.&.&.&.g.g.:X:X:X:X:X:X:X:X:X:X:X:X:X:X:X:X:X:X:X<X<X<X<X<X<X<X<X<X<X<X<X1X1X1X1X1X1X4X4X4X4X4X1X<X4X4X4X4X4X4X4X4X4X4X4X4X4X4X4X4X4X4X4X4X4X4X4X,X4X4X4X4X,X,X,X,X,X,X,X,X,X,X,X,X,X,X,X>X>X>X>X>X>X>X>X>XV.V.V.V.V.V.V.V.V.V.g.V.g.g.g.g.g.g.g.g.g.g.g.g.&.*.%.g.$...Q n d f y y 7 ; : 4 w y a f e ; % % = - % - % % - - - ; 7 : - % % % % % % X = ; - @ @ % % - - = - 4 7 7 4 - % @ o @ % % % % @ @ @ @ @ @ % % @ @ @ % % @ o X X X X o X X X X X X X o o @ @ o @ @ @ @ o o X @ @ @ @ @ @ @ o o o X o o o @ @ @ @ @ @ @ o X . X @ @ @ @ - w y @ w A R f ; @ - - @ @ 7 e ; ; f ^ T f f T _ ) T Q Q ! ^ ^ ) ) ) ) ) ) / / / ) ) ) ) ) ) ) ) ) ) ) ) ) ) / / / / / / / / / / / / / / ! / / / ) ) / / / / / / / / / / / / / / / / / / / / / / / / ) ) ) ) ) ) / ) ) ) ) ) ) ) ) ) / / / / / ^ ^ ^ ^ ! Q Q Q Q Q Q Q Q Q Q Q Q W E W W W E E E E E E E E E Y Y Y Y Y Y Y Y S A A A A A A A n n n n n n n n ",
"=.=.=.=.=.=.=.=.$.$.$.$.$.$.$.*.*.*.&.&.&.&.&.&.&.&.g.&.g.:X:X:X:X:X:X:X:X:X:X:X:X:X:X<X:X:X<X<X<X<X<X<X<X<X1X1X<X<X<X<X1X1X4X4X<X<X4X4X4X4X<X1X4X4X4X4X4X4X4X4X4X4X4X4X4X4X4X4X4X4X4X4X4X4X4X4X<X4X4X4X4X,X,X,X,X,X,X,X,X,X,X,X,X,X,X<X>X<X>X>X>X>X>X:X>XV.V.V.V.V.V.V.V.V.V.g.g.g.g.g.g.g.&.&.*.*.g.*.%.%.%.*._ Q d e 4 : 4 4 : 7 y n R T n a 4 ; - % = - - - - - - - - - - ; - & % % % % % % @ % = = % % % % @ @ @ % - ; 4 : : - @ o X @ @ % % @ @ % % @ @ % % @ @ @ @ % @ @ X X X X o o o X @ @ X X o o o o o @ @ @ @ o o X @ @ @ @ @ @ o o o o X X X X @ @ o o @ @ @ X . . - - % X X - ; - ; y n f 7 % @ - - @ @ e a : - e f a e w a T ) Q Q Q Q ! ! / ) ) ) ) ) ) ) / / / / / / / / / / / ) ) ) / / / / / / / / ! ! / / / / / ! / / ) ) ) / / / / / / / / / / / / / / / / / / / / / / / / ) ) ) ) ) ) ) ) / ) ) ) ) ) ) / / / / / / ^ ! ! Q Q Q Q Q Q Q Q Q Q Q Q Q Q W E W W W E E E E E E E E E Y Y Y Y Y Y Y Y Y S S A A A A A n n n n n n n n ",
"=.=.=.=.=.=.$.$.$.$.$.$.$.$.$.$.*.*.&.&.&.&.&.&.&.&.&.g.;X;X:X:X:X:X:X:X:X:X:X:X:X:X<X<X<X<X<X<X<X<X<X<X<X1X1X1X<X<X1X1X1X4X4X1X4X4X4X4X4X4X4X4X4X4X4X4X4X4X4X4X4X4X4X4X4X4X4X4X4X4X4X4X4X4X4X4X,X4X4X4X4X<X,X,X,X,X,X,X,X,X,X,X,X,X>X>X>X>X>X>X>X>X:X:X>X>XV.V.V.V.V.V.V.V.V.g.V.V.g.g.g.g.*.*.%.%.*.*.&.%.O.{ f e 4 - % % - ; w a Y _ { ^ f 7 @ % - - - - ; 4 7 7 4 4 : : ; - % % % % % % = - % @ @ % - = % % @ @ o @ % = - - 4 4 - @ . . @ - @ @ @ % % @ @ % % % @ @ % % @ @ X X X X X X X X @ o o o o o o o X @ @ @ @ @ @ o @ @ @ @ o X X X o X X X X X X o X o @ @ o X . . e w ; X X % % . 7 e e ; @ @ % @ 4 o . - 4 % % e w w e 7 : a ^ _ ^ ^ ^ ! Q Q ! ! ) ) ) ) ) / / / / / / / / / / / ) / / / / / / / / ! ! ! ! ! / / / / / / / ) ) ) / / / / / / / / / / / / / / / / / / / / / / / / ) ) ) ) ) ) ) ) / / ) ) ) ) / / / ^ ^ ^ ^ ^ ^ ^ ^ ^ ^ Q ^ Q Q Q Q Q Q Q Q Q W E W W W E E E E E E E E E Y Y Y Y Y Y Y Y Y Y Y S A A A A A n n n n n n n ",
"=.=.=.=.=.$.$.$.$.$.$.$.$.$.*.*.&.&.&.&.&.&.&.&.&.&.&.g.;X:X:X:X:X:X:X:X:X:X:X:X<X<X<X<X<X<X<X<X<X<X<X<X1X1X1X1X1X1X1X1X4X4X1X4X4X4X4X4X4X4X4X4X4X4X4X4X4X4X4X7X4X4X4X4X7X7X4X4X4X4X4X4X4X4X4X4X,X4X4X4X4X<X,X,X,X,X,X,X,X,X,X,X<X>X>X>X>X>X>X>X>X>X:X:X>X>X>X>XV.V.V.V.V.V.V.g.g.g.g.g.g.*.*.*.g.%.#.*.&.@.T y w 4 ; ; ; ; ; 4 4 w y f f y 4 % = - - = @ @ - : 4 7 4 ; - ; - % % % % % @ % = - = @ @ % = % @ @ % @ @ @ @ @ % % 4 4 4 - o X @ - @ @ @ % % % @ % % % @ % % % @ @ X X X X X o X X @ @ o o o o X X X @ @ @ @ @ @ o o o o o o X X X o o @ o o o X o X o @ @ X X X X y e : % % - % . - - % o @ % % X % X . % : % o 4 w w a y = 7 Y ) ^ ^ ^ ^ Q Q ! ! / / ) ) ) / / ! / / / / ! ! ! ! / / / ! / / / / ! ! ! ! ! ! / / / / / / / ) ) ) ) / / / / / ) ) / / / / / / / / / / / / / / / / ) ) ) ) ) ) ) ) / / ) ) ) ) / / / ^ ^ ^ ^ ^ ^ Q ^ ^ Q Q Q Q Q Q Q Q Q Q Q Q W E W W W E E E E E E E E E Y Y Y Y Y Y Y Y Y Y Y Y S A A A A n A n n n d n ",
"=.=.=.=.=.$.$.$.$.$.$.$.$.*.&.&.&.&.&.&.&.&.&.&.&.&.&.&.;X:X:X:X:X:X:X:X:X:X:X:X<X<X<X<X<X<X<X<X<X<X<X<X1X1X1X1X1X1X<X1X1X1X4X4X4X4X1X1X4X4X4X4X4X4X4X4X4X4X4X4X4X4X4X4X7X4X4X4X4X4X4X4X4X4X4X<X,X4X4X4X4X<X,X,X,X,X,X,X,X,X,X,X<X<X>X>X>X>X>X>X>X>X>X>X>X>X>X>XV.V.V.V.V.V.V.g.g.g.g.g.g.*.*.*.*.*.%.@.{ Y e ; - @ @ = - % % = @ = = % % - - % : : ; = @ @ % - % & - % % - % % % % % % @ @ % = - @ @ % % @ @ @ @ @ @ @ @ @ % - - ; 4 : - % % % @ @ @ % = % % % % % % % = % @ o X X X X X X X X @ @ @ o o X X X X o @ @ @ @ @ o o o o o o @ @ @ o o @ @ o o o o X o @ o X X X @ 4 ; % @ % % @ X X o o o @ % @ o . X X = 4 = o % w : a f ; : A Q ^ ^ ^ ^ ^ ^ ^ / ! ! / / / / / ! ! ! ! ! ! ! ! ! / / / / / / / / / ! ! ! ! ! ! / / / / / / ) ) ) ) ) / / / / ) ) / / / / / / / / / / / / / / / / ) ) ) ) ) / ) / / / / ) ) / / / / ^ ^ ^ ^ ^ Q Q ^ ^ ^ Q Q Q Q Q Q Q Q Q Q Q W E W W W E E E E E E E E E Y Y Y Y Y Y Y Y Y Y Y Y A S A A A A n n n n d d ",
"=.=.=.=.=.$.$.$.$.$.$.$.*.*.&.&.&.&.&.&.&.&.&.&.&.&.&.;X;X:X:X:X:X:X:X:X:X:X:X:X<X<X<X<X<X<X<X<X<X<X<X<X1X1X1X1X1X1X<X1X1X4X4X4X4X4X1X1X1X1X4X4X4X4X4X4X4X4X4X4X4X4X4X4X7X7X4X4X7X4X4X4X4X4X<X<X,X4X4X4X4X<X,X,X,X,X,X,X,X,X,X,X<X<X>X>X>X>X>X>X>X>X>X>X>X>X>X>XV.V.V.V.V.V.V.g.g.g.g.g.g.*.*.*.@.*.g...f ; - 4 - % - : 4 ; - - - : ; = % - : ; ; ; - - - % @ @ X % % % % - - % - - - % X X @ @ ; % @ % - @ @ @ o @ @ o @ @ % - % - ; 4 7 4 = @ @ @ @ = - % % % @ @ % = - % @ X X X X X X X X X @ @ @ o o X X X X o @ @ @ @ @ o X o o @ @ @ @ @ o o o @ o o o o o @ @ o X X o @ @ .   . X o X . . X @ @ @ o @ % @ @ .   X X X % ; o w f 7 7 n T ^ ^ ^ ^ ^ ^ ) ) Q Q ! / / / / ! ! ! ! ! ! ! ! ! / / / / / / / / / ! ! ! ! ! ! / / / / / / ) ) ) ) ) / / / / / ) / / / / / / / / / / / / / / / / / / ) ) ) / / / / / / ) ) / / / / ^ ^ ^ ^ Q Q Q ^ ^ ^ Q Q Q Q Q W Q Q Q Q Q W E W W W E E E E E E E E E Y Y Y Y Y Y Y Y Y Y Y Y A A A A A A n n d d d d ",
"=.=.=.=.$.$.$.$.$.$.*.*.*.*.*.*.&.&.&.&.&.g.g.g.;X;X;X:X:X:X:X:X:X:X:X<X<X<X<X<X<X<X<X<X<X<X<X<X<X<X<X1X1X1X1X1X1X1X4X4X4X4X4X4X4X4X4X4X4X4X4X4X4X4X4X4X4X4X4X4X7X7X4X4X4X4X7X7X4X4X4X4X4X4X4X4X,X,X4X4X4X4X4X4X1X,X,X,X,X,X,X<X,X,X,X,X<X>X>X>XV.V.V.V.:X:X:X:X:X:X:X:XV.V.g.g.&.g.g.*.g.g.*.#.%.%.{ a - ; 4 = - - - - - ; ; ; : ; - % % % % - - - = = % % % % % % % % % & % % - % % # # # # # # # @ % % % # @ @ @ @ o X X + % + % - - 4 8 4 - @ X @ % - % % ; % % # % % @ @ % % % @ @ + @ @ # @ @ @ @ @ @ @ @ @ @ + @ @ @ @ @ X X X + @ @ @ @ @ @ @ X X @ @ @ @ @ @ @ o X X X . . X X . . . . @ @ X X o @ o X . . . X o X @ - ; @ @ : w e y f R Q Q Q Q Q R T W W Q ! ) ) ) ! ) / ! ! ! / / ) / ^ / / / / / / / / / / / / / / / / / / / / / / / / / / ) ) / / / / / / / / / / / / / / / / / / / / / / / / / / / / / / / / / / / ^ ^ ^ ^ ^ ^ ^ ^ ^ ^ Q ^ Q Q Q Q Q Q Q Q W W W W W W E E E E E E E E E E E E E Y Y Y Y Y Y Y Y A A A A A A A A n n v d ",
"=.=.=.=.$.$.$.$.$.$.*.*.*.*.*.*.&.&.&.&.g.g.g.g.;X;X;X:X:X:X:X:X:X:X:X<X<X<X<X<X<X<X<X<X<X<X<X<X<X<X1X1X1X1X1X1X1X1X4X4X4X4X4X4X4X4X4X4X4X4X4X4X4X4X4X4X4X4X4X4X7X7X7X4X4X4X4X7X4X4X4X4X4X4X4X4X,X4X4X4X4X4X4X1X,X,X,X,X,X,X,X<X,X,X,X,X<X>X>X>XV.V.V.V.:X:X:X:X:X:X:XV.V.g.g.g.>Xg.*.%.%.%.*.g.*...n w ; ; 4 4 ; ; ; - - - - = - - % @ @ @ % % % % % % % % % % % % % % % % % % - % % # # # # # # # # # @ # # # # % % @ o o @ % @ % % % - 4 7 3 - % # % % # % - % % % % % % # % % % # @ @ @ % % @ @ @ @ X @ @ @ @ @ @ @ @ @ @ @ X X + + @ @ o X + + X X X X @ @ o o o o X X X . X X X X X X . . @ o X X o @ o X X . . o o X @ - - @ X @ % % 4 y R R Q Q ^ ^ ) _ ) / Q W W Q ! / ) ) ) ) ! Q ! / / ^ ^ ^ / / / / / / / / / / / / / / / ! / / / / / / / / / / / / / / / / / / / / / / / / / / / / / / / / / / / / / / / / / / / / / ^ ^ ^ ^ ^ ^ ^ ^ ^ ^ Q ^ Q Q Q Q Q Q Q Q W Q W W W W E E E E E E E E E E E E E Y Y Y Y Y Y Y Y A A A A A A A A n n n v ",
"=.=.=.=.$.$.$.$.$.*.*.*.*.*.*.*.&.&.&.&.g.g.g.g.g.;X;X:X:X:X:X:X:X:X:X<X<X<X<X<X<X<X<X<X<X<X<X<X<X1X1X1X1X1X1X1X1X1X4X4X4X4X4X4X4X4X4X4X4X4X4X4X4X4X4X4X4X4X4X4X7X4X4X4X4X4X7X7X4X4X4X4X4X4X4X4X<X4X4X4X4X4X<X,X,X,X,X,X,X,X,X<X,X,X,X,X<X>X>X>X:X:XV.V.:X:X:X:XV.V.V.V.V.g.g.g.g.*.&.g.g.*.%.%.O.n 4 ; 4 ; ; 4 ; ; - - = % % @ @ @ @ @ @ @ @ @ @ % % % % % % % % % % % % % % - & % % # # # # # # # # # @ # # # % % % % % @ % % % % % @ @ - 7 w 7 ; - % % # # % % % % & - % % - % % % % % % % % @ @ + X X X X X @ @ @ @ @ @ @ @ X + @ @ @ X X X X X X X X X X X X X o X X X . . X o o o o X X X @ X X X X o X X o X X X X o % - ; = % @ . . = w a y y y a d n A Q ! ! ! Q Q ! / ! ) ) ) ! Q Q ! / ^ ^ ^ ^ ^ / / / / / / / / / / / / / ! ! ! / / / / / / ) ) ) / / / / / / / / / / / / / / / / / / / / / / / / / / / / / / / / / / ^ ^ ^ ^ ^ ^ ^ ^ ^ ^ Q ^ Q Q Q Q Q Q Q Q Q W W W W W W E E E E E E E E E E Y Y Y Y Y Y Y Y Y Y A A A A A A A A n n n v ",
"=.=.=.$.$.$.$.$.*.*.*.*.*.*.*.*.&.&.&.g.g.g.g.;X;X;X:X:X:X:X:X:X:X:X<X<X<X<X<X<X<X<X<X<X<X<X1X1X1X1X1X4X1X1X4X4X1X4X4X4X0X0X4X4X4X4X4X4X4X4X4X4X4X4X4X4X4X4X4X4X4X4X4X4X4X4X7X7X4X4X4X4X4X4X4X4X4X4X4X4X4X4X<X,X,X,X,X,X,X,X,X<X>X,X,X>X<X>X>XV.>X>XV.:X:X:XV.V.V.V.V.V.V.g.g.&.%.*.*.*.g.g.@...d 4 @ ; 4 ; % - % % % % % % @ @ @ @ @ % % % % % @ @ @ @ @ % % % % % % % % % & - & & % # # # # # # # # # # # # # % % % % % % @ @ % % @ X X % 4 e e 7 ; % % # % % % @ % - - % % % % % % % % % & - @ X X X X X X X @ @ @ X X X X X X X @ @ @ @ X X X X X X X X X X o o o o o X X X o o o o o X X X X X X X X X o o X X X X X o % - = - - - % X @ - % @ @ o @ % - ; y s S Q ) ) ! W Q Q Q Q Q ! ! ! ^ ^ ^ ^ ! ! ! ! ! ! ! ! ! ! ! ! ! ! ! ! ! ! ! ! / / / / / / / / / / / / / / / / / / / / / / / / / / / / / / / / / / / / / / / / / ^ ^ ^ ^ ^ ^ ^ ^ ^ ^ Q ^ Q Q Q Q Q Q Q Q Q W W W W W W W E E E E E E E E Y Y Y Y Y Y Y Y Y Y Y A A A A A A A A n n n n ",
"$.$.$.$.$.$.$.$.*.*.*.*.*.*.*.*.&.g.g.g.g.;X;X;X;X;X:X:X:X:X:X:X:X:X<X<X<X<X<X<X<X<X<X<X<X1X1X1X1X1X1X1X1X4X4X4X1X4X4X4X0X0X0X4X4X4X4X4X4X4X4X4X4X4X4X4X4X4X4X4X4X4X4X4X4X4X4X7X4X4X4X4X4X4X4X4X4X4X4X4X4X4X,X,X<X,X,X,X,X,X,X>X<X>X>X>X>X>X>X:X>X>X>XV.V.V.V.V.V.V.V.V.g.g.g.&.*.V.&.@.#.*.O.Y ; - - ; ; - = = % % % % % @ @ @ @ @ @ % % % % % @ @ @ @ @ % % % % % % % % % & - - - % % # # + + # # # # # # # # # @ % % % % @ + @ @ @ + X @ ; w w w 4 - % # % % @ @ # % - % @ % & % % % % % - - @ @ X X X X X X @ X X X X X X . X X @ @ @ @ @ @ X X @ @ @ @ X X @ @ @ @ @ @ o X X X o o X X X X X X X X X X X X X X X . . X @ % @ @ % = % @ X X o X X X X X @ @ # % 4 a S Q ! Q ) Q T W Q ) / ! ^ ^ ^ ^ ! ! ! ! ! ! ! ! ! ! ! ! ! ! ! ! ! ! ! ! / / / / / / / / / / / / / / / / / / / / / / / / / / / / / / / / / / / / / / / / / ^ ^ ^ ^ ^ ^ ^ ^ ^ ^ Q Q Q Q Q Q Q Q Q Q W W W W W W W W W E E E E E E E E Y Y Y Y Y Y Y S S S A A A A A A A A n n n n ",
"$.$.$.$.$.$.$.$.*.*.*.*.*.*.&.&.g.g.g.g.;X;X;X;X:X:X:X:X:X:X:X<X<X<X<X<X<X<X<X<X<X<X<X<X1X1X1X1X4X4X1X1X4X4X4X4X4X4X4X4X0X0X0X0X4X4X4X4X7X4X4X4XqXqX7X7X7X7XqXqX4X4X4X4X4X4X4X4X7X4X4X4X4X4X4X4X4X4X4X4X4X,X,X,X<X,X,X,X,X,X,X>X>X<X>X>X>X>X:X:X>X>X>XV.:XV.V.V.V.V.V.g.g.g.&.*.&.>X>X&.*.#.Q 7 % 4 4 - @ - : : - - - - = % @ @ @ @ @ % % % @ @ @ @ @ @ @ @ @ % % % % @ % % & - - - - % % # # + # # # + # @ # @ % @ o @ @ @ @ o @ @ @ @ + + % 4 7 w w ; % # % % @ @ # - - % @ # & & % % % % % % @ @ X X X X X X X X X X X X X X @ @ @ @ @ @ @ @ X X @ @ @ @ X X @ @ @ @ @ @ @ @ X o o o o X X X X X X X . . . X . X X . . o @ @ % @ X X @ @ @ X o o @ @ @ % % % # + . @ 8 v W ) [ / W W ^ ) / Q ^ ^ ^ ^ Q Q Q Q ! ! ! ! ! ! ! ! ! ! ! ! ! ! ! ! ! ! ! ! ! ! ! ! / / / / / / / / / / / / / / / / ( ( ( ( / / ( ( / / / / ( ( ( ( / ^ ^ ^ ^ ^ ^ ^ ^ ^ ^ Q Q Q Q Q Q Q Q Q Q W W W Q W W W W W W W E E E E E E Y Y Y Y Y Y Y S S S A A A A A A A A n n n n ",
"$.$.$.$.$.$.*.*.*.*.*.*.*.*.&.&.g.g.g.g.;X;X:X:X:X:X:X:X:X:X<X<X<X<X<X<X<X<X<X<X<X<X<X<X1X1X1X1X4X1X1X4X4X4X4X4X4X4X4X4X0X0X0X0X4X4X4X4X7X7X4X4XqXqXqX7X7X7X7XqX7X7X4X4X4X4X4X4XqXqX4X4X4X4X4X4X4X4X4X4X4X,X,X,X<X,X,X,X,X,X,X<X>X>X<X>X>X>XV.V.>X>X>XV.:XV.V.V.V.V.g.g.g.g.*.*.*.*.*.%.+.Q y % - : ; % % - 4 4 ; ; ; ; ; - - % % = % % % % @ @ % % % % @ @ @ @ % % @ @ % % % - - - - - - # # + # @ # + # # @ @ % @ o o @ @ @ + @ X + @ @ X @ - 3 w e 4 % @ # % % # % - - % @ % & & % % % % @ @ @ @ @ + X + + + X X X X X + + + % % % % @ + + X X + @ # # @ X X X @ @ @ @ @ @ o @ @ @ @ @ o X X X X o X .   . . . X @ X X @ @ @ % @ . . o % % @ X X X o @ @ @ @ ; - # + % 8 f Y Q ! / / / Q Q Q ^ ^ Q Q Q Q Q Q ! ! ! ! ! ! ! ! ! ! ! ! ! ! ! ! ! ! ! ! ! ! ! ! / / / / / / / / / / / / / / / / ( ( ( ( / / / ( / / / ( ( ( ( ( / ^ ^ ^ ^ ^ ^ ^ ^ ^ ^ Q Q Q Q Q Q Q Q Q Q W W W Q Q W W W W W W E E E E E Y Y Y Y Y Y Y Y Y S S A A A A A A A A n n n n ",
"$.$.$.$.$.$.*.*.*.*.*.*.*.*.&.&.g.g.g.;X:X:X:X:X:X:X:X:X:X:X<X<X<X<X<X<X<X<X<X<X<X<X<X<X1X1X1X1X1X1X1X4X4X4X4X4X4X4X4X0X0X0X0X0X4X4X4X7X7X7X4X4X7XqX7XqX7X7XqX7X7X7X4X4X4X4X4X4XqXqXqX4X4X4X4X4X4X4X4X4X4X,X,X,X<X,X,X,X,X,X,X<X>X>X>X>X>X>XV.V.>X>X>XV.:XV.V.V.g.g.g.g.g.&.*.*.&.O.^ T f 4 - ; ; = % % ; ; ; ; ; ; 4 4 4 4 4 : ; ; - - = % % % % % % % % @ @ @ % % @ @ @ % & - - - - - - # # + # @ # + # # @ % & % o X + % % @ @ X X @ @ X @ - ; e y 8 % + @ # % % % - - % # % - & % % % @ @ X @ @ @ @ + + @ @ + + + @ @ @ @ @ - - & % # + X . + @ # % % @ @ + X X o @ @ @ o o @ @ @ @ @ @ @ o X o o X .     . . @ @ @ o @ % @ X X . . X @ @ X o o X X X X o @ - 3 4 - # # 3 e n T / ) Q W W Q ^ ^ Q Q Q Q Q Q ! ! ! ! ! ! ! ! ! ! ! ! ! ! ! ! ! ! ! ! ! ! ! ! / / / / / / / / / / / / / / / / ( ( ( ( / / / / ( / / ( ( ( ( ( / ^ ^ ^ ^ ^ ^ ^ ^ ^ ^ Q Q Q Q Q Q Q Q Q Q W W W Q Q Q W W W W W E E E E E E Y Y Y Y Y Y Y Y Y Y A A A A A A A A n n n n ",
"$.$.$.$.$.*.*.*.*.*.*.*.*.&.-X-Xg.g.g.;X;X:X:X:X:X:X:X:X:X<X<X<X<X<X<X<X<X<X<X<X<X<X<X1X1X1X1X1X1X1X1X4X4X4X4X4X4X4X4X0X0X0X0X0X4X4X4X4X4X4X4X4X4X4X4X7X7X4X4X4XqXqX4X4X4X4X4X<XqX7X4X4X4X4X4X4X4X4X4X4X4X4X4X4X<X<X,X,X,X,X,X<X>X>X<X>X>X>XV.V.g.>X,XV.V.:X:XV.V.g.<X:X#.,X,X^ Q e y y % - w % : % @ ; ; @ @ : - ; : : ; ; ; 4 4 4 4 4 4 : - % @ = - - = % % = % @ o o @ % % % - % % % - - # + # # # + # % % # X & ; % % % % % @ @ X X @ @ # % 3 7 4 7 e % . - % % - - % + + % - - % @ @ # # @ & + X + % X . X . X + X X X % - 4 - % X X X + + % % % % % % + + X X X X X X X X X X X X o o @ @ . . . . . X X X @ @ o X o @ @ @ o X X X X X X X @ . . X % - - = r y v n X @ @   - r Y ^ ^ Q Q / W W Q ^ Q Q / ) Q Q Q ! ! ! ! Q Q Q ! ! ! ! ! ! ! ! ! ! ! ! ! ! ( / / / / / / / ( / / / / / / ( ! ! ( ( ( ( ! ! ( ( ! ! ! / / ^ ! ^ ^ ^ ^ ^ ^ ^ ^ ^ ^ ^ ^ Q Q Q ^ Q Q Q W W W Q Q Q Q Q Q W W W E E E E Y Y Y Y Y Y Y Y Y A A A S S A A A A n n n n n n ",
"$.$.$.$.*.*.*.*.*.*.*.*.&.&.-X-Xg.g.;X;X;X:X:X:X:X:X:X:X<X<X<X<X<X<X<X<X<X<X<X<X<X<X1X1X1X1X1X1X1X1X4X4X4X4X4X4X4X4X0X0X0X0X0X0X4X4X4X4X4X4X4X4X4X4X4X7X7X4X4X4XqXqX4X4X4X4X4X4X7X7X4X4X4X4X4X4X4X4X4X,X,X,X,X4X<X<X,X,X,X,X<X<X>X>X<X>X>X>XV.V.V.V.>X>X>X>X>XV.V.%.%.V.g...T n ) A n a - - 4 % 4 ; - % % % - ; - ; ; ; - - ; : - - - - ; ; ; ; - - - - - = % % % % @ o @ % % % % % % % - - % # # # + + # % % % X % ; - % % % % @ @ X X + @ @ # - 7 4 4 w ; + - % % - - % X + % - - % @ @ # # # % + + + + X X X X X + X . X % - 4 - % + X X X X # % % % % % + + X X X X X X X X X X X X X o o @ . X o o X X X o o o X X o @ @ @ @ o X X X X X X X X X @ % % @ X % 4 f Y 7 e 7 + . % 8 d T ^ Q W ^ ^ ^ ^ ! Q Q / ! Q Q Q ! ! Q Q Q Q ! ! ! ! ! ! ! ! ! ! ! ! ! ! ( / / / / / / / ( / / / / / / ( ! ! ( ( / ( ! ( ( ( ! ! / / ( ^ ! ^ ^ ^ ^ ^ ^ ^ ^ ^ ^ ^ ^ Q Q Q ^ Q Q Q W W Q Q Q Q Q W E W E E E E E E Y Y Y Y Y Y Y Y Y A A A A A A A A A n n n n n n ",
"$.$.$.$.*.*.*.*.*.*.*.*.&.&.-X-Xg.;X;X;X:X:X:X:X:X:X:X:X<X<X<X<X<X<X<X<X<X<X<X<X<X1X1X1X1X4X4X1X1X4X4X4X4X4X4X4X4X0X0X0X0X0X0X0X4X4X4X4X4X7X7X4X4X4X7X7XqXqX4X4XqXqX4X4X4X4X4X4X4X4X4X4X4X4X4X4X4X4X<X,X,X,X,X<X<X4X,X,X,X,X,X,X>X>X>X>X>X>XV.V.>XV.V.>X<X>XV.V.:X,X#.Q A d ^ *._ _ T y ; = - = % - - @ % : 4 - ; ; ; - - - - ; ; - - - ; 4 4 4 4 : ; ; ; - % @ % % @ @ @ % % % # % % - - - - - + + + + # % - - X % - - % % % % @ @ + + + + @ @ % 4 4 4 8 7 - % @ % - - @ X + - - - % @ @ # # @ @ + + # + X X + X X X X . + & - 4 - % @ + + X X + + % % % % + + X X o @ @ @ @ @ @ @ @ @ o X X X . o @ @ @ X o @ X X X X o o o X @ @ o X X X X X . . X @ = - : 4 X - w d e A d 7 % X X ; f W Q T ^ ^ Q Q Q Q Q Q / ! Q Q Q Q Q ! Q Q Q Q ! ! ! ! ! ! ! ! ! ! ! ! ( ( / / / / / / ( / / / / / / ( ! ( / ( / / ( ( ( ( ( ! ( ( ( ^ ! ^ ^ ^ ^ ^ ^ ^ ^ ^ ^ ^ ^ Q Q Q ^ Q Q Q Q Q W Q Q Q W E E E E E E E E E Y Y Y Y Y Y Y Y Y S A A Y Y A A A A m n n n n n ",
"$.$.$.*.*.*.*.*.*.*.*.*.&.&.;X;X;X;X;X:X:X:X:X:X:X:X:X:X<X<X<X<X<X<X<X<X<X<X<X<X1X1X1X1X4X4X4X4X4X4X4X4X4X4X4X4X0X0X0X0X0X0XqXqX7X7X7X7XqXqXqXqX4X4XqXqXqXqX4X4XqXqXqX4X4X4X4X4X4X4X4X4X4X4X4X4X4X4X4X1X,X,X,X,X1X4X,X,X,X,X<X<X>X>X>X>X>X>XV.V.,XV.g.V.V.g.g.:X:X@.T A _ @.%.&.{ ..Y 4 - - = - % - - ; 7 e y y : ; - - = = - - 4 ; ; ; ; ; ; - : 4 4 4 ; - - - - % % @ + @ % & # % % % # & 2 3 + + X + % - - 3 + % - - & % % % @ @ @ + + + + @ X ; 4 ; 7 w 4 % @ # % - @ X @ - - % @ @ + @ @ @ o + # # + X + % X X X . X + & 4 - & % % % % + + + + % % % % + + @ @ @ @ % % % % - - - % @ @ X X X X X o @ @ @ @ . X X X o X X X @ @ o X X o o @ X X X X @ - w y 4 4 % - - n S a a 4 @ X ; a Y ^ Q Q T Y W Q Q Q / ! Q Q W Q Q ! Q Q Q Q Q ! ! ! ! ! ! ! ! ! ! ! ! ( / / / / / / ( / / / / / / ( ( ( / / / / ( ( ( ( ( ! ( ( ( ( / ^ ^ ^ ^ ^ ^ ^ ^ ^ ^ ^ ^ Q ^ ^ ^ Q Q Q Q Q W Q Q Q W W E E E E E E E E E Y Y Y Y Y Y Y Y S A A Y Y A A A A n n n n n n ",
"$.$.$.*.*.*.*.*.*.*.*.&.&.&.g.g.;X;X:X:X:X:X:X:X:X:X:X<X<X<X<X<X<X<X<X<X<X<X<X<X1X1X1X1X1X4X4X4X4X4X4X4X4X4X4X4X4X4X0X0X0XqXqXqX7X7X7X7X7X7X7X7X4XqXqXqXqXqX7X4X7X7X7X4X4X4X4X4X4X4X4X4X4X4X4X4X4X4X4X4X4X4X4X4X<X<X,X,X,X,X>X>X>X>X>X>X>X>X:XV.>X:XV.V.V.g.V.<X@.d n @.g.g.g.#.....f % - ; = - @ o % 7 e w e f : ; - = = = - - - - - - - - % @ - : 4 4 ; - - : - - - % @ @ % % % % % # + # 2 8 # + X # % - - 3 @ % % - - % % & @ @ @ @ @ + + X . - 4 ; 3 w 7 % + @ % % @ + % ; - % + X + + + + o * % + + + + * X X X X + * & ; & + + & & & * + + + * * * * + + @ @ @ % % - - - ; ; - - - = % % @ X . . @ % % @ . X X X X X X . @ o o X X o @ @ @ @ X .   . % ; w 7 .   . y a y d a 7 @ . ; d ^ Q Q W Y Y Q ! Q / ! Q Q W Q Q ! Q Q Q Q Q ! ! ! ! ! ! ! ! ! ! ! ! ( / / / / / / ( / / / / / / ( ( / / / / / / ( ( ( ( ( ( ( ( ^ / ^ ^ ^ ^ ^ ^ ^ ^ ^ ^ ^ ^ Q ^ ^ Q Q Q Q Q W W Q Q Q Q Q W W W W E E E E Y Y Y Y Y Y Y Y Y S S S S S A A A A n n n n n n ",
"*.$.*.*.*.*.*.*.*.*.*.&.&.g.g.;X:X;X:X:X:X:X:X:X:X:X:X<X<X<X<X<X<X<X<X<X<X<X<X<X1X1X1X1X4X4X4X4X4X4X4X4X4X4X4X0X0X0X0X0XqXqXqXqXqXqX7X7XqXqXqXqX7XqXqXqXqXqX7X7X7X7X7X7X7X4X4X4X4X4X4X4X4X4X4X4X4X4X4X4X4X4X4X4X<X<X,X,X,X,X>X>X>X>X>X>X>X>XV.V.V.>X>XV.V.>XV.g.T n ..g.@.%.,X*.O._ e o - : % - . % y T Y e ; 4 : ; - - - - - - % % = - ; - - % = - 4 4 ; ; ; 4 - - - % % @ @ % & - % + X + 2 w - + @ # - - - 4 % @ % % & % - - # # # # @ @ X X X % 4 4 - 7 w - @ @ @ % % # - 4 % % @ X X + + + + % % + + + + + X X X X + * & - * + + & 3 & + + + + * % % * + + @ @ % % = - - - = = - - - ; ; ; - @ X o % = % @ X X X X X X X . X X X X X o @ @ o @ @ o .   . . = - . X . 7 4 4 e y e ; . X w n T ^ ^ T T Q Q W Q Q Q Q Q Q Q ! Q Q Q Q Q Q ! ! Q Q Q Q ! ! Q Q ! ! ( / / / / / ( / / / / / / ( ( / ( / / / ( ( ( ( ( ( ( ( / ^ / ^ ^ ^ ^ ^ ^ ^ ^ ^ ^ ^ ^ ^ ^ ^ ^ Q Q Q Q W W Q Q Q Q Q Q W W W E E E E Y Y Y Y Y Y Y Y Y Y S S S S A A A A n n n n n n ",
"*.*.*.*.*.*.*.*.*.*.&.&.&.;X;X;X;X:X:X:X:X:X:X:X:X:X<X<X<X<X<X<X<X<X<X<X<X<X<X<X1X1X1X4X4X4X4X4X4X4X4X0X4X4X0X0X0X0X0XqXqXqXqXqXqXqXqXqXqXqXqXqX7XqXqXqXqXqXqX7X7X7X7X7XqXqX7X7X7X7X4X4X4X4X4X4X4X4X4X4X4X4X4X4X<X<X,X,X,X,X>X>X>X>X<X>X>X>XV.V.V.>X>Xg.V.>X%.{ Y { %.#.$.,Xg.R { T 7 @ - ; % % 4 a ^ O._ d w ; ; ; - - - ; - = % % - - : 4 4 : - - - ; : 4 ; - - - : - % @ @ % % - - # X + - 8 3 # + - - % - 4 & @ @ % % % - : % % % % # @ + X + @ 4 7 & ; 8 ; # @ @ % % - ; 4 - % @ @ @ @ @ + % * % + + * + X X X X + + % & & & + + ; 9 & + X + % % % % % + + @ @ @ @ % % % = @ % % = - - ; ; ; ; ; ; - % @ @ @ o X X X X X X X X X X X X o @ X o @ @ @ o X X . % . @ X % @ ; 7 w e 4 @ X - 7 f Y ^ Q W Q Q W W Q Q Q Q Q ! ! Q Q Q Q Q Q ! ! Q Q Q Q ! ! ! Q Q ! ( / / / / ( ( / / / / / / ( ! ! ( ( / / ! ! ( ( ( ( ! ! / ^ / ^ ^ ^ ^ ^ ^ ^ ^ ^ ^ ^ ^ ^ Q Q ^ Q Q Q W W W Q Q Q Q Q W W E E E E E E Y Y Y Y Y Y Y Y Y A S S A A A A A A n A n n n n ",
"*.*.*.*.*.*.&.*.*.&.&.&.&.;X;X;X;X:X:X:X:X:X:X:X:X:X<X<X<X<X<X<X<X<X<X<X<X<X<X<X1X1X1X4X4X4X4X4X4X4X4X0X4X0X0X0X0X0X0XqXqXqXqXqXqXqXqXqXqXqXqXqX7XqXqXqXqXqXqX7X7X7XqXqXqXqXqX7XqX7X4X4X4X4X4X4X4X4X,X,X,X,X,X1X1X<X,X,X,X,X>X>X>X>X<X>X>X>X:XV.:X,X:X*.g.V...d { g.>X@.O.{ ) ^ ^ f ; % = - % @ y A T n y w 7 4 ; - - - ; ; - = = % % = - ; : : ; = @ = 4 7 ; % - ; : - % @ + @ # - 3 % + + - 4 3 - @ - - % - 4 - @ o % % % - 4 % % % % % @ + X @ @ 4 7 % - 7 4 % @ + # - - 3 4 - - # @ # # # + & & % + + * + . + + + + % & % & & + * 3 9 & + X * % * * % % + + @ @ @ @ @ % @ % % % % % % % % % ; 7 e w 3 % @ @ @ @ X X X X X X X X X X X X X o @ @ @ o X o o o X % . @   X X 7 e w 7 4 - % @ o 4 f W Q Q ! Q W E W Q Q Q ! ! ! Q Q Q W Q Q ! ! Q Q Q Q ! ! Q Q Q ! ( / / / / ( ( / / / / / / ( ! / ( ( / ! ! ! ! ( / / / / / / / ^ / ^ / ^ / ^ / ^ / ^ ^ Q Q Q Q Q Q W W W W Q Q Q W W W E E E E E E E Y Y Y Y Y Y Y Y Y A S A A A A A A A n A n n n n ",
"*.*.*.*.*.*.*.*.&.&.&.&.;X;X;X;X;X;X:X:X:X:X<X<X<X<X<X<X<X<X<X<X<X<X<X1X1X1X1X1X1X1X1X4X4X4X4X4X0X0X0X0X0X0X0X0XqXqXqXqXqXqXqXqXqXqX7X7X7X7XqXqXqXqXqXqXqXqXqXqX4XqXqXqXqXqX7X7X4X4X4X4X4X4X4X4X4X4X,X<X<X<X2X2X,X,X,X,X,X,X>X>XV.>X>X>XV.V.V.>X>X&.4X<Xg.@.Y Y g...#.@.{ O._ _ { e - = = = @ - w y y 7 3 4 4 - - - ; ; 3 ; ; ; ; - % % % - ; ; 7 4 ; - % - 4 7 ; ; - & - % % @ % % - 3 - + % 7 3 % # - - % - 4 & @ + # % - ; 4 & @ + # % # @ @ @ + - ; % ; 7 7 # + + + & - 2 - 5 + + +   + 2 # % & # + # # X # # + X # # # + # & & 2 3 2 % # % & & & % # + X X X X + + # % % % + + @ % % @ @ @ - % # 3 w e 3 # . X @ @ @ X X .   . + @ @ @ @ @ @ @ @ @ X X X + + X X X X + @ @ ; 7 w w w 7 & . X 3 S / Y W ) Q Y Y W Q ! ! ! Q Q Q Q Q Q Q Q Q Q Q ! ! ! Q Q Q ! ! ! ( / / / / ( ( / / / ( ( ( Q Q Q Q ! ! ! ! ! ! Q / / / / / Q ^ Q ( ( / / / / ^ ( ^ ! ^ Q ! ! ! Q Q Q Q Q Q W W W W W E E E E E E Y Y Y Y Y Y Y Y S S S S S S S A A A A n n n n n n ",
"*.*.*.*.*.*.*.*.&.&.&.;X;X;X;X;X;X;X:X:X:X:X<X<X<X<X<X<X<X<X<X<X<X<X1X1X1X1X1X1X1X1X4X4X4X4X4X4X0X0X0X0X0X0X0X0XqXqXqXqXqXqXqX0XqXqX7XqX7X7XqXqXqXqXqXqXqXqX7X7X4XqXqXqXqXqX7X7X4X4X4X4X4X4X2X2X2X2X,X,X2X<X2X2X,X,X,X,X,X,X>X>XV.>X>X>XV.V.V.>X:XV.V.*.V...d ) { @.@.$.,X#.T { _ e ; - - - @ - ; 7 7 ; - ; ; - - - - ; ; ; - - - ; ; - % - ; 4 4 4 3 ; - - ; 3 4 4 ; - - % % # - % - ; - @ % 4 3 % # - - % - 4 - % @ @ % % - 4 & # + # % % @ @ @ @ - ; % - 7 4 # + + + % - 2 - 2 + + + . & 8 2 # - + + # # + # + X X # # # # # & & 2 3 2 % & & - - & & + X + + X X + + + % % % + + + @ @ + + + + X + # 2 3 3 3 + + X + @ @ @ + . + # % # @ @ % % % @ @ + X X X X + + + + @ @ @ - ; 4 4 8 8 4 - @ % r Y W W Q Q W W W W Q Q Q Q Q Q Q Q Q Q Q Q Q Q Q ! ! Q Q Q ! Q Q Q Q Q ( ( ( / / / / ( ( ( Q Q Q Q ! ! ! ! ! ! Q / / / / / Q Q ! ( / / / / ( ( ! ! ! Q Q Q ! ! Q Q Q W W W W W W W W E E E E E E Y Y Y Y Y Y Y Y S Y S S S S S A A A A n n n n n n ",
"*.*.*.*.*.*.&.&.&.&.g.g.;X;X;X;X:X:X:X:X:X<X:X:X<X<X<X<X<X<X<X<X<X1X1X1X1X4X4X1X1X4X4X4X4X4X4X4X0X0X0X0X0X0X0X0XqXqXqXqXqX0X0X0XqXqXqXqXqXqXqXqX7XqX7XqXqX7X7X7X4XqXqXqXqXqX7X7X4X4X4X4X4X4X4X2X2X2X2X2X2X,X,X2X,X,X,X,X,X,X,X,XV.>X>X>X:XV.V.>X:X,Xg.*.>X_ y { @.g.@.@.%.) ) V.T 4 - - - ; % - % ; ; % % - ; - - - - - - - - - % ; 3 ; % % - ; ; 3 4 3 ; - - - 4 7 4 ; - % % % - % % - - % % 3 4 % @ % - - - ; 3 % @ @ # % - 3 - @ @ % % % % % @ + - ; % - 4 4 # + + # & - - % # + + X X 3 e 3 # & + + # # + # + X + # - & # & & & 2 3 2 % & & 2 - % # X X + + X X X + @ @ # @ + + + + + X X + . + + # # - 5 r 4 - @ . X X . . # % % % % # # % - % @ + @ @ X . @ @ + + @ @ @ @ @ # % - ; 4 4 4 - % ; f / ! T Q ! Q W E E E W Q Q Q Q Q Q Q Q Q Q Q ! ! Q ! Q Q ~ ~ Q Q Q Q Q Q / ( / / ( ( ( ( Q Q Q Q Q Q Q Q ( ( ( ( ( / / / ! ! ! ! / / ( ( ! Q Q Q Q Q Q Q Q Q Q Q W W W E W W W W E E E E E E E Y Y Y Y Y Y Y Y Y Y S S S S Y A A A A n n n n n n ",
"*.*.*.*.*.&.&.&.g.g.g.;X;X;X;X;X:X:X:X:X:X:X<X<X<X<X<X<X<X<X<X<X1X1X1X1X4X4X4X4X4X4X4X4X4X4X4X4X0X0X0X0X0X0X0X0XqXqXqXqXqXqXqXqXqXqXqXqXqXqXqXqX7X7X7XqXqXqX7X7X4XqXqXqXqXqX7X7X7X7X4X4X4X4X4X4X4X4X2X2X2X,X,X,X,X,X,X,X,X,X>X>X>X>X>X>X:XV.V.V.V.,X:Xg.*.T e Y _ ..O.*...T { ) y % % - - ; - ; % - - - - ; ; - - - - - - - ; ; % - ; ; - % % - - ; 3 3 ; - - % 4 4 4 3 - % - ; ; - % - - % & - 4 - @ % - - - - 4 % @ + @ # - ; - # @ % - % % % @ @ - - % - 4 4 # # # % - 2 & # # & # . + 4 8 - # % + + & % + # + + + % - & # # & & - 3 2 % % & - - % # + X + + X X + + + # @ # + + + + X X X . + # # # + # 3 w e 4 - + . . . X - - % % # @ # % - % + + # % @ X @ @ + + @ @ @ # X X X X @ % - - - - @ 8 W Q Y W Q Q W E E E E W Q Q Q Q Q Q Q Q Q Q Q Q Q Q Q Q ~ Q Q Q Q Q Q ! ! ! Q Q Q Q ( ( Q Q Q Q Q Q Q Q ( ( ( ( ( / / / ! ! ! ! ^ ^ ( ( Q Q Q Q ~ ~ ~ ~ Q Q Q Q W W W E W W W E E E E E E E E Y E Y Y Y Y Y Y Y Y S S S S Y A A A A n n n n n n ",
"*.*.*.*.&.-X&.&.;X;X;X;X;X;X;X;X:X:X:X:X<X<X<X<X<X<X<X<X<X<X<X<X1X1X1X1X1X4X4X4X4X4X4X4X4X0X4X4X0X0X0X0X0X0X0X0XqXqXqXqXqXqXqXqX7XqXqXqXqXqX7X7XqXqXqXqX7XqXqXqX4XqXqXqXqXqX7X7X7X7X7X4X4X4X2X4X4X4X4X2X2X,X,X,X,X,X,X,X>X>X>X>X>X>X:X:X:X:XV.V.g.V.>Xg._ A n f d Y Y ^ T A T 7 7 @ - - - 3 - ; - - - - - ; ; - ; ; ; ; ; ; ; ; - - - - ; ; - % - - ; ; - - - - - ; 3 ; % % ; 4 4 - % % - & & - 7 - % % ; ; - - 4 - @ + @ @ % ; - % @ % - - % % # @ - - % - 4 3 # # # & 2 2 & # + % # + & 5 3 % # & + + & & # # # # # % & # # # & & 2 2 2 & & - % & & & + + X X X + + + # # # # # @ + X X X X . + + + + + # & - 3 4 - % . . % - - % % @ @ @ @ @ % @ X + % % % @ @ @ @ @ @ @ @ # X X X + + @ @ # X % X @ a Y S Y E E W W W W W E Q Q W W W W Q Q Q Q Q Q Q Q Q Q Q Q Q Q ( ( ( ( ! Q Q Q ( ( ( ( Q Q Q Q Q Q Q Q Q Q Q ( ( / / / ( ! ! ! ! ! ( Q Q Q Q Q ~ ~ ~ ~ Q Q Q Q Q W W E W W E E E E E E E E E E E Y Y Y Y Y Y Y Y S S S S S A A A A A n n n n n ",
"*.*.*.&.-X-X;X;X;X;X;X;X;X;X:X;X:X:X:X:X<X<X<X<X<X<X<X<X<X<X<X<X1X1X1X1X4X4X4X4X4X4X4X4X0X0X0X0X0X0X0X0X0X0X0X0XqXqXqXqXqXqXqXqX7XqXqXqXqXqX7X7XqXqXqXqX7XqXqXqX4XqXqXqXqXqX7X7X7X7X7X7X4X4X7X7X4X4X4X4X,X,X,X,X,X,X,X,X>X>X>XV.>X:XV.V.:X:XV.V.>XV.V.*.^ Y _ T f { n ; 4 4 4 y 4 % 3 ; - ; - - ; - - - - ; - - ; ; 3 4 3 ; ; - 3 - - ; 4 7 3 - - - - - - - ; ; % - - - - - 3 7 7 4 - - % % & - 7 ; - % - ; - - 4 % @ @ @ @ % - ; % % - - - % % # @ - ; % & 3 ; & & & & & & % + X # + + 3 8 2 & # & # # 2 & # & & # # % & # # # & & & 2 2 & & 2 % % & % # + X X + + + # % % % % % # + X X X X + + + # # % & % & & 3 7 3 + X # - % % @ @ @ @ @ @ @ + X + @ % % # @ @ @ + + @ @ @ @ @ @ % % @ % - . % X . 4 d Y Y Y Y E W Q W W E Q W W W W W W Q Q Q Q Q Q Q Q Q Q Q Q Q ( ( ( ( Q Q Q Q Q Q ! ! Q Q Q Q Q Q ! ! Q Q ! ( ( / / / ! ! ! ! Q Q Q Q Q Q ~ Q ~ ~ ~ ~ Q Q Q Q Q W W W E E E E E E E Y E E E E Y Y Y Y Y Y Y Y Y S S S S S A A A A n n n n n n ",
"*.*.&.&.&.;X;X;X;X;X;X;X;X:X:X:X:X:X:X:X<X<X<X<X<X<X<X<X<X<X<X<X1X1X1X4X4X4X4X4X4X4X4X0X0X0X0X0X0X0X0X0X0X0X0X0XqXqXqXqXqXqXqXqX7X7XqXqXqXqX7X7XqXqXqX7X7X7XqXqX4XqXqXqXqX7X7X7X7X7X7X7X7X7X4X7X4X4X4X4X,X,X,X,X,X,X,X,X>X>XV.V.>X:XV.V.V.>XV.g.<X>X*.*.{ Q O.O.a ) R w 7 ; @ w ; % 4 ; = ; - = ; - % - - - - - - ; 3 4 4 ; - - ; - - ; 4 4 4 ; - - ; ; ; - - ; - % % % - ; 4 7 w 7 4 - % % % % 4 3 - % - - - - ; % @ @ @ # % - 3 - % - - - % % % @ - - % % ; ; & & % % - & & + + # + & e 8 & & & 2 & & 2 2 # & 2 # # # # # & - & & & 2 - % & 2 & & & & + X X X + + % % % % % % % # + + + X + + # # % & & % & # - 7 e 8 & + + + # @ X + @ # @ @ + + + + @ @ @ # + + + + + @ @ @ @ X + @ @ @ % 3 - % @ o % y Y T Y Y Y E E W W W W W W E E W W W Q Q Q Q Q Q Q Q ~ ~ Q Q ! ! ! ! Q Q Q Q Q Q Q Q Q Q Q Q ! ! ! ! Q Q ! ( ( / / / ! ! ! Q Q ~ ~ ~ ~ ~ Q W W W W W Q Q Q Q W W E E E E E E E E Y Y E E E E Y Y Y Y Y Y Y Y Y Y S S S S A A A A n n n n n n ",
"*.*.&.&.;X;X;X;X;X;X;X;X:X:X:X:X:X:X:X<X<X<X<X<X<X<X<X<X<X<X<X<X1X1X1X4X4X4X4X4X4X4X4X0X0X0X0X0X0X0X0X0X0X0X0X0XqXqXqXqXqXqXqXqX7X7XqXqXqXqXqXqXqXqXqX7X7X7XqXqX4XqXqXqXqX7X7X7X7X7X7X7X7X4X4X4X4X4X4X2X,X,X,X,X,X,X,X>X>X>XV.V.>XV.V.V.V.>XV.g.g.>X@.%.@.R _ @.Y w a e e d 7 % % @ 4 - @ ; - = ; - % - ; ; - - - - 3 4 4 ; - % % % - - - - ; 3 - ; 4 4 3 - - - - - % % - 3 4 7 e w 7 - % % % % 4 3 ; % % % - - - % @ @ # # % - 4 - % - - - % % % @ - ; % % ; ; 2 & % % & & & # + # + 3 y 8 + & 2 3 & & 2 2 # & - # + # & # & 2 & & & 2 - % & 2 - & & + X X X + # # % % % % % % % # + + + + + + + # % # + X X + & 3 8 8 4 & # + @ + X + # % @ @ + @ @ @ X X @ @ + X X X X + @ @ + . . . . . @ ; 7 @ o @ + 4 d A W T Y Y Y Y E W W W W E E W W W Q Q Q Q Q Q Q Q ~ W ~ ~ ~ Q Q Q Q Q Q Q Q Q Q Q ! Q Q Q ! ! ! ! Q ! ! ( ( / / / Q ! ! Q Q ~ ~ ~ ~ ~ W W W W W W Q Q W W W E E E E E E E E Y Y Y E E E Y Y Y Y Y Y Y Y Y Y Y S S S S A A A A n n n n n n ",
"*.*.&.&.g.;X;X;X;X;X;X;X;X:X:X:X<X<X<X<X<X<X<X<X<X<X<X<X<X4X4X4X4X4X4X4X4X0X4X4X4X4X4X0X0XqXqXqX0X0X0XqXqXqXqXqXqXqXqXqXqXqXqXqXqXqXqXqXqXqXqXqXqXqXqXqXqXqXqXqX4XqXqXqXqXqX4X4X7X7X7X4X4X4X2X2X2X4X4X4X4X4X2X,X4X2X2X,X,X,XV.V.>X<X>XV.>X,X,XV.%.@.V.&.#...f a f a w y Y ! a . - - ; - # # ; 3 3 3 ; - - - ; ; - - - ; 3 4 ; ; % @ # - - % ; 7 ; - - 4 4 - - - - - - % % 7 e 4 w 7 4 ; - % % % ; ; - % % - - - - % % % # @ % ; 7 - % ; ; % # - % % - - - - ; ; & - 2 - & # & & # # % 8 u 4 + + & & 2 3 < # + & # # # + + & & # # & 2 2 2 - & & - 7 2 + X X X % % % % % % % % % - + . X % + X X + # # X X + + X . + & 8 r 7 % X X X @ % % @ X X X + X . X @ @ . . . . X X X X X % - % @ .   . X X - - o o 4 a d n Y T Y Y W W Y E E E W W W W W W W W Q Q Q Q Q Q Q Q Q Q Q Q Q Q Q Q Q Q Q Q Q ( ~ ~ ~ Q Q Q W ! ! ! ! ( ^ ^ ( ( ^ Q Q Q ~ ~ ~ ~ ~ W W W W W W W W W T T T T T W W W W T T T T E E E Y Y Y Y Y Y Y Y Y Y S S S S A A A A n n n n n n n ",
"*.*.&.&.;X;X;X;X;X;X;X;X:X:X:X:X<X<X<X<X<X<X<X<X<X<X<X<X<X4X4X4X4X4X4X4X4X0X0X0X4X4X0X0X0XqXqXqX0X0XqXqXqXqXqXqXqXqXqXqXqXqXqXqXqXqXqXqXqXqXqXqXqXqXqXqXqXqXqXqXqXqXqXqXqXqX7X4X7X7X7X4X4X4X2X2X2X2X4X4X4X4X2X,X2X2X2X2X,X,XV.V.:X<X>XV.V.:XV.g.#.#.*.%.%...f w 3 a S m f y e 4 - - - - 2 2 ; - - - - - - - - - ; ; - - % % ; 4 - % @ # % - ; 4 ; - - 4 3 - - - - - - % @ 4 w 4 8 7 4 ; - % % % ; ; - % % - - - - % % % # @ % 3 7 - % ; ; % % - % % - - - ; ; ; 2 2 - % # # % & & - - 8 r 4 # % < & 2 3 < # # & & # # + # # # # # & 2 2 2 - & & - 7 - + + X X % # # % % % % % @ % X . + @ + X + # & # + $ + + + + + & 3 8 4 & * # + + @ # + X + + @ + X X @ + . . . X X X X X X + % % % # @ @ @ % X X % % % w d n Y T Y Y Y E Y E E E W W W W W W W W Q Q Q Q Q Q Q Q Q Q Q Q Q Q Q Q Q Q Q Q Q ! ~ ~ ~ Q Q Q Q ! ! ( ! ( ( ( ( ^ ^ Q Q ~ ~ ~ ~ ~ ~ W W W W W W W W T T T T T T W W W W T Y Y Y E E E Y Y Y Y Y Y Y Y Y Y S S S S A A A A n n n n n n n ",
"*.&.&.&.;X;X;X;X;X;X;X;X:X:X:X:X<X<X<X<X<X<X<X<X<X<X<X<X4X4X4X4X4X4X4X4X0X0X0X0X4X0X0X0XqXqXqXqX0XqXqXqXqXqXqXqXqXqXqXqXqXqXqXqXqXqXqXqXqXqXqXqXqXqXqXqXqXqXqXqXqXqXqXqXqXqX7X4X7X7X7X4X4X4X2X2X4X2X4X4X4X,X,X,X2X2X2X,X,X,XV.V.>X>X>XV.g.&.*.%.@.&.$.#.{ y e Y W T m y 3 - 4 e ; - - ; 3 3 2 - - - ; ; ; ; - - - ; 3 - % % - 4 4 & + @ % - ; 3 3 ; ; ; ; - - - - % % # + ; 8 4 7 7 4 ; - % % % ; ; - % % - - - - % % % # @ % 3 7 - % - - % % - - - - - - - ; ; 3 - & # # % & & & 2 2 4 8 2 + & < < 2 2 & # & < < & # # # # # # % & 2 3 2 2 - - & 3 - + + + + & % % % % % % + + + + # % % + + & & # # # # + + + + + + & - - - 3 - @ X @ @ + @ @ @ # @ X X @ X . X X X + + + X X X @ % - - % # + % . . @ % % 4 y d A T Y Y Y Y Y E E E E W W W W W W W W Q Q Q Q ~ ~ ~ ~ ~ ~ ~ ~ ~ ~ ~ Q Q Q ! ( Q ~ ~ Q ^ ( ( Q Q Q ! Q Q Q Q Q Q Q Q Q ~ ~ ~ ~ W W W W W W W W W W W W T T T T T T T Y Y Y Y Y Y Y Y Y Y Y Y Y Y Y Y Y Y S S S S A A A A n n n d d n n ",
"&.&.&.&.;X;X;X;X;X;X;X;X:X:X<X<X<X<X<X<X<X<X<X<X<X<X<X1X1X4X4X4X4X4X4X0X0X0X0X0X0X0X0XqXqXqXqXqXqXqXqXqXqXqXqXqXqXqXqXqXqXqXqXqXqXqXqXqXqXqXqXqXqXqXqXqXqXqXqXqXqXqXqXqXqXqX7X7X7X7X7X4X7X4X2X2X2X4X4X4X4X2X,X,X,X,X,X,X,X,XV.V.>X>XV.V.V.g.%.#.@.,X@.R f w T @.*./ y ; # % ; 4 ; - - ; 3 3 3 ; 4 4 3 ; ; - - ; % - 4 4 3 - - - 4 - % @ @ % & - 4 ; - - - % % - - % % # X - 7 4 4 4 4 ; - % % - - - - % % - - - - % % % % @ % ; 4 - - - - % % - - - - - - - ; ; 3 & # # & - & % & 3 3 3 4 & + - 2 2 < 2 & # & 2 < & # # # # # # & 2 3 3 2 2 - - & 4 & + % % % & & & & & % % + + + % - - % + % & & $ $ # # X . + & + + % & & 4 8 & @ X @ # @ @ % @ # @ X X @ + X X X + @ @ + + X X + # % - % X   + - - o . % 4 4 a v Y T Y Y Y Y E E E E E W W W W W W W W W W Q ~ ~ W W ~ ~ ~ ~ W W W ~ Q Q ! ! Q ~ ~ Q ( / / ( ~ Q Q Q Q Q Q Q Q Q Q Q Q W ~ ~ W W W W W W W W W W W Y T T Y Y Y Y Y Y Y Y Y Y Y Y Y Y Y Y Y Y Y Y Y S Y Y S S S A A A A n n n d d n n ",
"&.&.&.;X;X;X;X;X;X;X:X:X:X:X<X<X<X<X<X<X<X<X<X<X1X1X1X1X1X4X4X4X4X4X4X0X4X0X0X0X0X0XqXqXqXqXqXqXqXqXqXqXqXqXqXqXqXqXqXqXqXqXqXqXqXqXqXqXqXqXqXqXqXqXqXqXqXqXqXqXqXqXqXqX4X4X7X7X7X7X7X7X7X4X4X4X<X<X4X4X2X2X,X,X,X,X,X,X,X>XV.V.,XV.g.V.>XV.%.@.@.:XT ; e ) #.^ T s 5 3 ; # - 3 - ; 2 ; - - 3 4 7 4 ; - - - - - % % - ; 4 ; - % - ; ; - @ @ % - 3 3 - - % % - - - % % % X - 7 4 3 3 3 ; - % % - - - - % % - - - % % % - % # % 3 4 ; - - - - - - - - & - - - ; ; - % # % 2 3 & # 3 8 4 3 3 - % 3 2 < < 2 & * & 3 2 & # * & # # & - 2 3 3 2 - - 2 & 4 & # % & % & & & & & & % @ + % - 4 - % @ % & & $ $ # + . . + * * * * * & 9 8 & @ X @ % % # % + # # + X @ @ X + + @ @ @ @ + X @ + X @ % @ X   X - : %   o - ; e a n Y Y Y Y W E E E E E E W W W W W W W W W W W W W W ~ W W W W W W ~ ~ ~ ~ ~ Q W ~ Q ( / ( Q ~ ~ Q Q Q Q Q Q Q ~ ~ ~ ~ W W ~ W W W W W W W W T T T T T Y T T Y Y Y Y Y Y Y Y Y Y Y Y Y Y Y Y Y Y S S S S S S S A A A A n n n d d n n ",
"*.&.&.;X;X;X;X;X:X:X:X:X:X<X<X<X<X<X<X<X<X<X<X<X1X1X1X1X4X4X4X4X4X4X4X4X0X0X0XqXqXqXqXqXqXqXqXqXqXqXqXqXqXqXqXqXqXqXqXqXqXqXqXwXqXqXqXqXqXqXqXqXqXqXqXqXqXqXqXqXqXqXqX4X4X4X7X7X7X7X7X4X4X4X2X2X<X<X4X<X2X,X,X,X,X,X,X,X,X>XV.V.<XV.g.V.>XV.%.@.%.^ 7 7 f T T e 4 - - - ; - - 2 - 2 2 ; - - 3 4 8 7 4 ; ; - ; ; ; - % % % - - - % 4 7 ; # @ @ % ; ; - % % - - % - % % % + % 4 4 - ; ; - - % % - - - % % % - ; - % % % - % % - 3 3 ; - - - - - - - - - % - - ; ; & & % - 3 3 2 % 3 8 3 2 3 - & 3 2 < < 3 < & < 3 2 * # & & # # & 2 2 3 3 2 - - 2 & 4 & % & & % & % % & & % % + X % & - & % % # + & # $ # $ + $ + * * * & * * 3 8 - % + # % % # @ @ % % @ + @ @ + + + @ @ @ + X X + X . X @ % @ o X X % % o   X 4 : 7 a n Y Y Y W Y E E E E E E E W W W W W W W W W W W W W W W W W W W W W W W W Q W ~ ~ Q ( Q Q ~ ~ ~ ~ ~ ~ ~ ~ ~ ~ ~ W W W W W W W W W W W W T T T T T Y Y T Y Y Y Y Y Y Y Y Y Y Y Y Y Y Y Y Y S S S S S S S S S A A A A n n n d d n n ",
"&.&.g.;X;X;X;X;X:X:X:X:X:X<X<X<X<X<X<X<X<X<X<X<X1X1X1X1X4X4X4X4X4X4X4X0X0X0XqXqXqXqXqXqXqXqXqXqXqXqXqXqXqXqXqXqXqXqXqXqXqXqXwXwXwXwXwXwXwXwXwXwXqXqXqXqXqXqXqXqXqXqXqX4X4X4X7X7X7X7X7X4X4X2X2X2X,X<X2X2X2X,X,X,X,X,X,X>X,X>XV.V.:XV.V.>X:X*.#.@.@.4 - a e - % ; 4 - + # - 2 - - ; 2 2 2 2 3 3 4 8 7 7 7 7 4 4 3 4 3 - % % % & - - 4 4 - % @ @ @ & - - % % - - % % @ % % + # ; 4 - - ; - - % % - - - % % % - ; - % % % - % % - 3 ; ; - & & - - - ; - - % & - ; 3 - & & - 3 3 2 2 2 4 3 & 2 - & 2 < < 2 3 < & < 5 2 * # & & * * < 2 2 3 2 2 & & - & 4 & # & - % & % % % & % % + + % & % + % & % + # * $ + + $ + + + * * * + + & 8 8 - @ @ % # @ X % - - @ X X X X + + + + + X X X X . . . o @ % % X   . % % . . % % % 7 f Y T Y Y Y Y E E E E E E W W W W W E E E W W W W W W W W ~ ~ W W W W W W Q W W W Q Q ~ W W W ~ ~ W W W W W ~ W W W W W W W W W W W W E T T T T T Y Y Y Y T T Y Y Y Y Y Y Y Y Y Y Y Y Y Y S S S m S S m S S A A A A n n n n n n n ",
"&.&.g.;X;X;X;X;X:X:X:X>X:X<X<X<X<X<X<X<X<X<X<X<X1X1X1X4X4X4X4X4X4X4X4X0X0XqXqXqXqXqXqXqXqXqXqXqXqXqXqXqXqXqXqXqXqXqXqXqXqXwXwXwXwXwXwXwXwXwXwXwXqX7XqX7X7X7X7X7XwXqXqX7X4X7X7X7X7X7X7X4X4X2X2X2X,X2X2X2X2X,X,X,X,X,X>X>X,X>X>XV.g.V.>X,Xg.#.@.@.T @ 4 4 o - ; ; - 3 3 3 2 2 2 2 2 2 2 3 5 5 4 3 3 4 7 8 8 7 4 ; 4 7 w 7 ; % % - ; 4 3 & % % # X % - - % % - - % % + & % + + - 3 & - - - - % - % - & % % % - - & % & & - & & & 3 2 - & % & - - & 2 - & % & & ; 3 2 & & - 2 2 3 3 3 8 3 & 3 3 < 3 & < 2 3 2 & 2 5 2 # $ & < * * 2 < 2 2 2 & & & & & 3 & & & & & & & & & & - & % + & & + + & - - + $ # $ . . $ * $ + * * + X X * 9 r 4 % @ @ @ X X - ; - % X X . . X X + + X X X X . . . . X X @ % . @ o   X % @   . X ; a A T Y Y Y Y Y E E E E E W W W W W E E E W W W W W W W W Q ~ ~ W W W E E Q W W W ~ ~ W W W W ~ ~ W W W W W ~ W W W W W W W W W W W E E T T T T T T Y Y Y T T T Y Y Y Y Y Y Y Y Y Y Y Y Y S S S m S m m m S A S A m n n n v n v n ",
";X;X;X;X;X;X;X;X:X:X:X>X<X<X<X<X<X<X<X<X<X<X<X1X<X1X1X4X4X4X4X4X0X0X0XqXqXqXqXqX0XqXqXqXqXqXqXqXqXqXqXqXqXqXqXqXwXwXwXwXwXwXwXwXqXqXqXqXqXqX7X7XqXqXwX8X7X7XqXqX7X7X7X7X7X7X7X7X7X7X7X4X4X4X4X4X4X4X4X2X2X,X,X,X,X>X>X>X,X,X,X>X4Xg.*.g.g.@.) Y 4 ; ; ; ; ; - % 2 - & & - ; ; ; - - - 2 3 4 5 5 4 4 3 3 4 4 7 w 7 4 ; ; 4 4 ; & @ % % - % % o X @ @ # # # # @ % & & * + $ + & 3 & & & & & & # & & & & & & & & & & & & & & & & < 2 2 & * & & 2 & & & & & & & 3 3 3 3 3 3 2 2 2 3 5 3 3 3 3 3 < < < < 1 5 5 1 5 0 1 1 < * & * * & * & 2 2 & & & 2 < & < & & & & & & < < < & & & # & * & * * * + * & & & * + + $ + $ $ $ $ $ + * & e 4 % + + + @ % - % # @ @ @ @ @ X X X X X + + + X X X X X X X X o X . . X o o o % . % e A A A Y S Y Y E E E E E Y E E E E W W W W W W W W ~ ~ ~ W W W W W W W W W ~ ~ ~ W W W W ~ ~ ~ ~ W W W W Q Q W W W W ~ Q W W W W W W W T W T T T T Y S S T T T T T T T T Y Y Y Y Y Y Y Y Y Y Y Y S m m m m S m m m n n n n n n n ",
";X;X;X;X;X;X;X;X:X:X:X>X<X<X<X<X<X<X<X<X<X<X<X<X<X1X4X4X4X0X0X4X0X0X0XqXqXqXqXqX0XqXqXqXqXqXqXqXqXqXqXqXqXqXqXqXwXwXwXwXwXwXwXwXqXqXqXqXqXqX7X7XqXqXwX8X8X7X7X7X7X7X7X7X7X7X7X7X7X7X4X4X4X4X4X4X4X4X4X2X2X,X,X,X,X,X>X,X>XV.V.g.*.g.,X,X@.Y e 7 4 ; ; ; ; ; ; - ; - # # - - - - 2 - - 2 2 3 3 4 4 4 3 3 4 4 7 7 4 4 ; ; ; 3 ; - % % % % % % @ @ @ @ # # # % % % # * * # $ # & 3 < < < & & & & & < & & & & & & & & & & & < < 1 < 2 1 < & 2 3 3 & 2 2 2 2 2 2 3 3 3 2 2 < < < < 3 < < < < < < < < < < 1 9 5 1 1 9 1 1 < < * * < < & < 2 2 & * & 2 < < < < < < < < # < < < < & * # * * * * * & & & & & * * & & * * * * * * * * * * 7 4 & @ + % % % - % @ @ @ @ @ @ @ @ @ @ @ @ @ @ X X X X X X X X X X X o o o o X X X % 7 f T T S S Y Y E E E E E E E E E E W W W W W W W W W W W W W W W W W W W W ~ ~ ~ W W W ~ ~ ~ ~ ~ W W W W Q Q W W W W ~ ~ ~ ~ W W W W E T W T T T T Y S S S S T T T T T T Y Y Y Y Y Y Y Y Y Y Y Y S m m m m m m m m m m n n n n n ",
";X;X;X;X;X;X;X;X:X:X:X>X<X<X<X<X<X<X<X<X<X<X<X1X1X1X4X4X0X0X0X0X0X0X0XqXqXqXqXqXqXqXqXqXqXqXqXqXqXqXqXqXqXqXqXqXwXwXwXwXqXqXwXwXqXqXqXqXqXqX7X7XqXqX8X8X8X8X7X7X7X7X7X7X7X7X7X7X7X4X4X4X4X4X4X4X4X4X2X2X2X,X,X,X>X,X,X,XV.g.g.g.V.g.%...n 4 - ; ; ; - - ; ; ; ; 3 ; - - ; 2 3 2 2 - - 2 3 3 3 3 4 4 3 ; ; 4 4 4 3 ; ; ; ; ; ; ; - - - % % % # # @ @ # # # # # & # # & # # & < 2 3 2 & & & & < < < 2 & & & & & & & < < 2 1 1 1 1 1 3 9 3 9 9 9 2 & < & & & 2 2 2 3 3 < < < < 3 3 < < < < < < < < < < 5 5 5 1 3 5 3 1 < < < < < < & < 3 < & & < 2 < 2 2 2 < < < < < < < & * * $ $ * * * & & & & & & * + * & 2 & $ + + + $ $ $ + + ; 9 4 * + % - % % % @ X @ @ @ @ @ @ @ @ @ @ @ # X X X X X X X X . X o + + + o o   X o % e T ^ A S Y Y Y Y E Y Y W W W W W E E E E E E W W W W W Y Y E E E E E E W W W W W W W W ~ W ~ ~ W W W W ~ W ~ W W ~ W ~ W W W W W W E T W T T T T Y S S S S S T T T T T Y Y Y Y Y Y Y Y Y Y Y Y Y S S S m m m m m m n n n n n n ",
";X;X;X;X;X;X:X:X:X:X>X>X<X<X<X<X<X<X<X<X<X1X1X4X1X4X4X4X0X0X0X0X0X0X0XqXqXqXqXqXqXqXqXqXqXqXqXqXqXqXqXqXqXqXwXwXwXwXwXwXqXqXwXwXqXqXqXqXqXqX7X7XqXqX8X8X8X8X7X7X7X7X7X7X7X7X7X7X4X4X4X4X4X4X4X4X4X4X2X,X2X,X,X,XV.,X,X>XV.V.V.V.>XO.A e 3 - ; 4 - - % % - - ; ; 3 2 2 2 3 3 3 3 2 - - - 2 3 3 3 4 4 3 ; ; ; ; 3 - ; 3 ; ; - - - ; - - % % @ + + @ @ # # # # # & # # & & & & < 2 3 3 < & & & & 2 2 2 2 - & & & & < < 1 3 5 5 5 5 3 9 9 9 8 8 9 1 & < & < 2 2 2 3 5 5 3 < < < 3 5 < < < < < < < < 1 5 5 5 5 3 3 5 < < < < < < < 1 < 2 3 < & & < 2 < 2 2 2 < < < < < < < < * $ $ $ * & & & & & & & * * $ * & & + + . . + $ + * * * & 9 8 & + % - % # @ X . X X X X + + @ @ @ @ @ # + + + + + + + + . X o o X X o o   X .   - d T Y Y Y Y Y Y Y Y Y W W W W E E E E E E E W W W W W W W W W W W W W W W W W W W W W W W W W W W W W W W W ~ W W W W W W W W W W E E T T T T T Y Y Y S S S Y Y Y Y Y Y Y Y Y Y Y Y Y S S Y Y Y S S S m m m m m m n n n n n n ",
";X;X;X;X;X;X;X;X:X:X<X<X<X<X<X<X<X<X<X<X<X<X4X4X<X1X4X4X0X0X0X4X0X0X0XqXqXqXqXqXqXqXqXqXqXqXqXqXqXqXqXqXqXwXwXwXqXwXwXwXwXwXwXwXqXqXqXqXqXqX7X7XqX7X7X7X8X8X8X7X7X7X7X7X7X7X7X7X4X4X4X4X4X4X4X4X4X4X4X,X2X,X,X,XV.,X,X>X>X,X>XV._ v 7 ; 4 7 4 - % % % % % - - ; ; - - - ; ; ; ; ; - - ; 3 4 4 4 4 4 4 3 ; ; ; ; - ; 4 4 ; - % @ % % % % % % + X + # # & & % % & # & & & 2 2 2 2 3 2 - & % % & 2 2 2 2 3 2 2 2 < 2 2 5 9 9 9 9 9 9 9 0 0 0 0 9 3 5 5 5 5 5 5 9 9 9 5 3 < < < 2 3 < < < < 2 2 2 2 5 5 5 5 3 5 5 5 < < < < < < 1 3 2 2 2 2 < < < 2 < < 2 2 2 2 < < < < < < * * * * 2 & & & & & & & # * * * * $ $ + $ + * & & & & & + 3 8 2 * & & & @ . . . X + + X + + + + @ @ @ + + + + + + + + + X o X . . . X @ X X . . % 7 v Q Y Y Y S Y Y Y Y W W W E E E Y Y E E W W W W W W W W W W W W W W W W W W W W W W W W W W W W W W W W ~ ~ ~ ~ W W W W W W W W E E W W T T Y Y Y Y T T Y Y D D S S Y Y Y Y Y Y Y Y S S S S Y S S S m m m m m n n n n n n n ",
";X;X;X;X;X;X;X:X<X<X<X<X<X<X<X<X<X<X<X<X<X4X4X4X1X1X4X4X0X0X0X0X0X0X0XqXqXqXqXqXqXqXqXqXwXwXqXqXqXqXqXqXwXwXwXwXqXqXwXwXwXwXwXwXwXqXqXqXqXqXqXqX7X7X7X7X8X8X7X7X7X7X7X7X7X7X7X7X4X4X4X4X4X4X4X2X4X4X4X2X2X,X,X,XV.>X>XV.,X,Xg.@.w 7 3 3 4 4 ; - @ % - - - - - ; ; ; - ; 3 3 2 2 ; ; ; 2 3 4 4 4 4 4 4 3 3 ; ; ; - - 3 4 3 - % @ o + % % % % # + # + # & % % % % & & & & 2 3 3 3 3 2 - - & - 2 2 4 3 3 9 9 5 3 3 3 5 9 0 0 0 0 9 9 0 i i p i 0 9 9 9 5 5 5 9 9 0 9 5 5 < < < < 3 < < < < 2 2 3 3 9 9 9 5 5 5 9 5 3 3 3 3 3 5 3 3 3 3 2 < < < < 2 2 2 2 2 2 2 2 2 < < < < & < 2 2 3 2 2 2 & & & & & & & & * $ $ + & & & & & & # # + 3 8 3 & + & % + X . . + @ + + + + + + + + + + + + + + + + + X X + + X . . . o % + o @ + % r W Y Y S S S Y Y Y E E E E Y Y Y Y E E E W W W W W W W W W W W W W W W W W W W W W W W W W W W W W W W ~ ~ ~ W W W W W W W W W E E W W T T Y Y Y E W W W T Y D S S Y Y Y Y Y Y Y S S S Y S Y S S S m m m m m n n n n n n n ",
";X;X;X;X;X;X:X:X<X<X<X<X<X<X<X<X<X<X<X<X<X4X4X4X1X4X4X4X0X0X0X0X0X0X0XqXqXqXqXqXqXqXqXqXwXwXqXqXqXqXqXwXwXwXwXwXwXwXwXwXwXwXwXwXwXwXqXqXwXqXwXwX8X8X8X8X8X8X8X8X7X7X7X7X7X7X7X7X4X4X4X4X4X4X2X2X4X4X4X2X2X,X,X,X>X>XV.V.,XV.X.A 4 7 7 3 - - ; ; % - ; 3 3 ; ; 3 3 3 3 3 4 4 4 3 4 3 3 3 3 4 3 3 4 4 4 4 4 3 3 ; - - - ; 3 ; - % + + + @ % % % & # # # & & & % % 2 & # 2 2 3 3 3 3 3 2 2 2 2 4 3 3 9 9 0 0 0 9 9 9 9 0 t k i t 0 0 i z z z z i 0 0 9 5 5 5 9 0 r 9 5 5 5 5 5 5 5 5 5 5 5 5 5 5 5 5 9 9 9 9 0 9 5 5 5 5 5 5 5 5 5 5 3 2 2 2 2 2 2 3 3 3 3 3 3 3 3 < < < < < < 2 3 9 3 3 1 < & * & < & & & & & & * * * # # # # # * * 2 9 3 & + + % + + + + # # # + # @ @ @ + + + + + + + + + + + X X % % % o . . . % o @ % o o 7 d Y Y S S S S Y Y Y Y Y Y Y Y Y Y D Y Y Y E E W W E E E E E E E E Y E Y Y Y E Y Y W W W W W W W W W W ~ ~ ~ Q W W W W W W W W E E W W T T T T E E T T T T T Y D D Y Y Y Y Y Y S S Y Y Y S Y S m m m m m m m n n n n n n n ",
";X;X;X;X;X;X:X:X<X<X<X<X<X<X<X<X<X<X<X<X<X4X4X4X1X4X4X4X0XqX0X0X0X0X0XqXqXqXqXqXqXqXqXwXwXwXwXqXqXqXqXwXqXwXwXwXwXwXwXwXwXwXwXwXwXwXwXqXwXqXwXwX8X8X8X8X8X8X8X8X7X7X7X7X7X7X7X7X4X4X4X4X4X2X2X2X4X4X4X2X2X,X,X,X,X>XV.V.>X*.Q 7 w w w 4 ; - - - - 3 7 7 7 4 4 4 3 2 2 3 4 4 3 3 8 4 3 3 3 3 3 3 3 4 4 4 4 4 4 3 ; - % - ; 4 ; - & % % + + + + % + # # & & & % % 2 2 # 2 2 3 5 3 3 3 3 3 3 3 3 9 9 9 0 0 0 0 0 0 9 0 0 k z z k 0 t z z z x x z 0 0 0 0 9 9 0 t k 9 9 9 9 9 0 0 0 9 9 9 9 8 8 8 8 5 9 0 0 0 0 8 3 5 9 5 9 5 5 5 5 5 3 2 < 2 2 2 < 5 3 5 3 5 5 5 5 5 1 1 1 < < < < 9 9 3 3 1 < < < 2 & + # & 2 & * + + + * & & 2 2 & & 3 3 & + + % # + @ # # % # # # # # # @ + + + . . + + + + + + X % - - % X . . . X + @ X o - e Y Y S m m m S Y S S Y Y Y Y Y Y D D D D D D E Y Y Y Y Y Y Y Y Y Y E E E Y Y Y Y W W W W W W W W W W ~ Q Q ~ W W W W W W W W E E W T T T T T E E T T T T W W T T Y Y Y Y Y S S S Y Y Y S S m m S m m m m m n n n n n n n ",
";X;X;X:X:X:X>X>X<X<X<X<X<X<X<X<X<X<X1X1X1X4X4X4X0X0X4X0X0XqXqXqXqXqXqXqXqXqXqXqXqXqXqXqXqXwXwXwXwXwXwXwXwXwXwXwXwXwXwXwXwXwXwXwXeXeXwXwXwXqXqXqX8X8X8X8X8X8X7X7X7X7X7X7X7X4X4X4X4X4X4X4X4X2X2X2X4X,X,X,X,X>X>X2X,X,X,Xg.4X@.4 8 y y w ; - ; 3 ; ; ; 4 4 4 4 4 3 4 4 4 ; - - ; 4 4 4 4 ; ; ; 4 4 4 3 ; ; - ; ; ; % % % % & - - - & * % * + + + + # # # # # & & & - & & < 2 3 2 2 3 5 9 9 5 9 8 9 0 9 9 0 z z k k 9 0 k x x z z z z z z x C C z z k 0 0 0 0 0 0 t 9 0 0 9 0 t z 0 t 0 0 r r 9 9 9 9 0 t t t r 0 5 0 0 0 0 9 9 5 5 5 3 3 3 5 3 5 5 9 5 5 5 5 5 5 5 5 5 5 5 9 9 9 9 0 9 5 3 2 < 1 2 & & < < < & & * # & & < < 2 2 < 2 2 2 3 & $ $ & $ + # & % % % # - - # @ + + # # X X X X X + + + . o % % o . . . . . @ % + X % 4 v m S n m Y T Y S Y Y Y Y S Y E S D Y E E E Y D Y Y Y E Y W W W Y Y W W E E E Y W W E Y Y E W W W W W W W W W W ~ W W W W W E E Y Y E Y Y D D D E E E E E E W W Y Y Y Y Y S m m Y Y Y Y S S S S S S S m m m m m n n n n ",
";X;X;X;X:X:X>X>X<X<X<X<X<X<X<X<X<X<X1X1X4X4X4X4X0X0X0X0X0XqXqXqXqXqXqXqXqXqXqXqXqXqXqXqXqXwXwXwXwXwXwXwXwXwXwXwXwXwXwXwXwXwXwXwXeXeXwXwXwXqXqXqX8X7X8X8X7X8X7X7X7X7X7X7X7X4X7X4X7X7X4X4X4X4X2X2X4X2X2X4X,X>X,X4X2X>XV.>XV.^ ; 7 w w 7 ; - ; ; - - ; ; 3 4 4 ; ; 4 4 4 ; - - ; 3 3 4 4 : ; - - ; 4 4 4 4 3 ; - % % % % % % % & & & * % * + + + + # # # # # & & & & & < 2 3 5 3 3 5 5 9 9 9 9 9 9 0 0 0 z z z z k 0 h x F C x x C h x F J F C x x k x z 0 0 z z k 0 0 0 0 0 k k 0 k t t t t 0 0 r 9 0 t 0 t k t 0 0 0 0 0 0 0 0 9 9 9 9 9 9 9 9 9 9 6 5 5 5 5 5 5 5 5 9 9 0 0 0 0 5 1 1 < < < & & < < < < & & & & & & & < < < < < 2 & 2 2 < * & & * & % % & & % # - % # @ + + + + + @ + X X X X . X X X X + @ % % % o X o X X X @ y n Y n n Y Y m S Y Y Y Y S Y E S D Y E Y Y Y D Y Y Y E Y W W W E E W W E E Y Y W W E E E E W W W W W W W W W W W W W W W W E E Y Y E Y D D D D Y Y Y Y E E E E Y Y Y Y Y S m m Y Y Y Y Y S S S S S S m m m m m n n n n ",
";X;X;X;X:X:X:X:X<X<X<X<X<X<X<X<X<X1X1X1X4X4X4X4X0X0X0X0XqXqXqXqXqXqXqXqXqXqXqXqXqXqXqXqXwXwXwXwXwXwXwXwXwXwXwXwXwXwXwXwXwXwXwXwXeXeXeXwXwXqXqXqXqX7XqXqX7X7X7X7X7X7X7X7X7X7X4X4X7X7X7X4X4X4X4X4X4X2X2X4X,X>X,X4X4XV.g.2X#.a 3 7 3 4 ; - - - ; - - - ; ; ; ; ; ; 4 4 4 ; ; ; ; 3 - ; ; : ; - - - ; 3 4 4 4 ; % # # # % % # % % % & & & * + + + # & # # # # & & & & < < 3 5 5 5 5 9 9 9 0 0 0 0 0 k k k x F C x z h z C J C x x J x C I I I J C C x x x x z x x x z z z z z z z k z z k k k 0 t t k z z k k k k 0 0 0 0 0 0 0 0 0 0 0 0 0 0 0 0 0 9 5 5 6 5 6 5 1 5 5 6 9 0 0 9 5 * < < < < < * * 1 < < < < < < < < < < < < < < < 2 & & 2 2 & & & & & & & % % # # # # # # + + + X + + + X X X . . + .   . @ - - - % X   . + @ o X 4 c Y m v m Y n S Y Y Y Y Y Y Y S D Y Y Y Y Y Y Y Y Y E Y W W W E W W E E E Y E W W W E E W W W W W W W W W W W W W W W W W E E Y Y Y D D D D D Y Y D D Y Y Y Y Y Y Y Y Y S m m Y Y Y Y Y S S S S S S S m m m m m m m m ",
";X;X:X:X:X:X<X<X<X<X<X<X<X<X<X<X1X1X1X1X4X4X4X4X0X0X0XqXqXqXqXqXqXqXqXqXqXqXqXqXqXqXqXwXwXwXwXwXwXwXwXwXwXwXwXwXwXwXwXwXwXwXwXwXeXeXeXwXwXqXwXwXqXqXqXqX7X7X7X7X7X7X7X7X7X7X4X4X7X7X4X4X4X4X2X2X4X2X,X2X,X>X>X,X,XV.g.,X[ 7 w 7 - - - - - - - - - - - ; ; ; ; ; 4 4 4 ; ; ; ; 3 % - - - - - ; ; % % - - ; - % # # # @ # # % % % & & & + + + # & & & & & & & < < < 2 3 5 5 9 9 9 9 9 0 0 k z z z z z x J J C M C x x G G J G G J I I I L 6.' I G J G G ' I x x J C C C F C x x x M x z z k k k k M F M x z z z k z z k k h h h 0 0 0 0 0 0 0 0 0 0 0 0 q 0 q 0 6 6 6 6 9 9 6 6 1 * < < < 1 < < < 3 3 < < < < < 3 < < < < < < < < 2 & * & 2 2 & * # # # & # # # # # # # # # + + X X X X X X X X + X . . . + % - - 4 % X X @ @ @ @ % y Y m n m S n S S Y Y Y Y Y Y S D Y Y Y Y Y Y E Y Y Y Y W W W E E W E E E E E W W W W W W W W W W W W W W W W W W W W W E E E Y Y Y D D D D D Y Y D D D D S S Y Y Y Y Y S S S Y Y Y Y Y S S S Y Y S S S m m m m m m m ",
";X;X;X:X:X:X<X<X<X<X<X<X<X<X<X<X1X1X1X4X4X4X4X4X0X0XqXqXqXqXqXqXqXqXqXqXqXqXqXqXqXqXwXwXwXwXwXwXtXwXwXwXwXwXwXwXwXwXwXwXwXwXwXwXwXwXwXwXwXqXwXwX7XqXqXqX7X7X7X7X7X7X7X7X7X4X4X4X4X4X4X4X4X<X,X,X2X,X,X,X>XV.V.,XV.,XV.%.n ; y 4 - - - - ; ; ; ; - - - ; ; ; ; ; ; ; - - - ; - - = - - = % - - : % % % % % % % % % % % # % % % % & & * * # # * * & & & & < < < 3 2 2 3 9 0 0 0 0 0 0 0 h z x x x x G I ' I G G I J J J I P L L P 6.6.2.6.0.0.6.' 6.L L 6.6.I I 2.J C C C x x z x x x x z z z z z x F F F F F F F x x x x z z k k k k k k k h h h h 0 0 0 0 0 0 0 0 0 0 0 0 6 6 1 1 1 1 1 1 1 1 1 5 3 < < < < 3 3 < < < < < < < < 2 & * * 2 2 & $ + + + $ + + $ $ # & & & # # + + X X X $ X $ $ X . X o o o o % % e 7 - @ X . X @ @ r n S n m S n S S S S Y Y Y Y S D D Y Y Y Y D Y Y Y W E W W W E E E E E W W W W W W W W W W W W W W W W W W W W W W W W E E E E E E S D S S S Y Y S S S S S S Y Y S Y Y Y Y S Y Y Y S Y S S S S S S S S S m m n n n n ",
";X;X;X:X:X<X<X<X<X<X<X<X<X<X<X1X1X1X1X4X4X4X4X0XqXqXqXqXqXqXqXqXqXqXqXqXqXqXqXqXwXwXwXwXwXwXwXtXtXtXwXwXwXwXwXwXwXwXwXwXwXwXwXtXwXwXwXwXwXqXwXwX8X8XqXqX7X7X7X7X7X7X7X7X7X4X4X4X4X4X4X4X2X,X,X,X2X,X,X,X>XV.V.>Xg.,XV.{ w ; e - - - - ; ; - ; ; ; ; ; ; ; ; ; ; - = % % - - = % ; - - % @ @ % - - - % % # # % % % % % % % % % % & & & * * * & & & & < < < 3 5 5 8 9 9 0 r k z k k k k z x x C G I L 6.6.' ' ' 6.6.6.2.2.0.9.8.0.0.9.t.9.9.8.9.9.9.9.0.2.2.6.0.6.P I I G C C x x z x x x M F J J F J J J J J J F x x x x x x x z x x x x x z k j h h h h h h h 0 0 0 0 0 0 0 0 0 q 6 6 1 1 1 1 5 5 3 3 < < < < < < < < < < < < < & & * * & 2 & $ X X X X X + + + # # # # # # # # + + + + $ X X X . o % @ X . X o 7 : & @ .   X # # 4 a m S m m S Y S m S Y Y Y S S D D Y Y Y Y D Y Y E W E W W W E E E E E E E W E W W W W W W E W W W W W W W W W W W E E E E E E E E D E S S S E E D S S S S S Y S S Y Y Y Y Y Y Y Y Y Y S S S Y S S Y S S S S n n n n ",
";X;X:X:X:X<X<X<X<X<X<X<X<X<X1X1X1X1X4X4X4X4X0X0XqXqXqXqXqXqXqXqXqXqXqXwXwXqXqXqXwXwXwXwXwXwXwXwXtXwXtXwXwXwXwXtXwXwXwXwXwXwXtXtXeXwXwXwXwXqXwXwX8X8X8X8X7X8X7X7X7X7X7X7X7X4X4X4X4X4X4X4X2X2X,X,X2X,X,X,X>XV.V.>XV.,X>XQ 3 ; 3 - ; - - ; ; - - ; ; ; ; ; - - - ; = % % % = - % % - - - % @ @ @ % - % % # @ @ @ # % % % % % % % % & & & * * & & & & & < < 3 5 9 0 0 0 0 t z z z x z x x x x G I ' 6.0.0.9.0.0.0.8.9.9.9.9.9.G.G.G.t.G.L.G.t.t.G.L.G.G.t.0.0.9.9.6.6.6.6.P I I J C x x M F J  .'  .' ' ' I J J J J J J J J J J G M F F F F M M x x x z k j k z k h k k h h h h h h h 0 0 0 0 6 6 5 5 3 3 3 < < < < < < & & & & < < * * & * & 2 < # + + X X X $ $ + # # # # # # # # # # + + + $ X X X o o o X X X X % o o + X X X % # % w v Y m n S Y S m S S Y Y m S D Y E E E Y D Y Y E W E W W W E E Y Y E E E E Y E W W W W E E W W W W W W W W E E E E E E E E E E E E E S S S E E E D S S S S Y Y Y Y S Y Y Y Y Y Y Y Y S Y Y Y Y S Y S S S S n n n n ",
":X:X:X:X:X<X<X<X<X<X<X<X<X1X1X1X1X1X4X4X4X4X0X0XqXqXqXqXqXqXqXqXqXqXqXwXwXqXqXqXwXwXwXwXwXwXwXwXtXwXwXwXwXwXwXtXwXwXwXwXwXtXtXtXwXwXwXwXwXqXwXwX8X8X8X8X8X8X7X7X7X7X7X7X7X4X4X4X4X4X4X4X4X2X2X2X4X,X,X,X>XV.V.>X2X,X,XY ; 4 % 3 3 - - ; - - - ; ; ; ; - - - - - - = % = - - - % @ @ % % @ @ @ @ @ + @ @ # @ # @ % % % # @ % % % % & & # & & & & < & < < 5 9 0 0 t 0 t t z x C F x x G G G K 2.8.9.9.9.t.t.9.9.9.9.t.t.t.t.G.L.H.H.H.H.H.H.H.H.H.H.H.G.H.L.G.t.7.0.9.9.6.' 2.L G N G J J I ' ' ' ' ' ' P I P ' ' 2.6.6.6.2.' P I I I I I I J G G J G G G G G G G M x x k k z z z k k k h 0 0 q 9 5 5 5 3 1 < < & & & & & * & < < $ * & & < 3 1 & $ $ $ + $ $ $ + + + + + + # # # + + + + + + + + + X . . o @ @ o o X o @ @ X . . % + 3 c Y m n S Y S m m Y Y S m S D Y E E E Y D Y E E W E W W W E E E E E E E E Y Y W W W W E Y W W W W W W W W E E E E E E E E E E E E E S S S E E E E Y S S S Y Y Y Y S Y Y Y Y Y Y Y Y S Y Y Y Y Y S S S S S n n n n ",
":X:X:X:X:X<X<X<X<X<X<X1X1X1X1X1X1X4X4X0X0X0X4X4XqXqXqXqXqXqXqXqXwXwXwXwXwXwXwXwXwXwXwXwXwXwXwXwXeXeXeXeXeXeXeXeXwXwXwXwXwXwXwXwXwXwXwXwXwXqXwXwX8X8X8X7X7X7X7X7X7X7XwX7X7X4X4X4X2X4X4X4X4X2X2X4X4X2X,X,X>XV.V.V.V.>XV.T ; 4 3 - 7 X % w ; - 4 % : ; ; : : ; ; 7 : ; - - ; : : : - % @ @ @ @ o X + + + + + + + + + @ @ # % # % % & # # & < 2 < < < < 1 5 9 0 t i z z F F M C J I J I L L L 2.8.9.t.t.t.N.G.H.H.G.H.H.H.H.H.H.K.`.`.W.W.H.H.H.H.W.W.W.W.`.`.W.H.t.7.6.7.8.0.6.2.6.0.6.L P P :.:.2.2.2.2.2.2.6.8.9.t.t.9.9.9.8.7.6.0.6.6.6.6.6.L H 2.2.L L P K K K K J J J G G G C C x x x j h 0 0 0 9 9 5 5 5 1 < < < & & & < < < & & & & 2 2 2 2 2 & + X + $ $ $ + + + + + + + + # # # + + + + + X X X X o + @ % X + @ o .     . # # + y E m m Y m m m m m m m m Y Y Y Y Y Y Y Y Y Y Y Y Y E E E Y Y Y Y E E E Y E E E E E E E E E E E E E E E E E E E E E E E E Y Y Y Y Y Y Y Y D D Y Y Y Y Y D Y Y Y Y Y Y Y Y S Y Y Y Y S S m m m m m m n n n n n n n ",
":X:X:X>X<X<X<X<X<X<X1X1X1X1X1X1X1X4X4X0X0X0X4X4XqXqXqXqXqXqXqXqXwXwXwXwXwXwXwXwXwXwXwXwXwXwXwXwXeXeXeXeXeXeXeXeXwXwXwXwXwXwXwXwXwXwXwXwXwXqXwXwXwXwX8X7X7X7X7X7X7X7X7X7X4X4X4X4X4X4X4X4X4X4X2X4X,X,X,X,X,X,X>X>XV.>X%.v ; 4 ; 3 % 7 e w 7 : : 7 ; - - ; - - - 4 4 : ; ; ; ; - - - % @ @ % % % @ + + + + + @ + + # # # % % % % & # # # 2 2 2 < < < 5 5 0 0 t i i z x C C F J I ' ' ' 2.6.6.7.9.t.t.N.N.M.H.W.K.H.H.H.H.H.H.H.W.W.Q.W.!.W.R.R.W.!.!.W.!.W.Q.!.H.N.t.t.t.t.t.9.8.8.9.7.6.:.>.<.7.7.7.8.r.t.t.t.t.t.t.t.t.t.t.t.r.r.9.8.8.8.8.7.6.:.6.6.2.:.:.:.:.:.:.:.L P P I K J G G C C x x j h 0 0 0 0 9 5 5 1 < < & * & & & & & & & & & 2 2 2 2 & # $ $ $ $ X X X + + + $ + + # # # # + + + + + X X X o + @ @ o + @ o X . . . # - # u T m m S m m m m m m m m Y Y Y Y Y Y Y Y Y Y Y Y Y Y Y Y Y Y Y Y E E E Y E E E E E E E E E E E E E E E E E E E E E E E E Y Y Y Y Y Y Y Y D D Y Y Y Y Y D Y Y Y Y Y Y Y Y S S Y Y S S S m m m n n n n n n n n n n ",
":X:X>X>X<X<X<X<X<X<X<X<X1X1X1X1X4X4X4X4X0X0X0X4XqXqXqXqXqXqXqXqXwXwXwXwXwXwXqXqXwXwXwXwXwXwXwXwXeXeXwXeXeXwXwXeXwXwXwXwXwXwXwXwXwXwXwXwXwXqXwXwXwXwX8X7X7X7X7X7X4X7X7X7X4X4X4X4X4X4X4X4X4X4X4X2X,X,X,X,X,X,X,X,X,X,X@.a 4 ; @ ; ; f y - 7 4 - 7 ; & % - - % - ; ; ; ; ; : : - - - % % % % % % @ + + + + + + o + # & - % & % & & # # 2 2 2 5 3 5 5 9 0 k z z z z z M C J I ' 6.0.0.0.0.0.9.t.G.G.H.H.H.H.W.W.W.W.W.W.W.W.W.W.W.W.Q.Q.Q.W.Q.W.W.!.!.!.!.W.Q.W.R.H.H.H.H.H.H.M.G.M.G.t.t.w.w.t.t.t.r.t.t.G.H.H.H.H.l.l.G.G.l.G.y.t.t.t.t.t.t.t.t.t.9.8.8.7.7.7.6.6.7.7.6.6.6.2.2.L P I J J G G C C z k k 0 0 0 9 5 5 < < & & & & # & & & & & 2 2 2 2 < & & & # + . X + X + + + # # # # # # # + + + + X X X o + @ % o @ @ o X X . X # 2 - r Y m S m m m m m m m m m S S S S S S S S S m S S S S Y Y Y Y Y Y E E Y E E E E E E E E E E E E E E E E E E E E E E E E E Y Y Y Y Y Y Y E D D Y Y Y Y D D Y Y Y Y Y Y S S S S Y Y S S m m n n n n n n n n n n n n ",
":X:X>X<X<X<X<X<X<X<X<X1X1X1X1X1X4X4X0X4X0X0X0X4XqXqXqXqXqXqXqXqXwXwXwXwXwXwXwXqXwXwXwXwXwXwXwXwXwXwXwXeXeXwXwXeXwXwXwXwXwXwXwXwXwXwXwXwXwXqXwXwXwXwX8X7X8X7X7X7X7X7X7X7X4X4X4X7X4X4X2X2X4X4X4X,X,X,X,X,X,X,X,X>XV.g.[ e 7 ; X w T Y w @ - 4 - - : & % % % % % - - - - ; 4 4 ; - - - - % % @ o X + + + + X X o o # @ # % % * & & & 2 2 5 5 5 9 0 0 0 k z x C C C F J J I ' 0.0.9.t.t.t.t.G.H.H.H.H.H.R.H.W.`.'.!.W.W.Q.W.Q.W.W.W.'.'.[.'.'.Q.Q.Q.Q.W.W.Q.Q.Q.!.W.W.H.H.H.R.H.H.H.W.H.H.H.H.H.H.H.N.y.t.t.y.M.H.H.H.H.H.H.H.H.H.H.H.H.H.H.N.M.H.H.N.N.y.t.t.t.t.t.t.r.r.8.8.8.7.7.6.6.2.L L P I J C x z z k h 0 9 9 5 5 < < < & # & & & & & & 2 2 2 < < < < & $ + X + + + + # # # # # # # # # + + @ @ o o o @ @ @ @ @ @ @ o X X X # 3 - r m S Y n m m m m m m m m m m m m m m m m m m S S S S S S Y Y Y Y Y E Y Y E E E E E E E E E E E E E E E E E E E E E E E E Y Y Y Y Y Y Y E E E Y Y Y Y D D Y Y Y Y Y S m m m S S S S S m m n n n n n n n n n n n n ",
":X<X<X<X<X<X<X<X<X<X1X1X1X4X4X4X4X4X4X0X0X0X0X4XqXqXqXqXqXqXqXqXwXwXqXqXwXwXwXwXwXwXwXwXwXwXwXwXeXeXeXeXeXeXeXeXwXwXwXwXwXwXwXwXwXwXwXwXwXqXwXwXwXwXwX8X8X7X7X7X7X7X7X7X4X4X7X7X7X4X,X,X2X4X4X,X,X,X,X,X>X>XV.V.%.@.T 4 4 4 ; A @.Y r 4 % 3 7 - 4 - % - - - - ; - - - 3 4 4 - & % % % % @ + X . + + + + + X o o @ # # # # * & & < < 5 5 5 9 0 0 k z z M F J I I P P L 6.0.9.k.k.G.G.N.H.H.W.W.W.R.!.!.!.!.Q.'.Q.Q.Q.Q.Q.Q.Q.Q.Q.Q.'.[.[.[.'.Q.Q.'.Q.Q.Q.'.'.'.Q.W.W.!.W.R.W.!.W.!.!.W.W.!.W.!.!.W.R.M.y.M.M.R.!.R.R.H.H.H.H.H.H.M.H.R.H.M.M.R.R.R.R.M.M.M.M.M.M.y.y.y.t.t.t.t.t.8.8.7.7.6.:.:.L J J C x x z h 0 0 0 5 5 3 2 & # & & & & & < < < 2 < < < < & & * + + + + # # # # # # # # # # # + @ @ @ + o + @ @ % % @ @ + X . . @ 3 - r m S Y n m m m m m m m m m S S S S S S S S S Y S Y Y Y Y Y Y Y Y Y Y Y Y E E E E E E E E E E E E E E E E E E E E E E E E E E Y Y Y Y E E Y Y E Y Y D D D Y Y Y Y S m m m m m Y Y S S m m m m m m n n n n n n n n ",
"<X<X<X<X<X<X<X<X1X1X1X1X1X1X4X0X4X4X4X0XqXqX0X0XqXqXqXqXqXqXqXwXwXwXqXqXwXwXwXwXwXwXwXwXwXwXwXwXeXeXeXeXeXeXeXeXwXwXwXwXwXwXwXwXwXwXwXwXwXqXwXwXwXwXwX8X8X7X7X7X7X7X7X7X4X4X7XwX7X2X,X,X2X4X4X,X,X,X,X,XV.V.V.V.g.{ d ; ; ; 4 Y _ n d a % - w ; 4 ; - ; 4 4 3 4 ; ; ; 3 ; - % @ X + @ @ @ @ + + + + + + @ @ @ @ + # + # # * < 3 1 5 9 9 9 0 k z M M C J I I ' ' 6.6.0.9.t.G.G.G.H.H.H.H.W.W.W.!.!.!.Q.!.Q.Q. XQ.Q.Q.'.Q.Q.Q.Q.Q.Q.'.[.[.[.[.'.'.[.[.[.[.[.[.[.[.Q.Q.Q.!.!.!.!.!.!.!.Q.!.Q.!.Q.!.Q.!.!.!.R.R.R.R.!.R.R.R.R.H.R.R.P.P.Y.P.P.P.P.Y.P.P.P.P.P.P.P.M.M.M.M.M.M.M.M.N.t.t.t.9.8.7.7.<.L I J G G C x k h 0 0 5 5 2 < & & & & & & < < < < < < & < 2 2 2 # # # # # # # # # # # # + # # # # @ @ @ o o @ o % @ + + + o X . @ - % u Y m Y n m m m m m m m m S Y Y Y S S S S S S Y Y Y Y Y Y Y Y Y Y Y Y Y Y E E E Y Y Y Y Y E E E E E E E E E E E E E E E E E E Y Y Y Y E E E E E Y Y D S S Y Y Y Y S m m m m m S S S m m m m m m m m m n n n n n n ",
"<X<X<X<X<X<X<X<X1X1X1X1X1X1X0X0X4X4X0X0XqXqX0X0XqXqXqXqXqXqXwXwXwXwXwXwXwXwXwXwXwXwXwXwXwXwXwXwXeXeXeXwXeXeXeXeXwXwXwXwXwXwXwXwXwXwXwXwXwXqXwXwXwXwXwX8X7X7X7X7X7X7X7X4X4X4X7XwX7X2X,X,X2X4X2X,X,X,X,X,X>XV.V.V.%.S w ; ; ; - y a d d e - % ; 3 4 ; - 4 8 7 4 4 4 4 3 ; ; - % @ X X @ + X + @ # + + + + @ @ @ @ + # # & & < 5 5 9 0 0 0 0 k x F J J I I L 2.2.6.7.7.t.N.H.H.H.H.H.H.H.W.!.!.!.!.Q./. XQ.Q./. X/.^.Q.^.Q.^./.|. X[.[. X X X X[.[. X X X X X X X X[. X X!.!.^.Q.!.!.!.Q.Q.Q.!.!.Q.!.Q.^.Q.!.!.Y.Y.!.Y.Y.P.P.P.Y.P.P.P.Y.P.P.P.P.P.P.P.P.P.P.P.P.P.P.P.P.P.P.M.M.M.y.y.t.t.w.w.7.7.6.:.P K K J x x k k 0 0 9 5 3 2 < < < < < < < < & < 2 2 2 2 2 2 & & % # # # # # # + + + + + # # % % @ @ + o o o o X X X @ @ o X + # + u E m m m m m m m m m m m S S S S S S S S S S S Y S S Y Y S S Y Y Y Y Y Y E E Y Y Y Y Y Y E E E E E E E E E E E E E E E E E E E Y Y Y Y E E E E Y Y D S S Y Y Y S S S S S m S S S S m m n m m m m n n n n n n n n ",
"<X<X<X<X<X<X<X<X1X1X1X1X1X0X0X0X4X4X0XqXqXqXqX0XqXqXqXqXqXwXwXwXwXwXwXwXwXwXwXwXwXwXwXwXwXwXwXwXeXeXeXwXwXwXeXeXwXwXwXwXwXwXwXwXwXwXwXwXwXqXwXwXwXwXwX7X7X7X7X7X7X7X4X4X4X4X7X8X7X2X,X,X,X4X2X,X,X,X,X,X,X>X>X>X_ 7 % 3 8 7 - 4 4 n f - - ; - ; 4 ; ; 7 w w 7 4 3 ; ; ; ; - % % + @ @ + X X @ @ + + + + @ @ @ @ + + # * < 1 5 9 0 k k k z x J I I P L :.2.2.6.6.7.w.N.M.H.H.H.H.R.!.!.!.!.!.^.^./. X X/./. X X X/./././././. X X X X X X X X X X X X.X.X X X X X X X XQ.Q.^.Q.!.Q./. X/.^.Q.Q./.^.~.~.!.!.!.!.!.!.Y.Y.P.P.P.Y.Y.Y.I.I.I.I.I.P.P.U.U.U.P.P.P.P.P.P.P.P.P.P.P.y.y.M.y.e.e.w.w.q.7.7.:.:.L P K G x x z k 0 0 0 9 9 < < < < < < < < & < 2 2 2 2 2 2 & & & & % # # # # # + X X + # & % % @ @ + o o o . . . X @ % @ + . X X y W n n m m m m m m m m m m m S S S S S S m m m S S S Y Y S S Y Y Y Y Y Y E E Y Y Y Y Y Y E E E E E E E E E E E E E E E E E E E Y Y Y E E E E E Y Y D S S S S Y S S S Y Y m m S S S m m n m m n n n n n n n n n n ",
"<X<X<X<X<X<X1X1X1X1X4X0X0X0X0X0X4X4X4X0X0XqXqXqXqXqXqXqXqXwXwXwXwXwXwXwXwXwXwXwXtXtXwXwXwXwXwXwXwXeXeXeXeXeXeXeXtXtXtXtXeXeXeXeXwXwXwXwXwXwXwXwXwX8XwX7X7X7X7X7X7X7X7X4X4X4X7X7X7X7X4X4X4X4X,X,X,X,X,XV.*.V.2XV.f 4 % 4 A n ; ; 3 e w - # 3 8 4 4 4 4 4 3 3 3 3 3 3 ; - # # # # # # + @ @ + @ + + + + + + + X o + + + # < 1 0 0 k z x C F J ' ' L 2.2.2.2.7.8.7.t.t.M.M.R.!.!.Y.!.!.!.!.!.!.!.!././././././.^.^. X(.(.(.(.(.(. X X X X X X X X X X X X X X X X X X(./.(. X(./.(./.(././././././.^./.~.~.~.~.~.~.!.!.~.~.!.!.!.U.U.I.U.U.U.P.P.P.U.U.U.U.U.P.P.P.P.I.I.P.P.P.P.x.y.e.e.e.e.w.q.q.7.7.:.:.:.L P J C x z k 0 0 0 9 5 1 1 1 < < < 1 1 < & & & < < & 2 & & # # # % & # # # # + + + + + o @ @ % % % % X X X o o o o + + @ # y Y c m n m m m m m n n n m m m S Y Y Y Y S S S S S S Y Y S S Y Y Y Y Y Y Y Y E E E E E E E E E W W W E E Y E E E Y Y Y Y E E Y E Y E E Y D Y Y E E Y D S S S S S S S Y Y S S S m m m m m n n n n n n n n c c v v ",
"<X<X<X<X<X<X1X1X1X1X4X0X0X0X0X0X4X4X4X0XqXqXqXqXqXqXqXqXqXwXwXwXwXwXwXwXwXwXwXwXtXtXwXtXwXwXwXwXwXwXeXeXeXeXwXwXeXeXeXeXeXeXeXeXwXwXwXwXwXwXwXwXwX8X8X7X7X7X7X7X7X7X7X4X4X4X7X7X7X7X4X4X4X4X,X>X,X,X2X>Xg.>Xg.O.e 4 - w ) O.f 4 3 8 4 - % 2 3 ; 3 3 3 3 3 ; - - # @ % % # @ % % # # # @ @ @ @ + + + + + + o X + # + # * 1 6 0 k z x C J I P ' 6.6.7.8.7.7.w.t.t.t.y.M.M.Y.Y.Y.Y.!.!.!.!.!.!././././././././././.(. X(.(.(.(. X X X X X X X X X X X X X X X X X X X(.(.(.(.(.(.(.(.(./././././././././.~.~.~.~.~.~.~.~.~.~.!.U.U.U.U.U.U.U.U.U.I.U.U.I.I.P.P.P.P.P.P.P.P.P.P.P.P.P.P.y.e.e.e.w.w.q.7.>.>.:.:.P K G G x z z k 0 0 9 9 5 1 1 1 < < < < & & & 2 2 2 2 2 & # # # # # # # # # + + + + X X @ % % % + o X X o o o o + + @ + # y Y v m n m m m m m n n n m m m S Y Y Y Y S S S S S S Y Y S S Y Y Y Y Y Y Y Y Y E E E E E E E E E E E E E Y E E E Y Y Y Y E E E Y Y Y Y E D D Y Y Y Y D S S S S S S S Y Y S S m m m m m m n n n n n n n n c c c c ",
"<X<X<X<X<X<X1X1X1X1X4X0X0X0X0X0X4X4X4X0XqXqXqXqXqXqXqXqXwXwXwXwXwXwXwXwXwXtXwXwXtXtXtXtXtXtXwXtXwXwXeXeXeXeXeXwXeXeXeXeXeXeXeXeXwXwXwXwXwXwXwXwX8X8X8X8X7X7X7X7X7X7X7X4X4X4X4X7X7X7X4X4X2X2X,X>X4X4X2XV.V.,X%.W 4 - 4 a ) [ y - 3 ; ; ; 3 3 3 3 3 3 3 3 3 3 ; ; - ; ; - - % # % # # # @ @ @ @ + + + @ @ + @ @ @ % & & < 1 0 k z x C I P L 2.6.6.7.7.r.r.w.t.y.y.y.M.M.P.Y.Y.Y.Y.!.!.!.!.!.^././. X X X X X X X X X X X X X X X X X X X X X X$X$X X X X X X X X X(.(.(.(.(.(.(.(././././././././././.~.~.~.~.~.~.~.~.~.~.~.~.!.U.U.U.U.U.U.U.U.U.U.U.U.U.U.P.P.P.I.I.P.P.P.P.P.P.P.P.P.y.y.y.e.e.w.q.<.<.<.:.:.P J G G C x z k h 0 0 0 6 1 1 1 < < < & & & 2 2 2 2 2 & # # # # # # # # # + + + + . X + @ % @ o X X X X o o @ % % + + # y m c n n m m m m m m n n m m S Y Y Y Y Y S m m m S S S S S S Y Y Y Y Y Y Y Y Y E E E E Y Y Y Y Y Y Y Y Y Y Y E E Y E Y Y E E E Y Y Y Y Y D D Y Y Y D S S S S S S S S S S S m m m m m m m n n n n n n v n c c c c ",
"<X<X<X<X<X<X1X1X1X1X0X0X0X0X0X0X4X4X0X0XqXqXqXqXqXqXqXwXwXwXwXwXwXwXwXtXtXtXtXtXtXtXtXtXtXtXtXtXwXeXeXeXeXeXeXeXwXwXwXwXwXwXwXwXwXwXwXwXwXwXwXwXwXwX8X8X8X7X7X7X7X7X7X4X4X4X4X7X7X7X4X4X2X,X,X>X,X,X>Xg.V.,X@.f 7 % e S T a - 8 w ; - 3 3 3 3 3 - ; 3 3 3 4 4 4 4 4 4 3 ; - # @ @ # # @ + @ @ + # + + + @ @ @ @ % & & < 6 0 z C G G P L 2.6.6.6.7.8.t.t.t.y.y.M.P.P.P.Y.Y.Y.Y.!.^.^.^././././.=X X X X X X X X X X X X*X*X*X X X X X X X X X X X X X X X X X X X=X(.(.(.(.(.(.(././././././././.^./.^./.^.~.~.~.~.~.~.~.~.~.~.~.U.U.~.U.U.U.U.U.U.U.U.U.U.U.U.U.I.I.I.I.P.P.P.P.P.P.y.y.y.y.e.e.w.q.<.<.<.>.:.P K J G G x x z k h 0 0 0 6 6 1 1 < * * * & & < < 3 2 & # # # # # # # # # # + + + X X X o o o o X o X X X o @ % % X + + u n f n v m m m m m m m m m m S Y Y Y S S m m m m m m m m S S Y Y Y Y Y Y Y Y Y Y Y Y Y Y Y Y Y Y D D D D D D Y Y Y Y Y Y Y Y D D D Y Y Y D D Y Y Y D S S S Y Y S S S S m m m m m m m n n n n n n n n v v c c c c ",
"<X<X<X<X<X<X1X1X1X1X0X0X0X0X0X0X4X4X0XqXqXqXqXqXqXqXwXwXwXwXwXwXwXwXtXtXwXtXtXtXtXtXtXtXtXtXtXtXeXeXeXeXeXeXeXeXwXwXwXwXwXwXwXwXwXwXwXwXwXwXwXwXwXwXwXwX8X8X8X8X7X7X7X4X4X4X4X7X7X7X4X4X2X,X,X>XV.V.V.V.>X>X{ 7 w ; a S n y e A s w 2 3 3 - - ; - ; 2 3 3 4 4 4 2 2 3 2 - - % - @ # # + + + + + # # + + # @ % % % & & 1 0 k F J J P L :.6.6.7.7.w.t.y.M.M.M.M.R.P.Y.Y.Y.!.!.!.!././.Q./././.=X$X X X X X X X X X X$X*X*X*X*X*X*X X X X X X X X X X X X X*X*X*X=X=X=X=X=X(.(.(.(././././././././././.(.^././.^.^.^.~././.^.~.!.~.~.~.~.U.~.U.U.U.U.U.U.U.U.U.I.U.I.I.I.I.I.P.P.P.P.P.y.y.y.y.e.e.e.q.q.<.<.>.:.:.K K G G G x x j k k 0 0 0 9 5 1 < * # $ # & % & 3 3 2 & & % # # # # # # # # # + + X X . . X o @ @ o X X o @ % % + # # r v c m v m m m m m m m m m m S S Y Y m m m m m m m m m m S S S Y Y Y Y Y Y Y Y Y Y Y Y Y Y Y Y Y Y Y Y Y D D D D Y Y Y Y Y D D D Y Y Y Y D D Y Y D D S S S Y S S S m m m m m m m m n n n n n n n n n n n v v v v ",
"<X<X<X<X1X1X1X4X0X0X0X0X0X0X0X0X0X0X0XqXqXqXqXqXwXwXwXwXwXwXwXtXtXtXtXtXtXtXtXtXtXtXtXtXtXtXtXtXeXeXeXeXeXeXeXeXeXeXeXeXeXeXeXeXwXwXwXwXwXwXwXwXwXwXwXwX8X8X8X8X7X7X7X4X4X4X4X7X7X4X4X2X2X2X,X>X>X>X2X4X,X*.Q - 7 4 y e w f f f y 8 2 3 3 3 3 5 5 5 8 5 5 5 5 4 3 3 3 2 - # # # # @ # + + + + + # # # + # # % % % & 2 5 0 x J ' L :.6.6.7.7.9.t.t.t.M.M.M.M.P.Y.Y.Y.Y.Y.!.!.!.!././././././.$X$X X X X X X X X X*X*X*X*X*X*X*X*X X X X X X X X X*X*X*X*X*X*X*X*X=X=X=X=X=X=X(.(.(.(.(.(.(./././.(.(././././.^./.^./././.^./.^.~.~.~.~.~.~.!.~.~.U.~.~.~.~.U.I.I.I.I.I.I.I.I.I.P.P.P.P.P.P.x.y.e.e.w.q.<.<.<.>.:.P P K J G G x x x k h 0 0 0 9 5 < & # $ + # # # 2 2 2 2 2 - & & # # # # # # # # @ o . . . . @ % @ + X X X o @ # # - % r v v S n n m m m m m m m m m S S S S m m m m m m m m m m m S S S Y Y Y Y S Y Y Y Y Y Y Y D D D D D Y Y Y D D D D D D Y Y D D D D S Y D D D D D D D S S S Y S S S m m m m m m m m n n n n n n n n n n n n c v v v ",
"<X<X<X<X<X1X1X1X0X1X0X0X0X0X0X0X0X0XqXqXqXqXqXqXwXwXwXwXwXwXwXwXwXtXtXtXtXtXtXtXtXtXtXtXtXtXtXtXeXeXeXeXeXeXeXeXeXeXeXeXeXeXeXeXwXwXwXwXwXwXwXwXwXwXwXwXwX8X8X8X7X7X7X4X4X4X4X7X4X4X2X2X2X2X,X,X2XV.>XV.%.{ n 3 7 4 e 4 - y y 3 5 3 2 3 5 w e w w w w w 5 4 3 3 5 3 3 - # # # # # @ # + + + + + # # # + # % % % % & 5 0 z F  .' 2.6.7.8.8.t.t.y.y.y.M.H.P.M.P.Y.Y.Y.T.!.^.^.^.Q./././. X X$X$X$X X X%X%X%X%X%X%X*X*X&X&X&X&X*X*X*X*X*X*X*X*X*X*X*X*X*X*X*X*X*X*X*X=X=X=X=X=X=X=X X(.(.(.(.(.(.(.(.(. X/. X/././././././././.^.^.!.!.~.!.~.~.~.~.~.~.~.~.~.!.!.I.Y.~.!.!.Y.Y.Y.Y.P.P.P.P.P.P.y.y.e.e.w.q.<.<.>.:.:.:.P K J G G G x x z k k 0 0 9 5 < & # + + + + # & - 2 3 2 2 & # # # # # # # # @ o X . . o @ % % + X X . X o @ # - # r c c S n n n m m m m m m m m m S S m m m m m m n n n n m S S Y Y S Y Y Y m S Y Y Y Y Y Y S S S S S S S S Y Y D D D D D D D D D D S Y Y Y S Y D D D S S S S S S S m m n n m m m n n n n n n n n n n n n n c c v v ",
"<X<X<X<X<X1X1X1X1X1X0X0X0X0X0X0X0X0XqXqXqXqXqXqXwXwXwXwXwXwXwXwXwXtXwXtXtXtXtXtXtXtXtXtXtXtXtXtXeXwXwXeXeXeXeXeXeXtXtXeXeXeXeXeXwXwXwXwXwXwXwXwXwXwXwXwXwX8X8X8X7X7X7X4X4X4X4X7X4X4X,X,X4X4X,X,X2X*.#.O./ A a 7 w ; y e 4 8 8 4 w w 5 4 4 5 4 3 3 3 3 3 3 2 2 2 # # + + + + # - # @ # # + + + + # # + + # % % * & < 9 0 z J ' 6.:.7.7.r.t.t.y.M.M.M.P.Y.P.P.P.Y.Y.Y.T.T.^.^.^.Q././.Q./. X X$X$X%X$X%X%X%X%X%X%X*X&X&X&X&X&X&X*X*X*X&X*X&X*X&X*X*X*X*X*X*X*X*X*X*X*X=X$X$X$X$X=X=X=X=X(.$X$X(.(.(.(.(.(./././././././././././.^.^.~.~.~.~.~.~./.~.~.~.^.~.~.!.I.!.Y.!.!.Y.Y.I.Y.P.P.P.P.P.P.y.y.e.e.w.q.q.<.<.<.:.:.K K H G G G C x x z z k 0 9 9 5 < # # + + $ + # & 2 3 2 < & # # # # # # # # + o X X X o @ % % @ X . . . X + + @ # w f f n v n n n m m A m S m m m S S m m m m m m n n n n m S S S Y S Y Y Y m S Y Y Y Y Y Y S S S S S S S S Y D D D D D D S S D D D D S Y S S Y D Y D S S S S S S m m m n n m m m m n n n n n n n n n n n n c c v v ",
"<X<X<X<X<X4X4X4X4X4X4X0X0XqXqXqXqXqXqXqXqXqXqXqXwXwXwXwXwXtXwXwXwXwXwXtXtXtXtXtXtXtXtXtXtXtXfXtXtXtXtXtXtXeXeXtXtXtXtXtXtXtXtXtXeXeXeXwXwXwXwXwXwXwXwXwX8X7X7X7X8X7X4X4X4X4X4X4X2X2X,X,X4X4XV.%.^ A r ^ A n [ % 4 w e w w r y y 4 - - 4 5 2 & 2 & & & & & & & & # # # # % & - - % % # + + + + + X @ + # & & & & < 1 6 h x I 6.0.<.<.q.w.t.y.y.M.M.P.P.Y.Y.Y.Y.!.!.!.!.Q.Q.Q.^./././././. X X$X$X*X*X%X X X X%X%X%X%X*X&X&X&X&X&X%X%X*X%X*X*X&X*X&X*X&X*X&X*X&X*X*X*X*X*X*X*X$X=X$X$X=X=X=X=X=X=X=X=X(.(.(.(././.(.(././././././.^.^.^.^.^.^./.~.^.^.^.^.^.^.~.~.!.!.!.Y.I.I.I.I.P.P.P.P.P.P.P.P.y.e.e.w.q.q.<.>.>.:.L K J G G G N x x x x k 0 6 9 5 < * * < & $ # # # & < < < & & & & & & % + + + X X X X + + + X @ @ @ X X X @ . - @ # y v f d n n n A m A m n n n m m m m m m n n m m m m m m m m m m m m m m Y Y Y S S S Y Y S S S S S S S S S S S S D D S S S S S S S S S S S S S S S S S S m m m m m n n n n n n n n m m m v v n n n v v v v v v v ",
"<X<X<X1X4X4X4X4X4X4X4X0XqXqXqXqXqXqXqXqXqXqXqXqXwXwXwXwXwXtXtXtXwXwXtXtXtXtXtXtXtXtXtXtXfXfXfXtXtXtXtXtXtXtXtXtXtXtXtXtXtXtXtXtXeXeXeXwXwXwXwXwXwXwXwXwX8X7X7X7X7X7X4X4X4X7X4X4X2X4X4X>X%.O.Q n O.....#.Q _ W w 4 7 7 7 7 7 7 7 r 3 & 3 8 4 3 3 2 2 - & % % % % # # # # & & 2 2 % % # + + + + + @ @ # # & & < < 1 6 q j G P 6.7.7.q.w.y.y.M.M.M.P.P.P.Y.Y.Y.Y.!.!.!.!.Q.Q.Q./././././. X X X$X$X*X*X*X.X X%X%X%X%X%X*X&X&X&X&X&X%X%X%X%X*X*X*X&X&X&X&X&X&X&X&X*X*X*X*X*X$X$X$X$X$X$X=X=X=X=X=X=X=X=X(.(.(.(././.(.(.^./././././././.^.^.^.^./.^.^./.^.^.^.^.~.~.!.!.!.Y.I.I.I.I.P.P.P.P.P.P.P.M.y.e.e.w.w.q.<.<.>.:.L H H G G G G N x x x z 0 9 9 9 5 < $ $ * $ * * * & < < < & & & & & & % + + + X X X X + X X + @ # @ X X X @ . % # % r d d n n n n n A A n n n m m m m m m m n n m m m m m m m m m m m m m m Y S Y S S S S Y S S S A S S S S S S S S D D S S S S S S S S S S S S S S S S D D m m m m m n n n n n n n n n n m v v n v n n v v c c c c ",
"<X<X<X1X1X4X4X4X4X4X4X0XqXqXqXqXqXqXqXqXqXqXqXqXwXwXwXwXtXtXwXwXwXtXtXtXtXtXtXtXtXtXtXtXfXfXfXtXtXtXtXtXtXtXtXtXtXtXeXeXtXtXtXtXeXeXeXwXwXwXwXwXwXwXwX8X8X7X7X7X7X7X7X7X7X7X4X4X4XV.@._ ) O.*.>XV.g.4XV.^ @.y w - ; 7 e y y y y a 8 - 3 8 8 5 5 3 3 2 & % # # + # # # % & - 2 2 % % # # + + + # # # # # & & & < 1 6 h x J L 6.7.q.w.w.y.M.M.M.M.M.P.P.Y.Y.Y.Y.Y.!.!.!.Q.Q.Q.^./././. X X X X$X$X&X&X*X*X*X*X*X*X&X&X&X&X&X&X&X&X*X%X*X*X%X*X*X*X%X%X%X%X*X*X*X*X*X*X*X*X$X$X$X$X$X$X=X=X=X=X=X=X=X=X(.(.(.(.(.(.(.(.^.^././././././.(.(.^.^.^./.^.^.^.^.^.^.~.~.~.~.!.Y.I.I.I.I.P.P.P.P.P.P.P.M.y.e.e.w.w.q.7.<.>.:.K K H G G G G G N M x z 0 9 9 0 0 3 $ $ $ * & * * & < < < < & & & & % % + + @ @ X X X X X X @ # # @ X X @ # . % % % e d d v n n n n A A n n n n m m m m m m n n n m m m m m m m m m m m m m S S S S S m S S S A A A A A S S S S S S S S S S S S S S S S S S S S S S S S S S m m m m m n n n n n n n n n n n v v v v v v v v c c c c ",
"<X<X1X1X1X4X4X4X4X4X0X0XqXqXqXqXqXqXqXqXqXqXwXwXwXwXwXtXtXtXtXtXtXtXtXtXtXtXtXtXtXtXtXtXfXfXfXfXtXtXtXtXtXtXtXtXtXeXeXeXtXtXtXtXeXeXeXwXwXwXwXwXwXwXwX8X8X7X7X7X7X7X7X7X7X4X2X,XV.V.%.@.@.g.7XtX>X>X4X@.^ ..7 3 ; ; 8 a d d f d y 8 3 4 8 8 5 5 3 2 & % # + + + + # & 2 2 2 - 2 & % # # + # # # & & # % & & < < 1 q j C I 6.0.7.q.w.w.y.M.M.M.M.P.P.P.Y.Y.Y.Y.Y.!.!.Q.Q.Q.Q././././. X X X$X$X$X&X&X&X&X&X&X&X&X&X&X&X&X&X&X&X&X&X&X&X&X&X&X&X&X%X%X%X%X&X*X*X*X*X*X$X$X$X$X$X$X$X$X=X=X=X=X=X=X=X=X=X=X(.(.(.(.=X(.(.(.^.^.^.^.(.(.(.(.^.^.^.^./.^.^.^.^.^.~.^.~.~.!.!.Y.I.I.I.P.P.P.P.P.P.P.M.y.e.e.w.w.q.7.7.>.:.K K H H G G G G G M x z 0 6 0 0 0 5 * $ * * < * * * & < < < & & & & % % # + # @ X X X X X . # % % @ X X + % . @ @ % e d v d n n n n n n n n n n m m m m m m n m m n n n n m m m m m m m m m S S S m m m S S A A A A A A A A S S S Z S S S S S S S S S S S S S S S S S S S S m m m n m n n n n n n n n n n n v v v v v v v v c c c c ",
"<X<X<X1X4X4X4X4X4X4X0XqXqXqXqXqXqXqXqXqXqXwXwXwXwXwXtXtXtXtXtXtXtXtXtXtXtXtXtXtXtXtXtXtXfXfXfXfXtXtXdXtXtXtXeXeXeXeXeXeXeXeXeXeXeXeXeXwXwXwXwXwXwXwXwX8X8X8X8X8X7X7X4X4X4X,X>XV.g.V.>X>X,X,XV.*.V.>Xg.Q T f e 3 7 4 w f d y w w 8 4 4 4 4 3 3 3 & & % # # + + + + & 2 3 3 2 & & & & & # # # # # % % & & & & < 1 1 0 x J L 6.0.8.w.w.w.y.M.M.M.M.P.P.Y.Y.Y.Y.Y.Y.!.!.Q.Q.Q.Q./././. X X X X$X$X$X&X&X&X&X&X&X&X&X&X&X&X&X&X&X&X&X&X&X&X&X&X&X&X&X%X%X%X%X%X%X%X*X*X*X*X$X$X$X$X$X$X$X$X$X=X=X=X=X=X=X=X=X=X=X=X=X=X=X=X(.(.(.(.(.(.(.(.(.(.^.^.^././.^.^.^.^.^.^.~.~.~.Y.!.Y.Y.I.P.P.P.P.P.P.P.P.y.y.e.e.w.q.7.7.>.:.H H K H H G G G G N M z 0 6 0 r 0 5 < < * * * * * * * * & < & & & & % & # + % @ + X X X . . # % % @ X X + # @ X + % w v A f n n n n n n n n n n n m m m m m n n n n m n n n m m m m m m m m Y S m m m m S Y A A A A A A A A S S Z Z Z S S S S S S S S S S S S S Z S Z Z Z S m m n n m n n n n n n n n v v v v v v v v v v v v v v v ",
"1X<X<X1X4X4X4X0X0X0X0XqXqXqXqXqXqXqXqXqXwXwXwXwXwXwXtXtXtXtXtXtXtXtXtXtXtXtXtXtXtXtXtXtXfXfXfXfXdXdXdXdXtXtXtXtXeXeXeXeXeXeXeXeXeXeXeXwXwXwXwXwXwXwXwXwX8X8X8X7X7X7X4X4X2X,X>XV.V.V.V.V.>X4X4X,X4X4X*.A d @ w ; 8 4 w f d e ; ; 2 3 4 4 3 - & - & & # # # # # # # & 3 3 3 - & & & % & # # # & % % % & & & < < 1 9 h C L 6.0.8.9.t.w.w.y.M.R.R.P.P.R.Y.Y.Y.Y.!.!.!.Q.Q.Q.Q.^./././. X X X X$X$X*X&X&X&X&X&X&X&X&X&X&X&X&X&X&X&X&X&X&X&X&X&X&X&X&X&X&X&X&X&X&X&X&X*X*X*X*X*X*X$X$X=X=X=X=X=X=X=X=X=X=X=X=X=X=X=X=X*X=X=X=X(.(.=X(.(.(.(.(.(.^.^.^./.(.(.(.(.^.^.^.~.~.~.~.~.~.!.Y.I.I.P.P.P.P.P.P.y.y.e.e.w.q.7.<.>.:.K H K K H G G G G N M z 0 5 t r 0 5 < < < $ $ * * * * * & & & & & & % & % # % @ X X X X X . @ # % # + X X @ @ X + % 7 d A f n n n n n n n n n n n m m m m m n n m n n n n n m m n n m m m m S S m m m m S S A A A A A A A A Z Z Z Z Z Z Z Z Z Z Z Z Z Z Z Z Z S Z Z Z Z Z Z n n n n n n n n n n n n n v v v v v v v v v v v v v v v ",
"1X1X1X1X4X4X0X0X0X0XqXqXqXqXqXqXqXqXqXwXwXwXwXwXwXwXwXtXtXtXtXtXtXtXtXtXtXtXtXtXtXtXtXtXfXfXtXfXfXfXfXfXfXtXtXtXeXeXeXeXeXeXeXeXeXeXeXwXwXwXwXwXwXwXwXwX8X8X7X7X7X4X4X,X,X,X,X>X,X4X8X7X4X4X>XV.4X*._ a e @ 7 - 4 - 7 d n r 4 4 2 3 3 3 2 - % # & & # # # # & & - 3 3 2 & % & 2 & & & # # & % & & & & & & < 1 6 q k J L 6.0.9.t.t.w.w.y.M.R.Y.Y.Y.Y.Y.Y.Y.!.!.!.Q.Q.Q.Q.Q.Q././. X X X X X$X$X$X&X&X&X&XHXHXHX&XHXHX&X&X&X&X&X&X&X&X&X&X&X&X&X&X&X&X&X&X&X&X&X&X*X*X*X*X*X*X*X*X*X*X=X=X*X=X*X*X*X*X*X*X=X=X=X*X*X*X=X=X$X$X=X=X(.(.(.(.(.(.(.(.(.(.(.(.(.(.(.^.^.^.~.~.~.~.~.~.~.I.P.P.P.P.P.P.M.y.e.e.w.q.7.<.<.:.K H L P K H H J J G M x 0 6 k t r 5 1 < * $ $ * < < * * & & & & & & % & % # # + X X X X X . X @ % % + X . X @ X % - ; a Y v d n n n n n n n m m m m m m m m m m m n n n n n m m n n n n m n S m m m m m m S A A A A A A A A A A A A m m m m m m m m m m m m m m m m m m m m n n n n n n n n n n n n n n n v c c c c c c c c c c c c ",
"1X1X1X1X4X4X0X0X0X0XqXqXqXqXqXqXqXqXqXwXwXwXwXwXwXwXwXtXtXtXtXtXtXtXtXtXtXrXtXtXtXtXtXtXfXfXtXtXtXtXdXfXfXtXtXtXeXeXeXeXeXeXeXeXeXeXeXwXwXwXwXwXwXwXwXwX8X8X7X7X7X4X,X,X2X2X4X2X>X4X7X,XV.V.,X2X%.T e 4 7 e e 4 4 - 7 n A r 3 4 3 3 2 2 2 3 & # % % % & & % % & 3 4 3 & & # - 3 & & % & # & % % & & & * & < 1 6 0 z G L 6.7.8.w.y.w.w.t.M.R.Y.Y.Y.Y.Y.Y.Y.!.!.!.Q.Q.Q.^.Q.Q././. X X X X$X$X$X$X&X&X&X&XHXHXHX&XHXHX&X&X&X&X&X&X&X&X&X&X&X&X&X&X&X&X&X&X&X&X&X&X&X&X&X*X*X*X*X*X*X=X=X=X*X*X*X*X*X*X*X=X=X=X*X*X*X*X*X*X=X=X=X=X(.=X(.(.(.(.(.(.(.(.(.(.(.(.(.^.^.^.^.^.^.~.~.~.~.I.P.P.P.P.P.P.P.y.e.e.w.q.<.<.<.:.K H K L K H H J J G G x 0 6 k z t 9 < < * $ * * < < & * & & & & & & % & % # @ + X X X X X X X @ % % @ . . . X X - - % e Y A d n n n n n n n m m m m m m m m m m m n n n n n m m n n n n n n S m m m m m m S A A A A A A A A A A A A m m m m m m m m m m m m m m m m m m m m m n n n n n n n m n n n n n n v c c c c c c c c c c c c ",
"1X4X4X4X4X4X4X4X0X0XqXqXqXqXqXqXwXwXwXtXwXtXtXtXtXtXtXtXtXtXtXtXtXrXrXrXtXtXtXrXdXdXdXtXfXeXtXtXfXfXfXfXeXeXeXeXfXfXfXeXeXeXeXeXeXeXwXwXwXwXwXwXwXwX7X7X8X8X7X7X7X7X4X4X4X4X4X4X4X,X,X>X,X7X,X#.e d n - A S 4 4 3 7 4 7 f y 4 7 4 3 2 2 2 2 - - & # # % & - - & 3 4 3 2 2 3 2 % & & & % # + & - & & & & < 3 5 6 0 x I 2.6.8.r.t.y.y.y.M.M.R.R.R.Y.Y.Y.Y.Y.Y.Y.Y.Y.Y.!.Q.Q././. X X/. X X$X$X$X$X&X&X&X&X&X&X&X&XHXHXJX&X&X&X&X&XHXHXHXHXHXHXHXHXJXHX&X&X&X&X&X&X&X&X&X&X&X&X*X*X&X*X*X*X*X*X*X*X*X*X=X$X$X*X*X*X*X*X=X=X$X$X$X=X=X=X(.(.(.(.(.(.^.^.(.(.(.(.^.^.^.(.^.^.^.^.~.~.I.I.I.I.I.P.P.P.P.M.e.e.e.w.q.<.<.:.:.;.K H H K H H J J G z q 0 z k t 0 1 < * * * * < < < < * # & & & & & % # + @ @ @ + X X . . X X @ % + . . X . % 4 4 ; w d n f n n n n n A n n n n n n n n n m m m m m m n n m n n n n n n n S S m m n n m n A A A A A A A A A A A A m m m m m m m m m m m m m m m m m m m m m m m n n n n n n n n n n v v v v v v v v c c c c c c c ",
"1X1X4X0X4X0X0X4X0X0XqXqXqXqXqXqXwXwXwXtXwXtXtXtXtXtXtXtXtXtXtXtXtXrXrXrXtXtXtXrXdXdXdXtXfXfXtXeXfXfXfXfXeXeXeXeXfXfXfXeXeXeXeXeXeXeXwXwXwXwXwXwXwXwX7X7X8X8X7X7X7X7X4X4X4X4X4X4X4X,X2X7X7X2X@.A Y ..) r d d w w y 4 - 7 w 8 4 ; 3 3 3 2 2 2 - & % # # # % 2 3 8 3 3 3 2 2 3 3 & & 2 2 & # # & 2 < & & & < 5 5 q 0 x P 6.8.8.r.t.y.y.y.M.H.R.R.R.Y.Y.Y.Y.Y.Y.Y.Y.Y.Y.!.Q.Q./././. X X X X X$X$X$X&X&X&X&X&X&X&X&XHXJXJXJX&X&X&X&XJXHXHXHX&X&X&X&XJXHX&X&X&X&X&X&X&X&X&X&X&X&X*X*X&X&X*X*X*X*X*X*X*X*X=X$X$X*X*X*X*X*X*X=X*X*X=X=X=X=X(.(.(.(.(.(.^.^.(.(.(.(.^.^.^.^.^.^.~.~.~.~.Y.Y.Y.I.I.P.P.P.P.P.y.e.e.w.q.<.<.:.;.;.K H H K H K J J G j q 0 z z k 0 5 1 1 < * * * < < < * # & & & & % + + + @ @ @ @ + X X . X X @ % @ . . X X % 4 4 - 8 d A d n n n n n A n n n n n m m n n m m m m n n n n m n n n n n n n S m m m n n m m n A A A A A n n n n n n n n n n m m m m m m m m m m m m m m m m m m n n n n n n n n n n n v v v v v v v v c c c c c c c ",
"1X1X4X0X0X0X0X0X0XqXqXqXqXqXqXqXwXwXwXtXwXtXtXtXtXtXtXtXtXtXtXtXtXrXrXrXrXtXtXdXdXdXdXdXfXfXfXfXfXfXfXfXeXeXeXeXfXfXfXeXeXeXeXeXtXeXwXwXwXwXwXwXwXwX7X7XwX8X8X7X7X7X7X4X4X4X4X4X,X2X7X4Xg.%.@.) @.*.W a A ^ A e n 4 ; 7 ; 4 e ; 3 3 3 3 2 2 & & & # & % - 3 4 8 3 3 3 2 3 3 3 - 2 3 3 - % % & 2 & & & & < 5 9 0 h x L 6.8.r.w.t.y.y.y.M.R.R.Y.Y.Y.Y.Y.Y.Y.Y.Y.Y.Y.!.!.Q.Q././././. X X X X$X$X$X&X&X&X&X&X&XHXHXJXJXJXJXJXJX&X&X&X&X&X&X&X&X&X&XJXJXHX&X&X&X&X&X&XHXHX&X&X&X&X&X&X&X&X*X*X*X*X*X*X*X=X$X$X=X*X*X*X*X*X*X*X*X*X=X*X=X(.(.(.(.(.(.^.^.(.(.(.(.^.^.^.^.^.~.~.~.~.~.Y.Y.~.Y.I.I.P.P.P.P.y.e.e.w.q.<.<.>.:.:.K H H K K K K J G j q 0 z z k 0 0 5 1 1 < * * < < < & # & & & & & % # + # # @ @ + + X X . X @ % @ . . X @ % 4 3 & 7 d A d n n n n n A n n n n n n n n n n n n n n n n n n n n n n n m m m m m m n n n m v v v v A v v v v v v v n n n n m m m m m m m m m m m m m m m m n n n n n n n n n n n n n v n n v v v v v c c c c c c c ",
"1X4X4X0X0X0X0X0XqXqXqXqXqXqXwXwXwXwXwXtXwXtXtXtXtXtXtXtXtXtXrXrXrXrXrXrXrXtXrXdXdXdXdXdXfXfXfXfXfXfXfXfXfXeXeXeXfXfXfXeXeXeXeXeXeXeXwXwXwXwXwXwXwXwX7X7XwXwX8X7X7X7X7X4X4X4X4X7X,X2X4X>X#.#.g.g.V.g.f a Y @._ y Y e e e % e n 7 2 3 3 3 3 2 & & + % 2 3 4 3 3 2 4 4 3 3 3 3 3 2 3 3 3 2 & & & 2 & & < < < 5 9 0 k G ' 8.9.r.t.t.M.y.y.M.R.R.Y.Y.Y.Y.Y.Y.Y.Y.Y.Y.!.!.!.Q.^././././. X X X X$X$X$X&X&X&X&X&X&X&XHXJXJXJXJXJXJXJX&X&X&X&X&X&X&X&X&XJXJXHXJX&X&X&X&X&X&XHX&X&X&X&X&X&X&X&X&X*X*X*X*X*X*X=X$X$X=X*X*X*X*X*X*X*X*X*X*X=X(.(.(.(.(.(.(.^.^.(.(.(.(.^.^.^.^.^.^.~.~.~.~.~.~.~.~.I.I.P.P.P.P.x.y.e.e.q.<.<.>.:.:.;.H K K K P K I G h 6 0 z z k k 0 9 6 1 < & * * < < & # & & & & & % % # @ @ @ @ + X X X . X @ % @ . . X @ % ; 3 - 7 f A d n A n n n A n m m m m m m m m n n n n n n n n n n n n n n m m m m m n n n n m v v v v A A n v v v v v n n n n n n n n n n n n n n n n n n n n n n n n n n v n n n n n n n n n v v v v v c c c c c c c ",
"1X4X4X0X0XqXqX0XqXqXqXqXqXqXwXwXwXwXwXtXtXtXtXtXtXtXtXtXtXrXrXrXrXrXrXrXrXrXrXdXdXdXdXdXdXdXfXfXfXfXfXaXaXaXaXaXaXaXaXeXeXeXeXeXeXeXwXwXwXwXwXwXwXwX7X7X8X8X8X7X7X7X7X7X4X4X7X7XwX,X,X,X,X,X>X#.>X%.d n Y O...a n f n e % a S 7 2 3 3 3 2 & & & + % 3 8 8 3 3 2 8 5 3 3 3 3 2 2 3 3 3 2 & & & & & & < < < 6 0 0 x J 2.8.r.r.t.y.M.y.M.H.R.R.R.Y.Y.Y.Y.Y.Y.Y.Y.Y.!.Q.Q.Q.^./././././. X X X$X$X$X&X&X&X&X&X&X&X&X&X&XJXJXJXJXJXJX&X&X&X&X&X&X&X&XHXJX&X&X&X&X&X&X&XHXHXHX&X&X&X&X&X&X&X*X*X*X*X*X*X*X$X$X$X$X$X*X*X*X$X$X$X$X$X$X=X(.(.(.(.(.(.^.^.(.(.(.(.(.^.^.^.^.^.^.^.^.~.~.!.~.~.~.I.I.U.P.P.P.P.y.e.e.q.<.<.>.,.:.;.H H K K P P I G h 6 h z z k k 0 0 6 6 1 < * * < < & * & & & & % & & % @ @ + @ + X . . . X # % # X . + + @ ; 4 - 4 a n d n A n n A A n m m m m m m m m n n n n n n n n n m n n n n m m n n n n n n n m A A A A A A A A A A A A m m m m n n n n n n n n n n n m m m n n n n n n n n n n n n n n n n n n v v v v v c c c c c c c ",
"4X4X0X0XqXqXqXqXqXqXqXqXqXwXwXwXwXwXwXtXtXtXtXtXtXtXtXtXrXrXrXdXrXrXrXrXrXrXrXdXdXdXdXdXdXdXdXdXfXfXfXfXaXaXfXaXaXaXaXeXeXeXeXeXeXeXwXwXwXwXwXwXeXwX7X7X8X8X8X7X7X7X7X7X7X7X7X7XwX2X4X4X,X,X,X*.,X{ f S _ *.@.y f Y A w 4 a a - - 3 3 3 2 & & & % - 3 4 3 4 8 8 8 4 3 3 3 3 2 2 3 3 2 - & - - & & & < < 1 6 0 h M J 2.8.r.t.t.y.M.M.M.H.R.R.Y.R.Y.Y.Y.Y.Y.Y.!.!.Q.Q.Q.Q.^././. X/./. X X X X$X$X&X&X&X&X&X&X&X&X&X&X&X&X%X%X%X%X&X&X&X&X&XJX&XJX&X&X&X&X&X&X&X&X&X&X&X&X&X&X&X&X&X&X*X*X*X*X*X*X*X$X$X$X$X$X$X*X*X*X$X$X$X$X$X$X=X(.(.(.(.(.(.^.^.^.(.(.(.(.^.^.^.^.^.^.^.^.~.~.!.!.~.!.I.I.P.P.P.P.P.y.e.w.q.<.<.>.:.:.:.K H K K K K K N h 6 h z z k t 0 0 6 6 1 < < * * * & & + + + + + + # # @ + + + + X . . . X % - % X . X X X - 4 - 3 a d d n A n n A A A m n n n n n m m n m n n n n n n m m n n n n m m n n n n n n n m A A A A A A A A A A A A m m m m n n v v n v n n v v n n n n n n n n n n n n n v n n n n n n n n v v v v v c c c c c c c ",
"4X4X0X0XqXqXqXqXqXqXqXqXqXwXwXwXwXwXwXtXtXtXtXtXtXtXtXtXrXrXdXdXrXrXrXrXrXrXdXdXdXdXdXdXdXdXdXdXfXfXfXfXfXaXaXaXaXaXaXeXeXeXeXeXeXeXwXwXwXwXwXwXeXwX7X7X8X8X8X7X7X7X7X7X7X7X7X7X2X2X7X4Xg.g.4X7X,XS v W #.1X#.a v ^ d 7 a a ; % - 3 3 3 & % & - 2 3 8 8 5 5 8 e 5 3 2 3 4 3 2 3 3 3 2 2 2 2 2 2 & & 1 3 1 5 0 k F I 2.8.r.r.y.y.M.y.M.H.R.R.Y.R.R.R.Y.Y.Y.!.~.~.Q.Q.Q.Q.Q././././././. X X X$X$X%X*X*X&X%X%X&X&X%X%X%X%X%X%X%X%X&X&X&X&X&X&X&X&X&X&X*X*X&X&X&X&X&X&X&X&X&X&X*X*X*X*X*X*X*X*X*X*X*X$X$X$X$X$X*X*X*X*X$X$X$X$X$X$X=X(.(.(.(.(.(.^.^.(.(.(.(.(.^.^.^.^.^.^.^.~.~.~.!.!.!.I.I.P.P.P.P.P.y.e.e.w.q.<.<.>.:.:.:.K H K K K K K N q 6 k x z k 0 0 0 6 1 1 < < & # $ & < + + + + + + # % @ @ @ @ + X X . . X % - % X . X + X % ; % - y n d n A n n A A A m m n n n n m n m m m m n n n n m m m n n n n m n n n n n n n m A A A A A A n n n A A A n n n n n n n n n n n n v n n n n v v n n n n n n n v v n n n n n n n n v v v v v c c c c c c c ",
"4X4X4X0XqXqXqXqXqXqXqXqXqXwXwXwXwXwXwXtXtXtXtXtXtXtXtXrXrXdXdXdXrXrXrXrXrXrXdXdXdXdXdXdXdXdXdXdXfXaXfXfXfXaXfXaXfXaXfXeXeXeXeXeXeXeXwXwXwXwXwXwXeXwX7X7X8X8X8X7X7X7X7X7X7X7X7X7X4X,X2X7X2X2X2XV.g.n ) { #.g.@.v Y ) a 7 Y f @ 3 2 3 3 2 % & & 2 2 8 r r e 8 5 8 3 - - 3 4 3 3 4 3 3 2 2 2 2 2 2 & 2 3 5 5 9 0 k F I 2.8.r.w.t.M.M.M.M.M.R.Y.R.Y.R.Y.Y.Y.Y.!.~.^.!.^.Q.Q././././././././. X$X$X$X$X%X%X*X%X%X*X%X%X%X%X%X%X%X%X%X%X%X%X%X%X%X%X%X&X*X%X%X*X&X&X&X&X&X&X&X&X&X*X*X*X*X*X*X*X$X*X$X*X$X$X$X$X$X$X*X*X*X*X*X*X$X$X=X=X(.(.(.(.(.(.^.^.(.(.(.(.(.^.^.^.^.^.~.~.~.~.~.Y.I.I.I.I.P.P.P.P.P.y.y.e.w.q.<.<.>.:.:.:.K K K K K K K x q 6 k M z k h 0 0 6 1 < < 1 < $ $ & 2 + + + + + + & % @ @ @ @ @ + X X . X % - % X . X @ X % - @ - y n d n A n n S S m n n n n n n n n m m m m m m n n m m m m n n n m n n n n n n m m n n n n v v v v n n n n v v v v n n n n n n n n v v n n n n v n n n n n n v v v n n n n n n n n v v v v v c c c c c c c ",
"4X4X4X0X0XqXqXqXqXqXqXqXqXwXwXwXwXwXtXtXtXtXtXtXtXtXtXtXrXrXdXdXrXrXrXrXrXrXrXrXdXdXdXdXdXdXdXdXdXdXdXaXsXaXdXfXeXeXeXeXeXwXeXeXwXwXwXwXwX8X8X8XeXwXwX7X7X7X8XwX7X7X7X7X8X7X7X7X7X8X8X4X2X2XC.C.@.T W @.#.g.T S T @.W a @.8 - & - 2 3 2 - - 2 4 w w e r w 3 3 4 3 3 3 3 4 4 3 3 2 2 2 3 5 9 5 3 3 3 5 5 9 0 h x G ' 0.8.t.t.t.M.M.M.M.P.Y.Y.Y.P.P.Y.Y.!.!.~.!.~.^.^.!.!.^./././.^./././.$X$X$X$X*X*X*X*X*X*X*X*X*X*X*X*X*X&X&X&X*X*X*X*X*X*X%X%X&X&X&X&X&X&X&X&X&X*X*X*X*X*X*X*X$X$X$X$X$X$X$X$X%X$X$X$X%X%X%X%X*X%X*X X X X*X*X$X(.(.(.(.(.(.(.^.^.^.^.^.^.^.^.^.^.^.^.~.~.~.I.!.!.I.I.Y.Y.P.P.P.P.M.y.e.w.q.q.<.<.>.:.:.;.;.K K H K I j q q j x x j h 0 0 6 5 < & * * $ * * * & & + + . X + # @ + X X @ @ X X X . % - @ + + . + @ . 3 ; 4 4 S n n n n n n n n n n n n n n n n m m m m m m m m m m m n n n n n n n n n n n n n n n n v v n n n n n n v v v v v n n n v v v n n v v v n n v v v n n v v v v v v v v v v v v v v c c c c c c c c c c c c ",
"4X4X4X0XqXqXqXqXqXqXqXqXqXwXwXwXwXwXtXtXtXtXtXtXtXtXtXrXrXrXdXdXrXrXrXrXrXrXrXrXdXdXdXdXdXdXdXdXdXdXdXdXdXdXdXfXeXeXeXeXeXeXeXeXwXwXwXwX8X7X7X7XeXwXwX7X7X8X8XwX7X7X7X7X8X7X7X7X8X3X4X4X2XS.C.C.@.^ [ %.%.X.v S [ #.T d O.r 4 - 5 3 2 - - - 2 3 w 8 8 w 4 ; - 2 3 3 3 3 3 3 3 3 2 2 3 5 5 5 5 5 5 3 5 9 9 0 h j G ' 0.0.t.t.t.M.M.M.M.M.P.Y.P.Y.P.Y.Y.!.!.~.!.!.^.~.!.~././././././././.=X$X$X$X*X*X*X*X*X*X*X*X*X*X*X*X*X&X&X&X&X*X&X&X&X&X&X&X&X&X&X&X&X*X&X&X&X&X*X*X*X*X*X*X$X$X$X$X$X%X%X%X$X$X$X$X%X%X%X%X*X%X*X X X X X*X(.(.(.(.(.(.(.(.^.^.^.^.^.^.(.(.^.^.^.^.~.~.~.I.!.!.I.I.I.I.P.P.P.P.M.y.e.w.q.q.q.7.>.>.:.:.;.;.:.K K G h 6 h j x j j h h 0 6 1 1 2 & * * * * * & & + + X X + + @ + X X @ @ X X . . % - @ @ @ . + # X 7 4 4 4 n n n n n n n n n n n n n n n n n m m m m m m m m m m m n n n n n n n n n n n n n n n n v v n n n n n n v n v v v n n n v v v v n v v v n n v v v n v v v v v v v v v v v v v v v c c c c c c c c c c c c ",
"4X4X4X0XqXqXqXqXqXqXqXqXwXwXwXwXtXtXtXtXtXtXtXtXtXtXtXrXrXrXdXdXrXrXrXrXrXrXtXrXdXdXdXdXdXdXdXdXdXdXdXdXdXdXdXdXeXeXeXeXeXeXeXeX8X8XwX7X7X7X7X7XwXwXwX7X7X7XwXwX7X7X7X7X8X8X7X7X4X4X4X4X2X2XA.C.#.[ O.%.%.W d _ #.#.A A ) y 4 - 8 3 - # - 2 3 3 5 3 3 3 2 - # - 3 3 3 3 3 3 3 2 2 3 5 5 5 5 5 9 9 5 5 9 0 0 h j G 2.6.0.t.t.t.M.M.M.M.M.P.P.Y.Y.Y.Y.Y.!.!.!.!.!.~.!.!.~././.(./././././.$X$X$X$X*X*X*X*X*X*X*X*X*X*X*X*X*X*X&X&X&X&X&X&X&X&X&X&X&X&X&X&X&X*X&X&X*X*X*X*X*X*X*X*X%X%X%X%X%X%X%X%X$X$X$X$X$X$X$X$X%X$X X X X X X X(.(.(.(.(.(.(.(.^.^.^.^.^.^.(.(.^.^.^.^.~.~.~.I.!.!.P.I.I.I.P.P.P.P.M.e.e.w.q.q.q.7.<.>.:.:.;.:.:.K K G q 6 h x x j j h h 0 6 5 1 2 < * * * + + & & + + X X + + @ + X X @ @ + X . . % - @ @ # X @ % @ w 8 8 4 v n n n n n n n n n n n n n n n n m m m m m m m m m m m m m n n n n n n n n n n n n n n v v n n n n n n v n v v v n n v v v v n n v v v n n n v v n n v v v v v v v v v v v v v v c c c c c c c c c c c c ",
"4X4X0X0XqXqXqXqXqXqXqXwXwXwXwXwXtXtXtXtXtXtXtXtXtXrXrXrXrXdXdXrXrXrXrXrXrXrXdXdXdXdXdXdXdXdXfXfXdXdXdXdXdXdXtXtXtXtXeXeXeXeXeXeXwXwXwXwXwXwX7X7XwXwXwX7X7X7X8XwX7X7X7X7X8X7X8X7X4X4X4X4X2X2XA.C.%.O.#.#.@.d T g.V.#.A T A r - ; 3 2 - - ; 3 5 w 3 2 2 2 2 - - 2 3 3 3 3 3 3 3 2 2 3 8 9 5 3 5 0 9 5 5 9 0 0 j x J 2.0.7.t.t.t.y.M.M.M.M.M.P.Y.Y.Y.Y.Y.!.!.!.~.~.!.!.!.!./.(.(.(./././.$X$X$X$X*X$X*X*X*X*X*X*X*X*X*X*X*X*X*X*X*X&X&X&X&X&X&X&X&X*X*X*X*X*X*X*X*X*X*X*X*X*X*X*X*X*X*X*X%X%X%X%X%X$X$X$X$X$X$X$X$X$X$X X X X X X(.(.(.(.(.(.(.(.(.(.(.(.^.^.^.(.(.^.^.^.^.~.~.I.I.!.I.P.I.I.I.P.P.P.P.y.e.e.w.q.q.q.7.<.>.>.:.;.:.:.P I x 6 6 h x x x z j h 0 6 5 1 < & * * $ + + & * + + + X X X @ + + + + + + X . . % - # # % + % % @ w 8 8 4 v n n n n n n n n m m m m m m m m m m m m m m m m m m m m m m n n n n n n m n n n n n n v v n n n n n n n n v v v n n v v v v n n v v n n n n v v n n v v v v v v v v v v v v v v c c c c c c c c c c c c ",
"4X4X0XqXqXqXqXqXqXqXwXwXwXwXwXwXtXtXtXtXtXtXtXtXrXrXdXdXrXrXrXrXrXrXrXrXrXrXdXdXdXdXdXdXfXfXfXfXdXdXdXdXdXtXtXtXtXtXtXtXtXtXeXeXeXeXwXwXwXwXwXwXwXwXwX7X7X7X7XwX7X7X7X7X8X4X4X7X3X3X3X4X2X2XS.A.#.@.%.#.X.f [ 7XV.#.T W y 8 & 4 2 3 4 3 3 3 5 w 4 2 - 2 2 2 2 3 3 3 3 3 3 3 3 3 2 5 8 8 5 3 9 0 8 5 5 9 0 0 z x J 2.0.0.t.t.t.y.M.M.M.M.M.R.Y.!.!.!.!.!.!.~.~.~.!.!.!.!././.(././. X X$X$X$X$X$X$X%X%X*X*X*X*X*X*X*X*X*X*X*X*X*X%X%X%X%X%X%X%X%X%X%X*X*X*X*X&X*X%X*X*X*X*X*X*X*X*X*X*X%X%X$X$X$X$X$X$X$X$X$X$X$X$X$X(. X X X X X(.(.(.(.(.(.(.(.(.(.(.^.(.^.^.^.^.~.~.~.~.~.Y.Y.Y.I.P.P.I.P.P.P.P.y.y.e.e.w.q.q.q.7.7.>.:.:.;.L K P P x 6 6 h x x x z j h q 6 1 < & * * * + + + + + + + + X X X X + + + + + + @ X . % - # # % @ - - @ 7 4 8 4 v n n n n n n n n m m m m m m m m m m m m m m m m m m m m m m n n n n n n n n n n n n n v v n n n n n n v n v v v v v v v v v v n v v v n n v v v n v v v v v v v v v v v v v v v c c c c v v v c f f c c ",
"0X0X0XqXqXqXqXqXwXwXwXwXwXwXwXtXtXtXtXtXtXtXtXrXrXrXrXdXrXrXrXrXrXrXrXrXrXrXdXdXdXdXdXdXdXdXdXdXdXdXdXdXdXfXtXtXtXtXtXtXtXtXtXtXeXeXeXeXeXwXwXwXwXwX8X7X7X7X7X8X7X7X7X7X8X7X4X4X8X8X3X4X2X2XS.C.@.@.g.g.[ A @.,XV.g./ T e 8 & w 2 5 w w 3 2 3 4 w 3 2 2 2 2 2 2 4 3 3 3 4 4 3 3 3 5 8 8 5 5 9 r 5 5 5 0 0 0 z x I 6.0.0.t.t.t.y.M.M.M.M.P.Y.Y.!.!.!.!.!.!.~.~.~.Q.!.!.Q././././././. X X$X$X$X$X$X$X$X%X*X*X*X*X&X&X*X*X*X*X*X*X%X%X%X%X%X%X%X%X%X%X%X%X%X%X%X%X%X%X%X%X*X*X*X*X*X%X%X$X$X$X$X$X$X$X$X$X X X X X$X X X X X X X X(.(.(.(.^.(.(.(.(.^.(.^.^.^.^.^.^.~.~.~.~.~.I.I.I.I.P.P.P.P.P.P.P.y.e.e.e.w.w.q.q.7.7.>.>.:.;.L K L P x 6 6 j x x x z h h q 6 1 * * * * * + + + + + + + + X X X X + @ @ X X + @ + X % - # # % @ - - @ 7 4 8 4 v m n n m n n n n m m m m m m m m m m m m m m m m S m m m m m m m m m m m m m m m n n n v v n n n n n n v n v v v v v v v v v n n v v n n n n v v n v v v v v v v v v v v v v v v c c c c v v v c f f p f ",
"0X0XqXqXqXqXqXqXwXwXwXwXwXwXwXwXtXtXtXtXtXtXrXrXdXdXdXdXdXrXdXdXdXdXrXrXrXrXdXdXdXdXdXdXdXdXdXdXdXdXdXdXdXfXfXaXfXfXtXtXtXtXtXtXeXeXeXwXwXwXwXwXwXwX8X7X7X7X7XwX7X7X7X7X8X7X7X4X8X8X3X4X2X2XA.C.@.#.g.V.W Q g.g.V.V.[ d 8 8 - r 3 4 5 5 3 2 2 3 5 3 ; 2 3 2 ; 2 3 3 3 3 3 3 3 2 5 9 8 8 5 5 0 r 5 9 0 0 0 0 z x P 6.0.8.t.t.t.y.y.M.M.M.R.R.R.!.Q.Q.!.!.!.~.~.~.^.^.!.Q.Q./././././././././. X X$X$X$X%X*X*X*X*X&X&X&X*X*X*X*X*X$X$X%X%X%X%X$X$X%X%X%X%X$X%X%X%X$X$X%X%X%X*X*X*X%X%X$X$X$X$X X X X X X X X X X X X X X X X X X/.(.(.(.^.^.^.(.(.^.^.^.^.^.~.~.~.~.~.~.~.~.~.Y.I.I.I.P.P.P.P.P.P.P.y.e.e.e.e.w.q.q.q.7.7.>.:.:.L :.L K j 6 q x x x x z h h 0 6 5 * & & * * $ $ $ + + + + X X X X X X @ @ X X + @ @ + % - @ @ % @ - - @ w e e 4 v m m n n m n n n m m m m m m m m m m m m m m m m S S m m m m m m m m m m m m m m n n n v v n n n n n n v n v v v v v v v v v v v v n n n n n n v v v v v v v v v v v v v v v v v c c c c c v c c p p f p ",
"0X0XqXqXqXqXqXqXwXwXwXwXwXwXwXwXtXtXtXtXtXrXrXrXdXdXdXdXdXdXdXdXdXrXrXrXrXrXdXdXdXdXdXdXdXdXdXdXdXdXdXdXdXfXfXaXfXfXtXtXtXtXtXtXwXwXwXwXwXwXwX8XwXwX8X7X7X7X7XwX7X7X7X7X8X7X7X7X8X3X3X4X2XA.C.C.#.g.*.g.A _ 7XV.V.V.[ e 8 8 - r 3 3 3 3 3 3 3 2 3 - - 2 3 3 2 3 3 3 3 3 3 3 3 2 5 9 8 9 9 9 0 r 5 8 r r 0 0 j x P 6.0.8.t.t.t.y.y.M.M.H.Y.R.Y.Y.Q.Q.!.!.!.~.~.~.^.^.!.Q.Q././././././././././. X$X$X$X$X%X*X*X*X&X&X&X*X*X*X*X*X*X*X*X*X*X*X*X*X%X%X%X%X$X$X%X%X$X$X%X%X%X*X*X*X$X$X$X$X X X X[. X X X X X X X X X X X/. X X X X(./.(.^.^.^.(.(././.^.^.~.~.~.~.~.~.~.~.~.~.Y.I.I.I.P.P.P.P.P.P.x.y.e.e.e.e.w.q.q.q.7.7.3.>.:.;.:.L I j 6 q x C x x x k j h 0 9 < < < & * * $ $ * + + + X X X + X X @ @ X X @ @ # @ - - @ @ % @ - - @ e r r 8 v m m m n m n n n m m m m m m m m m m m m m m m m S S S m m m m m m m m m m m m m n n n v v n n n n n n v n v v v n v v v v v v v v n n n n n n v v v v v v v v v v v v v v v v v c c c c c c c c p p p p ",
"0X0XqXqXqXqXqXqXwXwXwXtXtXtXtXtXtXtXtXtXtXrXdXdXrXrXrXdXdXdXdXdXrXrXrXrXrXrXdXdXdXdXdXdXdXdXdXdXdXdXdXdXdXdXdXdXtXtXtXtXtXeXeXeXeXeXeXwXwXwXwXwXwXwX8X7X7X7XwXwXeXwX8X7X8X7X4X4X3X4X2X2X3X3XA.d.@.V.V.%.W [ #.2XV.g.#.y 7 - 4 7 4 - r w 8 ; e - 3 2 2 2 2 2 2 ; 3 3 3 3 3 3 3 3 3 3 5 5 5 5 9 0 5 r r 0 0 h x x P 2.7.9.t.t.y.y.y.M.M.R.R.R.R.!.Q.Q.^.^.^.^.^.^.^.^.^.^.^.^././.Q.Q./. X X X$X$X$X$X$X$X$X%X%X%X*X*X%X$X$X$X$X$X*X*X*X$X$X$X$X$X$X$X$X$X$X$X$X$X$X%X%X%X%X%X%X%X$X$X$X$X$X$X$X X X$X$X/././././.(.(././. X/././.(.(.(.^.^.^.(.(.~.~.~.~.~.~.~.~.^.^.~.~.!.!.!.Y.I.I.I.P.P.P.P.y.e.y.e.e.e.w.w.q.q.q.7.7.<.>.:.:.K 2.G q 6 h x C C x x x j 0 6 9 1 < * * * * $ $ & & + + X X X + . X + X . . . X . - - % & % @ @ ; - % 7 y w w f m n n n n m m m m m m m S S S S m m m m m m m m m m m m m m m m n n n n n n m m m m m n n n n n n n n v v v v v v v v v v v v v v v v v v v v v v v v v v v v v v v v v v c c c c c c c c f f f f f f f ",
"0X0XqXqXqXqXqXqXwXwXwXtXtXtXtXtXtXtXtXtXtXtXdXdXrXrXdXdXdXdXdXdXrXrXrXrXrXrXdXdXdXdXdXdXdXdXdXdXdXdXdXdXdXdXdXdXtXtXtXtXtXtXeXeXeXeXeXwXwXwXwXwXwXwX8X8X7X7XwXwXwXwXwX7X8X7X4X4X3X3X2X2X3X3XA.d.@.V.V.%./ X.#.V.V.g.#.n 7 4 4 7 3 3 y c 5 2 3 % 2 2 2 2 2 2 2 - 3 3 3 3 3 3 3 3 5 3 5 5 5 5 9 0 9 r r 0 0 h x x P 2.8.r.t.t.N.y.y.M.M.R.R.R.R.!.Q.Q.Q.^.^.^.^.^.^.^.^.^././././.Q.Q./. X X X$X$X$X$X$X$X$X%X%X%X*X*X$X$X$X$X$X$X*X$X$X$X$X$X$X X$X$X$X$X$X$X$X$X$X$X$X$X$X$X$X$X$X$X$X$X$X$X X X X$X$X X/././././.(././. X/././.(.(.(.^.^.^.(.(.~.~.~.~.~.~.~.~.^.^.~.~.!.!.!.!.I.I.I.P.P.P.P.y.y.e.e.e.e.w.w.q.q.q.7.7.<.>.:.;.K :.N 6 6 j x C C x x x h 0 6 5 1 < * $ $ $ + + * * + + X X X + . X X X . . X X X - - % % % + @ - % - 8 y r w v m n n n m m m m m m m S S S S S m m m m m m m m m m m m m m m m n n n n n n m m m m m n n v n n n n n v v v v v v v v v v v v v v v v v v v v v v v v v v v v v v v v v v c c c c c c c c f f f f f f f ",
"0XqXqXqXqXqXqXqXwXwXwXwXtXtXtXtXtXtXtXtXrXrXdXdXrXrXrXrXdXdXdXdXrXrXrXrXrXrXdXdXdXdXdXdXdXdXdXdXdXdXdXdXdXdXdXdXtXtXtXtXtXtXtXeXeXeXeXeXwXwXwXwXwXwXwX8X7X7XwXwXwXwXwX7X8X7X7X4X3X4X4X2X3X3XA.h.%.V.h.g...@.%.g.g.%.%./ 7 7 4 4 2 5 s ! w 3 # - - - - 2 3 3 2 - 3 3 3 3 3 3 3 3 9 5 5 9 5 5 9 0 5 r r 0 0 h x x P 2.8.t.t.N.H.M.y.M.H.R.R.R.T.T.Q.Q.Q.Q.^.^.^.^.Q.Q.^.^././././././. X X X X$X$X$X$X$X$X%X%X%X%X%X$X$X$X$X$X$X$X$X$X$X$X X X X X$X$X$X$X$X$X$X$X$X$X$X$X$X$X$X$X$X$X$X$X$X$X$X$X X/. X X X/././././././.(.(././.(.(.(.^.^.^.^.^.~.~.~.~.~.~.~.~.^.^.~.~.!.Y.Y.Y.I.I.P.P.P.P.P.y.y.y.e.e.e.w.w.q.q.q.7.7.<.>.:.;.K L x 6 q x C C C x x x h 0 6 5 1 < # $ $ $ + + + + + X X X X X X X . . X X X . % ; - @ % @ X @ - % - w a r r n n n n n m m m m m m m m S S S Y m m m m m m m m m m m m m m m m m n m m m m m m m m m n n n n n n n n v v v v v v v v v v v v v v v v v v v v v v v v v v v v v v v v v v c c c c c c c c c c f f f p p ",
"qXqXqXqXqXqXwXwXwXwXwXwXtXtXtXtXtXtXtXtXrXrXdXdXrXrXrXdXdXdXSXSXdXdXdXdXrXrXdXdXdXdXdXdXdXdXdXdXdXdXdXdXdXdXdXdXtXtXtXtXtXtXtXtXeXeXeXeXeXwXwXwXeXwXwX8X8X8XwXwXwXwX7X7X8X8X7X7X3X3X4X2X4X3X2Xf.d.V.V.V.O.#.%.%.%.#.h.@.8 8 4 4 - 2 c ] y 2 - 3 & - - 2 3 3 3 2 3 3 3 3 3 3 3 3 9 5 5 5 5 5 5 9 8 8 0 0 0 h x x I 2.8.t.t.M.H.M.y.M.H.R.R.R.T.!.Q.Q.Q.Q.^.^.^.^.^.^.^.^././././. X X X X X X$X$X$X$X$X%X%X%X*X*X%X%X$X$X$X$X$X$X$X$X X X X X X X X X X X X X X X$X$X$X$X$X$X$X$X$X$X$X$X$X$X$X$X(.(. X X X/././././././.(.(././.(.(.(.(.^.^.^.^.~.~.^.^.~.~.~.~.^.~.~.~.!.Y.Y.Y.I.P.P.P.P.P.P.y.y.y.e.e.e.w.w.q.q.q.7.7.<.>.:.;.:.K j 6 h C J C x x x z h 0 6 6 1 & # $ $ $ $ $ + + X . . X X X X . . . + + X . - ; % @ # @ X @ - % - e f r r m n m m m m m m m m m m m m S S S m m m m m m m m m m m m m m m m m m m m m m m m m m m n n n n n n n n v v v v v v v v v v v v v v v v v v v v v n n v v v v v v v v v v v c c c c c c c c c c c f p p p ",
"qXqXqXqXqXqXwXwXwXwXtXtXtXtXtXtXtXtXtXrXrXrXrXrXdXdXdXdXdXSXSXSXrXrXrXrXrXrXdXdXdXdXdXdXfXdXdXdXdXdXdXdXdXdXdXdXtXtXtXtXtXtXtXtXeXeXeXeXeXeXwXwXeXwXwXwXwX8XwXwXwXwX7X7X8X8X8X8X4X3X4X2X2X3X2XC.g.,X,X,XO.#.#.#.%.#.V.#.y e 4 4 4 - m ] Y - 2 5 - - - 2 3 3 3 2 3 3 3 3 3 3 3 3 5 3 5 5 5 3 3 5 8 8 0 0 0 h x x I 2.8.t.t.H.H.M.y.M.H.R.R.W.T.!.T.T.T.T.^.^.^.^.^.^.^. X X X X X X X X X$X$X$X$X$X$X%X%X%X*X*X*X%X%X%X$X$X$X$X$X$X$X X X X(.(.(. X X X X X X X X$X$X$X$X$X$X$X$X%X%X$X$X$X$X$X$X(./././.(.(././././.(.(.(.(././.(.(.(.(.^.^.(.(.^.^.^.^.^.^.~.~.^.~.~.~.I.Y.I.I.P.P.P.P.P.P.P.y.e.y.y.e.e.w.q.q.q.q.7.<.<.>.:.:.:.H h 6 j J G x x x x k h 0 6 5 < * # $ $ $ + + . . . . . X X X X . . . + + X . ; ; % X @ + X % - - ; y v r r S n m m m m m m m m m m m m m S S m m m m m m m m m m m m m m m m m m m m m m m m m m m n n v v v n n n v v v v v v v v v v v v v v v v v v v v v v v n v v v v v v v v v v c c c c c c c c c c c p p l l ",
"qXqXqXqXqXwXwXwXtXtXtXtXtXtXtXrXtXtXtXrXrXdXdXdXdXdXdXdXSXSXSXSXrXdXrXrXjXjXdXdXdXdXdXdXfXdXdXdXdXdXdXdXdXdXdXdXaXtXtXtXtXtXtXtXtXeXeXeXeXeXeXeXeXeXwXwXwXwXwXwX7X7X7X7X8X8X8X8X4X3X3X2X2X4X2XC.h.,X,X,X@.%.%.%.g.#.V.@.f e 4 e s 3 S { ) 2 2 3 - - - 2 3 3 3 2 3 3 3 3 3 3 3 3 3 3 3 3 3 < < 5 8 9 9 0 0 h z x J 2.8.t.t.M.H.y.M.M.R.R.R.W.T.!.T.T.Y.Q.Q.^.^.^.^.^. X X X X X X X X X X$X%X$X$X%X%X%X%X*X*X*X*X*X*X*X*X*X%X%X$X$X$X$X$X X X X(.$X$X$X$X$X$X$X$X$X$X$X$X$X$X$X$X%X%X$X$X$X$X$X X(./././.(.(./././././.(.(.(././.(.(.(.(.^.^.(.(.^.^.^.^.^.^.^.~.~.~.~.Y.Y.I.I.I.P.P.P.P.P.P.M.y.e.y.y.e.e.w.q.q.q.7.<.<.<.>.:.:.:.N 6 q x J C x x M x z h q 6 1 * * # # $ $ + . . . . . X X X X X X . . X X X . ; - @ X # @ X % - - 3 a v r r Y n m m S S m m m m m m m m m m m m m m m m m m m m m m m m m m m m m m m m m m m m m m m n n n v n n n v n v v v v v v v v v v v v v v v v v v v n n n v v v v v v v v v v c c c c c c c c c c c f f l l ",
"qXqXqXqXqXwXwXwXtXtXtXtXtXtXrXrXtXtXrXrXrXdXdXdXdXdXdXdXSXdXnXnXrXdXrXjXjXjXdXdXdXdXdXdXfXdXdXdXdXdXdXdXdXdXdXdXaXaXfXfXfXtXtXtXtXtXeXeXeXeXeXeXeXeXwXwXwXwXwXwX7X7X7X7X7X7X8X8X4X3X3X4X2X4X2XA.V.,X,X,X@.g.h.g.g.#.%.) d 8 8 d Y 8 n @.{ r 2 2 - - - ; 2 3 3 2 3 3 3 3 3 3 3 3 3 2 2 3 < < < 5 0 9 9 0 0 h j x K 2.8.t.t.y.y.y.M.M.R.R.R.W.T.!.T.T.Y.Y.Q.^.^.^. X X X X X X X X X X X$X%X%X$X*X%X%X%X*X*X*X*X*X&X&X*X*X*X*X*X*X*X$X$X$X$X$X$X X$X$X$X$X$X$X$X$X$X$X$X$X$X$X$X%X$X$X$X$X$X$X$X X X X(.(.(.(./././././.(.(.(.(./././.(.^.^.^.(.(.(.(.^.^.^.^.^.~.~.~.~.Y.Y.I.I.I.P.P.P.P.P.P.y.y.y.y.y.e.e.w.q.q.q.7.<.<.>.>.:.:.:.V 6 h J J x C M G x z h q 6 1 * # $ $ $ + + . X X X X X X . . . X X X . . X X ; - X X % @ @ - ; - 4 f n r w Y m m S S S S m m m m m m m m m m m m m m m m m m m m m m m m m m m m m m m m m m m m m m m n n n n n n n n v v v v v v v v v v v v v v v v v v v n n v v v v v v v v v v v c c c c c c c c f f f f f f f ",
"qXqXqXqXqXwXwXwXtXtXtXtXtXtXrXrXtXtXrXrXrXdXdXdXdXdXdXdXdXSXnXnXjXdXrXrXjXjXdXdXdXdXdXdXdXdXdXdXdXdXdXdXdXdXdXdXaXaXaXfXfXtXtXtXtXtXtXeXeXeXeXeXeXeXwXwXwX8XeXeX7X7X7X7X7X8X3X3X4X3X3X4X2X4X2XA.C.Z.Z.C.#.C.C.C.V.#.#.D d 3 e Y Q r s %.} c 2 3 2 - - - 2 3 2 2 3 3 3 3 3 3 3 3 3 2 2 2 < < 3 5 r 5 5 9 0 0 j x K 2.8.t.y.y.M.y.M.H.R.R.R.W.T.!.Y.Y.T.!.Q.Q.^.^. X X X X X X X X X$X$X$X%X%X*X*X%X%X%X*X%X*X&X*X&X&X&X*X&X*X&X*X$X$X$X$X$X$X$X$X=X$X$X$X=X=X=X$X$X%X%X%X%X%X%X%X$X$X$X$X$X$X$X$X X X X/./.(./.(./././.(.(.(.(.(.(./.(.^./.^.(.(.(.(.^.^.^.^.^.^.~.~.~.Y.Y.I.Y.I.P.P.P.P.P.P.y.e.e.e.e.e.e.w.q.q.q.7.<.<.>.>.:.K P j 6 j I J x J x M x j h 0 6 1 * * $ + + + + X X + + + + X . . . X + + . . . X - % X X % # @ - ; - 4 f n r w Y m m S S Y S m m m m m m m m m m m m m m m m m m m m m m m m m m m m m m m m m m m m m m m n n n n n n n n v v v v v v v v v v v v v v v v v v v n n n n n v v v v v v v v c c c c c c c c f f f f f f f ",
"qXqXqXqXqXwXwXwXtXtXtXtXtXtXtXtXtXtXtXrXdXdXdXdXdXdXdXdXdXdXdXjXnXnXnXnXSXSXSXSXdXdXSXSXSXSXSXdXdXdXaXaXfXfXtXdXtXtXtXtXtXeXeXeXtXtXtXwXwXwXeXeXeXeXeX9X9X9X9X9X8X8X8X8X8X8X3X3X8X3X3X3X2X2X2XS.C.C.C.C.C.B.h.d.d.| ( Z D 9 a ~ W S 5 ) @.W 2 3 3 5 3 2 2 3 3 - - - 2 3 3 2 2 2 < & & & < < 2 3 5 3 5 9 0 0 h z P 2.8.t.t.y.N.N.y.l.H.W.R.R.W.W.Q.Q.Q.Q.^.|.^.^. X X X X X%X%X%X.X.X%X%X%X%X&X&X%X%X&X%X&X&XHX&XHX&XHX&X&X&X&X&X%X*X*X*X*X*X*X*X$X$X*X*X*X*X=X$X*X*X*X*X*X*X*X*X*X%X$X$X$X%X%X*X*X*X$X$X X X X/. X X X X(.(.(.(.(.(.(.(.(. X(./.(././.^.^.^.^.^.~.~.~.~.!.Y.Y.Y.P.P.P.P.P.P.y.y.e.e.e.e.w.q.q.q.<.q.<.<.7.>.;.:.G q h x G G C x M M x k 0 0 6 1 * * $ $ $ X X X + + X . . . . . . . X + X . X % - @ @   @ & . 7 w - r s s s r Y m m S Y Y m m m n n n n m m S S S S m m S S S S S S S S S S S Z Z Z S S S S S S S S Z n n n m m n n n v n v v v v v v v v v v v v n v v v v v v c c c v v v v v v v v v v c c c c c c c c f f f p p f f ",
"qXqXqXqXwXwXwXwXtXtXtXtXtXtXtXtXtXtXtXtXdXdXdXdXdXdXdXdXdXdXjXjXnXnXnXnXSXSXSXSXdXdXSXSXSXSXSXdXdXdXaXaXfXfXtXdXtXtXtXtXtXeXeXeXtXtXtXwXwXwXeXeXeXeXeX9X9X8X8X8X6X6X6X8X8X8X3X3X3X3X3X4X2X2X2X2XA.A.C.C.B.f.d.d.X.~ Z W D Z D [ O.Q 3 E O.W 2 - r 5 2 2 3 3 2 & - - 2 2 2 2 2 2 < & & & & < 2 2 5 3 3 8 9 9 0 j P 2.8.t.y.M.M.y.y.l.H.R.R.W.W.W.Q.Q.Q.|.|. X/.Q. X[. X X X X X%X.X.X%X%X%X%X&X&X%X%X*X&X&X&X&X&XHXHX&X&X&X&X&X&X*X*X&X*X%X*X*X*X$X*X*X*X*X*X*X$X%X%X%X%X$X$X$X%X*X%X$X$X$X%X%X*X*X*X$X$X$X X X X X X X X X X X X(.(.(.(.(. X(. X(./.^.^.^.^.^.~.~.~.~.~.!.Y.Y.Y.P.P.P.P.P.P.y.y.e.e.e.e.w.q.q.q.<.q.7.7.7.>.;.;.V q h G G G G x x M x k h 0 6 < * * $ $ X X X X X + X X . . . . . . X + X . X % % + #   X # X e w 3 y f s s u Y m m m S S m m m m n n n n m m S S S S m S S S S S S S S S S S Z Z Z S S S S S S S S Z n n n n n n n n v n v v v v v v v v v v v v n v v v v v v c c c v v v v v v v v v v c c c c c c c c f f f p p f c ",
"qXqXqXqXwXwXwXwXtXtXtXtXtXrXtXrXtXrXtXtXdXdXdXdXdXdXdXdXdXdXdXdXSXSXnXnXnXSXSXSXdXdXdXSXdXdXSXdXdXdXdXtXfXfXfXdXfXfXtXtXtXeXeXeXtXtXtXeXwXwXeXeXeXeXeX9X9X8X9X9X6X6X6X8X8X8X3X3X8X3X3X3X2X2X2X2XA.A.C.C.B.f.d.d.o.( D | ~ X.X.X.p.[ e m ! c 2 2 s 5 - 2 4 3 - - - - 2 2 2 2 2 - < & & & & & < < 3 3 3 3 9 9 0 j K 2.8.t.y.M.M.N.y.H.H.R.W.W.W.W.Q.Q.Q.'./. X X X X X X X X X.X X.X%X.X%X%X%X%X&X*X%X&X&X&X&XHXHX&X&X&X&X&X&X&X&X&X&X&X&X&X&X&X*X*X*X*X*X*X*X*X$X$X%X%X%X%X%X%X%X*X%X%X%X%X%X%X*X$X*X$X$X$X X X X X$X$X$X(.(.(.(.(.(.(.(.(. X(.(.(./.^.^.^.^.^.^.^.^.^.~.~.Y.Y.Y.P.P.P.P.P.P.y.e.e.e.e.e.w.q.q.q.q.7.q.7.>.>.:.H h h x J G G G M x M x k h 0 6 < * * $ $ . . X X X X X X . . . . . . X X X X @ % @ X @ . X X # a w r n v s s s Y n m m m S S S m n m n n n n m m S S m m S S S S Z Z S Z Z S S S Z Z Z S m m Z Z S S S m n n n n n n n v n v v v v v v v v v v v v n n n n v v v c c c c v v v v v v v v c c c c c c c c c f f f p p f c ",
"qXqXqXqXwXwXwXtXtXtXtXtXtXrXrXrXdXrXtXdXdXdXdXdXdXdXdXdXdXdXdXdXSXSXnXnXnXnXnXSXdXdXdXdXdXdXdXdXdXdXdXtXfXfXtXdXfXfXtXtXtXeXeXeXtXtXtXeXwXwXeXeXeXeXeX9X9X8X8X9X6X6X6X8X8X8X3X3X3X3X3X4X4X2X2X2XS.A.A.C.B.f.d.d.#.| [ @.| #.d.o.@.} n Y n 5 2 r y 5 - 3 5 2 % 2 2 2 2 2 2 2 - - & & & & & & & & 2 2 2 3 9 9 0 j J 2.r.t.y.M.N.y.y.M.H.H.W.W.W.Q.Q.Q.'.'. X X X X X X.X X.X X.X X.X.X%X%X%X%X%X%X&X&X&X&XHXHXHXHXHX&XHX&XHX&XHX&XGXGXGX&XHX&X&X&X&X&X&X&X*X*X*X%X%X%X%X%X%X%X%X%X*X%X%X%X%X%X%X*X$X*X*X$X$X$X$X X$X$X$X$X X X X X X(.(.(.(.(.(.(.(./.^.^.^.^.^.^.^.^.^.~.~.Y.Y.Y.P.P.P.P.P.P.y.e.e.e.e.w.w.q.q.q.w.7.7.7.>.7.:.U 6 j G I G G G x M M x k h 0 q 1 * * $ X . . X $ X X X X . . . . . . X X X X @ % X . X @ X X ; a w a m n a a c m n n n m m m S S n n n n n n m m S S m S S S S m Z Z Z Z S S S Z Z Z Z Z Z m m m S S S m n n n n n n n v n v v v v v v v v v v v v n n n n v v v c c c c c c c v v v v c c c c c c c c f c f f p p p p p ",
"qXqXqXwXwXwXtXtXtXtXtXtXrXrXdXdXtXtXdXdXdXdXdXdXjXjXdXdXdXdXdXdXSXSXSXSXSXSXSXSXSXSXSXSXdXSXSXdXdXdXdXtXaXaXaXdXfXfXtXtXtXeXeXeXtXtXtXeXeXeXeXeXeXeXeXeX9X8X8X8X6X6X8X8X8X8X3X3X3X3X3X4X4X4X2X2XS.A.C.C.C.f.d.d.#.| @.o.o.#.2X#.@.X./ W c & 3 r e 3 3 8 5 & # 2 2 2 - 2 - - - - & & & & & & & & 2 - 2 3 5 9 0 j J 2.r.y.y.y.N.N.y.M.H.H.W.W.!.!.Q.Q.[.[. X X X X.X.X.X.X.X X.X X.X.X.X%X%X%XGX%XGXGXGXHXHXHXJXHXHXHXHXHXLXGXGXGXGXGXGXGXGXGXHX&X&X&X&X&X&X&X&X&X%X%X%X%X%X%X%X%X*X%X%X%X%X%X%X*X%X%X$X$X$X$X$X$X X X X X X$X X*X(. X X X X(.(. X(. X^.^.^.^.^.^.^.^.^.^.Q.Y.Y.Y.Y.Y.Y.P.P.M.y.y.e.e.e.w.q.q.q.q.w.q.7.7.>.6.;.V 6 x I J G x x x C M x h 0 0 q 5 < * $ $ X $ $ $ X X X X . . . .   . + + + @ # # @ . X - % # 8 f w v S n y y v m n n n n m m S S m m m n n m m m S S S S S S m m Z Z S S S S Z Z Z Z S S Z Z Z Z Z Z Z m m n n n n n n v v v v v v v v v v v v v v v v v v v v v c c c c c c c c v v c c c c c c c c c f f f p p p p p p ",
"qXqXqXwXwXtXtXtXtXtXtXtXrXdXdXdXrXrXdXdXdXdXdXdXjXjXdXdXdXdXjXjXSXSXSXSXSXSXSXSXSXSXSXSXdXdXSXdXdXdXdXtXaXaXaXdXfXfXtXtXtXeXeXeXtXtXtXeXeXeXeXeXeXeXeXeX9X8X8X9X6X6X8X8X8X3X3X3X3X3X3X4X4X2X2X2XS.S.A.C.C.C.f.f.d.@.d.@.#.#.3Xf.d.#.} ] E 5 8 5 4 3 5 8 5 - & 2 2 2 2 - & & & & & & & & & & & & 2 & - 2 3 9 0 j K 2.r.t.t.y.y.N.M.M.M.H.R.!.Q.!.Q.Q.'.[.[.[. X[.{.{.{.{..X.X.X.X.X.X.X.XGXGXGXGXGXGXHXHXJXJXJXJXJXJXHXHXHXHXHXHXLXLXHXHXHXGXHXHXHXHXHXHXHX&XHX&X%X%X%X%X%X%X%X%X*X%X%X%X%X%X%X*X%X%X$X$X$X$X$X$X$X$X X X*X%X*X*X X X X X X(.(.(.(.(. X^.^.^.^.^.^.^.^.^.^.Y.Y.Y.Y.Y.Y.Y.P.P.M.y.e.e.e.w.q.q.q.q.w.7.7.<.:.:.N q j J I J G G x M C M x j 0 0 0 6 < * $ $ $ $ $ $ X X X X . . . . . + + + + # # + # . @ 8 3 @ w a u m m n y r n m m m n n m m S Y S m m m m m m m S S m S S S m m Z Z S S Z S Z Z Z Z Z S Z Z Z Z Z Z Z m m n n n n n v v v v v v v v v v v v v v v v v v v v v v c c c c c c c c c c c c c c c f c c c f f f f p p p p p ",
"qXqXwXwXwXtXtXtXtXtXtXtXrXrXdXdXrXrXdXdXdXdXdXdXjXjXdXdXdXjXjXjXdXdXdXdXdXdXdXdXdXdXdXdXdXdXdXdXdXdXdXaXaXaXtXdXfXtXtXtXtXeXeXeXtXtXtXeXeXwXeXeXeXeXeXeX9X9X8X8X6X6X6X8X8X8X3X3X3X3X4X4X4X3X2X2XS.S.A.A.C.C.C.C.S.C.B.p.d.d.B.d.h.#.@.} ! e e 2 5 5 5 5 3 3 2 2 3 2 2 - & & - - & & & 2 & & & & 2 & - 2 5 9 0 j I 2.t.t.t.t.y.N.M.y.M.H.R.!.W.Q.Q.Q.Q.'.[.[.[.[.[.{.{.{..X.X.X.X.X.X.X%XGXGXGXGXHXLXHXHXJXKXKXKXKXKXKXKXKXKXKXKXLXLXHXHXHXHXHXHXGX%XHXHXHXHXHXHX%X%X%X%X%X%X%X%X&X%X%X%X%X%X%X*X%X%X%X$X%X%X%X%X%X%X*X%X*X*X*X*X$X$X*X*X*X*X(.(.(. X X^.^.^.^.^.^.^.^.^.Q.Y.Y.Y.Y.Y.Y.Y.P.P.P.M.y.y.e.e.w.w.w.w.q.q.7.>.:.H V q G L I G J G M G x M x k h 0 q 6 * * $ $ $ $ X $ X X X X . . . . . + + + + # + . + + - y 4 # y f f m v m s r n S S S m m m m S S Y S S m m m m m S S m m S S S S Z S S S Z m m Z m m S S S S S S Z Z Z m m n n n n n n v v v v v v v v v v v v v v n v v v v v v c c c c c c c c c c c f c c f c c c c f f p p p p p p p ",
"qXqXwXwXwXtXtXtXtXtXtXrXrXrXdXdXrXdXdXdXdXdXdXdXjXjXdXdXdXdXjXjXdXdXdXdXdXdXdXdXdXdXdXdXdXdXdXdXdXdXdXfXaXaXtXdXfXtXtXtXtXeXeXeXtXtXtXeXeXwXeXeXeXeXeXeX9X9X9X9X6X6X6X8X8X8X3X3X3X3X4X4X3X3X2X2XS.S.S.A.A.C.C.C.C.A.#.f.p.C.i.f.p.#.#.X./ 8 r 3 e w 5 3 3 5 3 & 3 2 2 - & & & - & & & - & & & & 2 & - 2 5 9 0 k P 6.t.t.t.t.t.N.M.y.M.H.R.W.Q.W.W.W.W.`.'.[.'.'.{.{.{.{..X{.DXDXDXDXDXGXDXGXGXGXLXLXHXLXKXKXKXKXKXKXKXKXKXKXKXKXLXLXLXLXLXHXHXHXDXGXGXHXHXHXHXHX%X&X*X*X&X&X&X&X&X%X%X%X%X%X%X&X%X%X$X$X%X%X*X%X*X%X%X*X*X*X*X*X X*X*X*X*X*X(.(.(.(.(. X^.^.^.^.^.^.^.^.Q.Q.Y.Y.Y.Y.Y.Y.P.P.P.M.M.M.y.e.w.w.w.w.7.w.7.6.:.N V V K L G x G G x F x x x z k 0 q 1 $ $ $ $ $ X X X X X X X . . . . . @ # + + # @ . . # 3 v 8 @ y f c S c m c r m Y Y Y S m m m S S Y Y S S m m m S S S m m S S S S Z S S S Z m Z Z Z Z S S S S Z Z Z Z Z m m n n n n n n v v v v v v v v v v v v v v n v n v v v v c c c c c f c c c c c c c f f f c c c f c f p p p p p p ",
"wXwXwXwXtXtXtXtXtXtXtXrXrXrXrXrXtXdXdXdXdXdXdXdXdXdXdXdXdXjXjXjXjXjXnXdXdXdXdXdXnXjXjXdXdXdXdXdXdXdXdXdXdXfXtXtXaXaXaXfXtXtXeXeXeXeXwXwXwXwXeXeXeXeX9X9X8X8X8X7X9X6X6X8X6X3X3X3X3X3X3X3X4X2X2XA.2X2XS.S.A.C.C.C.C.C.C.B.f.f.d.h.h.h.p.#.[ c e u 3 r 8 3 3 2 3 3 2 - - - & & & & & & < & & & & & 2 2 & & 9 9 0 k P 6.t.t.t.t.t.N.M.y.M.H.!.W.W.W.'.W.].].'.[.[.[.{.{.DXDXDXDXDXDXDXDXDXDXDXDXGXDXGXGXLXLXIXLXIXLXLXLXIXLXIXLXLXLXLXLXLXIXIXKXLXLXGXHXHXHXHXHXHXHX&X&X&X&X&X&X&X&X&X&X*X%X%X%X&X&X&X&X&X*X*X%X%X%X*X*X*X%X%X%X%X$X*X X X X X X X X X X X X^.^.^. X^.^.^.Q.Q.Q.Q.!.R.R.R.Y.R.R.P.P.y.y.y.y.w.w.w.w.q.t.7.6.6.V 6 N P J G N N G x x M x x x z h q 1 * * $ $ $ $ X . . . . . . . . . X # # + X + + X + + r n r 3 y c c v S v u y m m Y Y Y Y S S S S Y Y S S S m m m S S S S S S S S m Z S S S S S S S Z S n n Z Z S S S S S S S Z Z m n n v v n n n n v v v v v v v v v v v v v c c c c c c c c c f c c c c c c c c c c f f c c c c p a a a ",
"wXwXwXwXtXtXtXtXtXtXrXrXrXdXrXrXtXdXdXdXdXdXdXdXdXdXdXdXdXjXjXjXjXnXjXdXdXdXdXdXjXjXjXdXdXdXdXdXdXdXdXdXaXfXtXtXaXaXaXtXtXtXeXeXwXeXwXwXwXwXeXeXeXeX9X9X8X8X7X7X9X6X6X8X8X3X3X6X3X3X3X3X4X2X2XS.2X2X2XS.A.C.C.C.C.C.C.B.B.f.d.d.d.d.i.#.O.D r e 8 9 3 3 2 2 5 3 2 2 - - & & & - & & & & & & & & 2 2 & & 9 9 0 k L 6.t.t.t.t.t.N.M.y.M.R.W.W.W.`.`.].].].`.`.`.`.}.}.}.}.DXDXDXDXDXDXDXDXDXDXDXDXLXGXLXGXLXLXLXLXIXIXIXKXIXIXIXIXIXIXIXKXIXIXLXIXHXHXHXHXHXHXHXHXGX&X&X&X&X&X&X&X&X&X&X*X%X&X&X&X&X&X&X*X*X*X%X%X&X*X*X%X%X%X%X%X X X X X X X X X X X X X^.^.^.^.^.^.Q.Q.Q.!.Q.Y.Y.R.Y.Y.R.R.P.R.M.M.y.y.t.w.w.w.t.8.7.6.H q V P I J G x x x x x C x x x z h q 1 * # $ $ $ $ X . X X X . . . . . . + # + + + + X + # u n u w s n n n m v y f S Y Y Y Y Y S S S Y Y Y Y S S m m m S S S S S S S S m Z S S S S S S S Z Z m n Z Z S S S S S S S Z Z m n n v v n n n n v v v v v v v v v v v v v c c c c c c c c f f f f f f f f f f c f f f c c c f f f p p ",
"wXwXwXtXtXtXtXtXtXrXrXrXrXrXrXrXdXdXdXdXdXdXdXdXdXdXdXdXjXjXjXjXjXjXjXjXdXdXdXdXjXjXjXdXdXdXdXdXdXdXdXaXaXfXfXtXaXaXfXtXtXtXeXeXwXwXwXwXwXwXeXeXeXeX9X9X9X8X7X7X9X6X6X8X8X3X8X8X3X3X3X3X4X2X2XS.2X2XS.S.A.A.C.C.C.C.B.B.B.f.f.d.h.d.i.i.#.( u 8 c 5 3 5 < 2 5 5 3 2 - - & & & - & & & & & * & & & 2 & & 3 6 0 k ' 6.r.t.t.y.y.N.M.M.H.H.H.H.W.`.`.].].].`.K.K.K.}.`.J.`.DXDXDX}.DXDXDXDXDXDXDXDXLXGXLXLXLXLXLXLXIXIXIXIXIXIXIXIXKXKXKXKXKXKXKXKXLXLXLXLXHXHXHXHXGXGXGXGXGXGXHXGXGXHXGX&X&XGXGX&X&X&X&X&X%X%X&X%X&X&X%X%X*X.X%X%X%X%X X X X X.X.XoXoXoX X X|.|.|.Q.Q.Q.Q.Q.T.T.T.R.R.R.Y.R.R.R.R.R.H.M.y.t.t.t.t.w.8.8.K q q H 2.P K J G N x x x F M x x z h 0 6 < * $ $ $ $ X X $ + X X . . . . X + + + + # + X X 2 a n y y n n m m S n y s Y Y Y S Y Y S Y Y Y Y Y Y S Y S m S S S m m S m m m m Z S S S S S S S S S n m S Z S Z S Z Z Z m m Z m n n v v v v n n v v v v v v v v v v v v v c c c c c c c c f f p p p p p p p p f f f f f f f f f f p p ",
"wXwXtXtXtXtXtXtXrXrXrXrXrXrXdXdXdXdXdXdXdXdXdXdXdXdXdXjXjXjXnXnXjXjXjXjXjXdXdXdXjXjXjXdXdXdXdXdXdXdXdXaXaXfXtXtXdXaXfXtXtXtXeXeXtXtXtXtXtXtXeXeX9X9X9X9X9X8X8X8X9X6X6X8X8X3X6X8X8X3X3X3X2X2X2XS.2X2X2XS.A.A.C.C.C.C.C.B.B.f.f.f.f.f.p.p.%.[ v t W 3 3 8 2 3 5 3 3 2 - - & & & & & & & & * * & & & 2 & & 3 6 0 z 2.6.r.t.y.y.M.N.y.H.H.H.H.H.J.`.`.`.K.K.H.L.L.L.J.J.J.J.K.DXDXDXDXDXDXDXDXDXDXDXDXDXDXLXLXLXLXLXLXLXLXLXLXLXLXLXIXIXKXKXKXIXKXKXLXKXKXLXJXJXJXHXHXHXHXHXHXHXHXHXHXHXHXHXGXHXHXHX&X&X&X&X&X%X&X&X&X&X%X%X*X.X.X.X%X%X%X X X.X.X.XoXoXoX X X X|.|.|.Q.Q.Q.Q.Q.T.T.Y.Y.Y.Y.R.Y.R.R.R.H.H.M.y.t.t.t.8.t.6.j 6 N 6.' P I I J N x x x M M x x z k 0 0 1 < # $ $ $ X X $ + X X . . . . # # + # # # + X + 5 f v s c m m S m m v y c Y Y S S Y Y Y Y Y Y Y Y Y S Y S S S m m m S S m m m m Z S S S S S S S S S n m Z Z S Z Z Z Z Z m m m m n n v v v v n n v v v v v v v v v v v v v c c c c c c c c f f c c c c f f c c p p p p p p f f p a a u ",
"wXwXtXtXtXtXtXtXrXrXrXrXrXdXdXdXdXdXdXdXdXdXdXdXdXdXnXnXjXnXnXnXjXjXjXjXjXjXdXdXjXjXjXdXdXdXdXdXdXdXdXaXdXfXaXaXdXdXtXtXfXtXeXeXtXtXtXtXeXtXtXeXeXeXeXeX9X9X8X8X6X6X8X8X6X3X6X6X8X8X3X3X2X2X2X2X2X2X2XS.S.A.A.C.C.C.C.C.B.f.f.f.f.B.d.%.#.X.W D ~ 3 9 r 9 9 3 2 3 2 2 - & & & & & & & & * * & & 2 2 & & 3 9 0 x 6.0.r.t.y.M.M.N.y.H.H.H.J.J.`.`.`.H.G.t.k.G.k.k.k.k.G.L.L.L.J.K.K.K.DXgXgXgXgXgXDXDXDXDXDXDXDXDXDXDXDXLXLXLXLXLXIXIXIXIXIXIXLXLXKXKXKXHXHXHXHXHXHXHXHXHXHXHXHXHXHXHXHXHXHXHXHXHX&X%X&X%X&X&X&X&X%X%X&X%X%X%X%X%X.X%X%X%X%X%X$X XoXoX X X X|.|.|.|.^.Q.Q.Q.Q.!.!.R.Y.Y.R.R.R.R.R.R.H.H.N.y.t.t.t.t.8.G 6 V 2.6.L P I I G x x x x x x x x z z k 0 5 < * $ X $ X X X X . . . . . . # # # # # + + $ & r c c c m S Y Y m m v a n Y S S Y Y Y Y Y Y Y Y Y Y Y Y S S S S S S S S S S S m Z S S S S S S S Z Z m m S Z S Z Z Z Z Z Z Z Z m n n v v v v n n v v v v v v v v v v v v v c c c c c c c c c f c c c c f f f c p p p p p p p p p a a u ",
"tXtXtXtXtXtXtXrXrXrXrXrXdXdXdXdXdXdXdXdXjXjXdXdXnXnXnXnXnXnXnXnXjXjXjXjXjXjXjXjXjXjXjXdXdXdXdXdXdXdXdXaXdXaXaXaXdXdXtXtXfXtXeXeXtXtXtXtXtXtXtXtX9X9XeX9X9X9X9X9X9X6X6X8X6X3X6X6X6X8X3X4X2X2X2X2X2X2XS.S.S.A.A.C.C.C.C.C.B.B.f.f.p.f.p.#.#.o.] ] Z < 0 i i p 3 3 3 3 2 - & & & & & & & & & * & & - 2 - & 3 9 k F 6.8.t.t.y.M.N.t.t.H.H.H.J.`.`.J.L.k.9.8.0.0.0.6.0.0.9.s.9.9.s.G.L.L.L.L.L.L.J.K.K.K.DXDXDXDXDXDXDXDXDXDXDXDXDXLXLXLXLXLXLXLXLXLXKXKXKXHXHXHXHXHXHXHXHXHXHXHXHXHXHXHXHXJXHXHXHXJX&X%X&X&X&X&X&X&X%X%X&X%X%X%X%X%X.X X%X%X%X%X%X.X X XoXoX X X|.|.|.^.Q.Q.Q.!.!.!.R.Y.Y.R.R.R.P.H.H.H.M.y.t.t.t.t.t.K V V L 6.' ' L P I G G x x x x x x x z z z k 5 < * $ . . . . X X . . . . X + # + + + + X + # 5 s n v m m m Y Y m m n f n Y m S S Y Y Y Y Y Y Y Y Y Y Y S S S S S S S m S S S m Z S S S S S S S S Z n m S S S S S Z Z Z Z Z Z m n n v v v v n n v v v v v v v v v v v v v c c c c c c c c c f p p p p p p p p p p p p p p p p p p p a ",
"wXtXtXtXtXtXrXrXrXrXrXrXdXdXdXdXdXdXdXdXjXjXdXdXnXnXnXnXnXnXnXnXjXjXjXjXjXjXjXjXjXjXjXjXjXjXdXdXdXdXdXdXdXtXaXaXdXdXtXtXfXtXeXeXtXtXtXtXtXtXtXtX9X9XeXeX8X8X9X9X9X6X8X8X6X3X6X6X6X8X3X4X2X2X2X2X2X2X2XS.S.A.A.A.C.C.C.C.B.B.f.f.p.f.p.#.#.o.] ( v 5 l v D D 5 5 5 3 3 2 - - - - & & & & & & & & & 2 - & 9 9 z J 6.8.t.y.y.y.y.t.t.l.H.H.H.J.G.k.9.8.6.6.2.' ' ' ' ' 6.6.6.6.0.0.8.9.s.s.s.s.k.L.L.L.G.G.G.L.J.J.K.K.K.K.DXDXDXDXDXDXGXGXGXGXLXLXKXLXHXHXHXGXGXGXHXHXGXGXHXHXHXHXHXHXHXJXHXHXHXJXJXJX%X%X&X&X&X&X%X%X&X%X%X%X%X%X.X X%X*X%X%X X X X XoXoXoX X|.|.Q.Q.Q.!.T.T.T.T.R.R.R.R.R.M.M.M.M.l.y.t.t.t.t.t.>.V V L 8.6.2.2.' L I J G C x x x x x x z z k k 0 5 < $ $ X X X X . . . . . + # + + # # + X & 3 y m m n Y m n E Y m S m n S E m Y Y Y Y Y Y S S Y Y Y Y S m m m S S S S m m S S m Z S S S S S S S Z Z n m Z Z S S S S S Z S Z Z m n n v v v n n n v v v v v v v v v v v v v c c c c c c c c f f p p p p p p p p p p p p p a p p p p p a ",
"wXwXtXtXtXtXrXrXrXrXrXdXdXdXdXdXdXdXdXnXnXnXjXdXjXnXnXnXnXnXnXnXjXjXjXjXjXjXjXjXjXjXjXjXjXjXjXjXdXdXdXdXdXtXaXfXaXdXfXtXfXtXeXeXtXtXtXtXtXtXtXtX9X9XeXeX9X9X8X8X9X6X8X8X8X3X6X6X6X8X3X4X2X2X2X4X2X2X2XS.S.A.A.A.C.C.C.C.C.B.f.f.f.C.d.i.i.o.( D v r D D ) ) 9 5 8 5 3 3 2 2 2 2 & & & & & & & & & 2 & & 3 9 z J 6.9.k.l.y.t.t.t.l.H.H.H.l.k.9.6.2.2.6.2.' P ' ' ' ' ' ' ' ' ' ' ' ' 2.6.6.0.s.s.s.9.0.0.0.8.s.k.J.J.J.J.J.K.K.}.DXDXDXDXGXGXGXLXLXLXHXHXGXGXGXGXHXHXGXGXGXHXHXHXGXGXHXJXJXHXGXGXJXGXGX%X&X&X&X&X%X%X&X%X*X%X%X%X.X.X*X&X&X%X.X X X X X XoX X|.^.Q.!.T.T.T.W.R.R.W.R.R.R.H.H.H.H.y.y.t.t.t.t.t.9.G 6 U 9.0.2.0.6.' P J G G x x j x x x x z z k k t 9 1 * $ $ $ $ X X . . . + # # + + # - # # 3 r c E S m E m n W E S Y S n Y E m Y Y Y Y S S S Y Y Y Y S S m m m S S S m m m S S m Z S S S S S S S Z Z n m Z Z S S S S S S S Z Z m n n v v v n n n v v v v v v v v v v v v v c c c c c c c c f f f f f f f f f f p p p p p p p p a a u u ",
"tXtXtXtXtXrXrXrXdXdXrXdXdXSXSXSXdXdXdXdXdXdXdXdXnXnXjXjXdXjXjXjXjXjXjXjXjXjXjXjXjXjXjXdXdXdXdXdXdXsXdXdXdXdXdXdXaXaXaXfXfXtXtXtXeXeXeXeXeXeXeXeXeXeXeXwX8X8X9X9X8X6X6X8X6X6X6X8X8X6X3X4X2X2X2X2X3X3X2XS.A.A.S.2XC.C.S.C.f.d.d.B.B.d.i.d.%.o.( Z ] l Z ~ o.W v 9 3 7 2 - 3 & & 2 2 & & & & & & & - - & 2 1 0 x I 6.9.k.k.t.k.G.G.G.t.t.k.9.2.L ' 6.2.' ' ' ' ' ' ' ' ' o.' '  . . . .' ' ' 6.0.0.0.6.' ' ' 2.0.s.G.L.G.k.J.K.J.J.DX{.DXDXDXGXGXLX@XLXLXGX%XGXHX%X&X&XHXHXHXHXHXHXHXHXHXHXHXHXHXHX&X&X&X&X&X&X&X%X%X%X%X%X.X.X.X.X&X.X.X.X&X.X.XoX X X|.|.^.^.Q.Q.Q.Q.^.Q.T.T.T.W.H.H.H.H.H.H.l.l.t.H.l.r.8.t.0.L 6 x L 6.6.6.2.' L P J G G G x j x x x z x x z h k 0 5 * $ $ X . X . . . X + + + X & - # + - w r m m m S S Y Y Y Y Y Y Y Y Y Y S Y Y Y Y Y S S m S Y Y Y Y Y S m S S S m m m m n Z Z Z S S S S S S S m n n m S S S S S Z Z S S S Z n v n n n n v n n n n v v n n v v v v v v c c c c c f f f f f s s s s s s s s p p a p p a a a u u u u ",
"tXtXtXtXtXrXrXrXdXdXdXdXdXSXSXSXdXdXdXdXdXdXdXdXnXnXjXnXdXjXjXjXjXjXjXjXjXjXjXjXjXjXjXdXdXdXdXdXdXsXdXdXdXdXdXdXaXaXaXfXtXtXtXtXeXeXeXeXeXeXeXeXeXeXeXwX8X8X8X9X8X6X6X8X6X6X6X6X8X6X3X4X2X2X2X2X6X3X2XS.A.A.S.S.C.A.2XC.B.d.f.B.f.d.d.d.#.o.[ ) X.~ ( ) @.| ~ 0 3 8 3 2 3 & & 3 2 2 & & & & & & - - & < 1 h G ' 0.9.k.k.k.k.k.k.L.8.2.P K G J I J J J F J J  . . . . . . . . . . . . . . .' ' ' '  .J I I I ' 6.0.k.L.G.L.G.G.L.K.K.}.DXDXGXGXGXDXLXLX%X%X%X&X%X&X&XHXHXHXHXHXHXHXHXHXHXHXHXHXHX&X&X&X&X&X&X&X%X%X%X*X%X.X.XXXXX.XXX.X.X.X.X.X X X X X X X[.Q.Q.T.T.T.T.T.W.R.R.H.l.l.l.k.k.k.t.r.r.9.8.t.t.L j h G 6.0.' ' 2.6.L L P I G C x j j x x z x x z h k 0 6 * $ X X . X . . . X + + + + # # + % 4 u a m m m S S Y Y Y Y Y Y Y Y Y Y S Y Y Y Y Y Y S S Y Y Y Y Y Y S m S S S S m m m m Z Z S S S S S S S S Z m m Z S S S S S Z Z S S S Z n v v n n n v n n n n n v n n v v v v v v c c c c c f f f f f s s s s s s s s f p p p p p p a u u u u ",
"tXtXtXtXrXrXrXrXrXdXrXdXdXSXSXSXdXdXdXdXdXdXdXdXnXnXnXnXnXnXjXjXjXjXjXjXjXjXjXjXjXjXjXdXdXdXdXdXdXdXdXdXdXdXaXaXtXaXtXtXtXtXtXtXeXeXeXeXeXeXeXeXeXeXwX8X8X8X8X9X6X6X6X6X6X6X6X6X6X6X3X4X3X2X3X3X6X3X2XS.A.A.A.A.C.S.2XA.C.f.B.C.f.f.f.d.#.@.@.@.o.X.@.| @.#.X.p 8 r 8 2 2 & & 3 2 & & & & & & & & - - < 1 h J 6.9.t.k.k.k.k.k.9.8.' G N G x x x x x x x J  .' ' ' '  . . . . . .J J J J J J J J J J J J J J I I ' 0.s.G.F.G.k.k.L.L.J.}.}.DX{.DX{.GXGX%X%XGX%X%X&X&XGXGXHXGXHX&XGXHXGXGXHXHXHXHX&X&X&X&X&X&X%X%X%X&X*X*XXXXXXXXX.X.X.X.X.X.X.X X[.[. X[.[.Q.!.W.R.R.R.R.H.H.H.l.t.t.9.8.8.8.8.8.8.6.2.7.8.6.x 6 x J ' ' ' ' ' 2.L ' L I J x x x j j z z x x z h k 0 9 * $ X X . X X + + X + + # # # # # 3 u c n m m S Y Y Y Y Y Y Y Y Y Y Y Y S S S Y Y Y Y Y Y Y Y Y Y Y Y S m S S S S m m m m Z Z S S S S S S S S Z Z Z Z S S S S S Z Z S S S Z n v v n n n n n n n n n n n n v v v v v v c c c c c f c s s s s s s s s s s s f p p p p p p p u u u u ",
"tXtXtXrXrXrXdXdXrXrXrXdXdXSXSXSXdXdXdXdXjXjXdXdXnXnXnXnXnXnXnXnXjXjXjXjXjXjXjXjXjXjXjXdXdXdXdXdXsXdXdXdXdXdXaXaXtXtXtXtXtXtXtXtXeXeXeXeXeXeXeXeXeXeXwX8X8X8X8X9X6X6X6X6X6X6X6X6X6X6X3X4X3X2X3X3X6X3X2X2XS.A.C.A.A.S.S.A.C.B.C.C.B.B.C.f.p.#.%.f.@.@.#.o.@.%.@.D v l 8 & 2 & & 3 2 2 & & & & & & - - 2 < 6 z ' 0.9.t.k.t.k.G.k.8.L G x G I G x j x M N G J I I J B J J J F F F F F F F F F J J J F F J J J J J I ' ' ' 0.k.L.s.9.k.G.L.J.K.}.}.}.{.{.{.%XGXGXGX%X&X&XGXGXHXGXHX&XGXGXGXGXGX&X&X&X&X&X&X&X&X&X%X%X&X&X&X*X*XXXXXXX.X.X.X.X.X.X[.'.W.'.`.'.W.H.H.M.G.y.t.t.r.8.8.8.6.2.2.2.2.2.2.2.L L 2.L H V h h G C C J I ' 2.' ' ' ' I J G x x j j z z z x z h k k 0 * $ X X . + + + + + + # & - # @ 2 u n S m S m S Y Y Y Y Y Y Y Y Y Y Y Y S S S S Y Y Y Y Y S Y Y Y Y Y S m S Y Y S S m m m S S S S S S S S S S S Z Z S S S S S S Z Z S S S S n v v n n n n n n n n n n n n v v v v v v c c c c c f c s s s s s s s s s s s f f f p p f p p a a a a ",
"tXtXrXrXrXrXrXrXrXrXdXdXdXSXdXdXdXdXdXnXnXnXjXdXnXnXnXnXnXnXnXnXjXjXjXjXjXjXjXjXjXjXjXdXdXdXdXdXdXdXdXdXdXaXdXdXaXtXtXtXtXtXtXtXeXeXeXeXeXeXeXeXeXeXeX8XwX8X8X9X6X6X6X6X6X8X8X6X6X6X3X3X2X2X2X2X3X3X2XS.S.A.C.C.A.S.S.A.C.C.C.C.C.C.C.C.B.d.d.f.%.#.#.#.o.@.#.o.( W u < 2 3 2 3 2 2 2 & & & & & - ; 2 < 6 M ' s.9.t.t.t.k.G.t.6.I M x G I I I I J J J G G G G x x x x M F F F F J F F F F F F J F F F F F F J J ' ' I ' 0.s.s.8.9.k.G.L.L.J.`.}.{.}.{.{.%XGXGX%X&X&X&XHXHXHXHXGXGXGXGXGXGXGXGXGX&X&X&X&X&X&X%X%X&X&X%X%X.X X X X X|.|.'.'.'.Q.W.`.`.`.W.G.t.8.7.7.7.6.2.:.L L 2.P K K J J J J G G J I G j q h x F x x x J ' ' ' ' I I I I J C x j z z j z z k h k k 0 < $ X X X + + + + + # - 2 2 - 2 e v Y Y S Y Y Y Y Y Y Y Y Y Y Y Y Y Y Y S S S S Y Y Y Y Y Y Y Y Y Y Y S S S S Y S S S m m S S S S S S S S S S S S S S S S S S S Z Z S S S Z n v v n n n v n n v v n n n n n v v v v v c c c c c f c s s s s s s s s s s s f f f f p p p p a a a a ",
"rXtXrXrXrXrXrXdXdXdXdXdXdXSXSXdXdXdXdXnXnXnXjXjXnXnXnXnXnXnXnXnXjXjXjXjXjXjXjXjXjXjXjXdXdXdXdXdXdXdXdXdXdXaXdXdXaXaXfXtXfXtXtXtXeXeXeXeXeXeXeXeXeXeXeX8XwX8X8X9X6X6X6X6X6X8X8X8X6X6X3X3X2X2X2X2X2X2X2X2XS.S.A.A.A.A.A.C.C.C.C.C.A.C.f.C.C.B.d.d.d.i.%.h.@.@.#.d.o.| v 3 2 3 2 3 3 2 2 < & & & & - 4 2 1 0 J 0.s.t.t.t.k.k.k.8.' J M F I ' o.6.6.' ' ' ' ' ' ' L P J G x x x F F F F F F F F  . .J J J F F J J I  .' ' ' ' 0.0.s.8.9.9.k.G.L.K.}.}.`.`.{..X.X.X.X&X&X&XHXHXHXHXGX&X&XGXGX&X&X&X&X&X&X&X&X&X&X%X%X%X%X%X.X X X X X XoX|.'.'.`.W.J.J.J.J.k.8.2.L P K J G G G G J J N x x x M x x x x x x z h q h x z x x x x M J J I J J J J J C x j x x j j j k h k k 0 < $ X X + + + + + + # 2 5 w 5 e f S E Y S Y Y Y Y Y Y Y Y Y Y Y Y Y Y Y S S S Y Y Y Y Y Y S Y Y Y Y Y S S S S Y S Y S m m S S S S S S Z Z S S S S S S S S S S S Z Z S S S Z n v v n n n v n n v v n n n n v v v v v v c c c c c c c s s s s s f f s s p p f p p f p p p p a a p p ",
"tXtXtXtXtXtXdXdXdXdXdXdXdXdXdXdXdXdXnXnXnXnXjXjXnXnXnXnXnXnXnXnXjXjXjXjXjXjXjXjXjXjXjXdXdXdXdXdXdXdXdXdXdXaXdXdXaXaXaXfXfXtXtXtXeXeXeXeXeXeXeXeXeXeXeXwXwX8X8X9X6X6X6X6X6X8X8X8X6X6X3X3X2X2X2X2X2X2X2X2X2X2X2XS.A.C.C.C.C.C.C.C.C.f.f.C.C.f.d.d.f.d.#.B.@.p.%.d.@.@.~ r 5 3 2 3 3 2 2 2 < & 2 2 2 2 1 1 k  .0.s.t.k.k.k.G.k.6.K B J ' 0.a.a.s.9.s.s.s.s.k.G.G.k.8.0.2.K G G C F J F F F F J  . .J I I J F J I J  .o.o.' ' ' 0.s.0.9.9.9.t.G.L.`.`.H.H.`..X.X.X.X%X&X&XGXGXGXGXGX&X&X&X&X&XGX&X&X&XGXGX&X&X%X%X%X%X%X.X.X.X X X XoX X'.'.Q.W.H.H.G.k.9.6.L J G G G C C x x x x x x z k k z z k k h h h 0 0 h k z h k z z k k k z x z x x M M x x x x x z k j j h h k 0 < $ X $ $ + + + + X # 3 w y y s m Y Y S Y Y Y Y Y Y Y Y Y Y Y Y Y Y Y Y S Y Y Y Y Y S S S Y Y Y Y Y Y S S S S S S Y S S S S S S S S Z Z Z S S S S S S S S S S S Z Z S S S Z n v v n n n v n n n n n n n n v v v v v v v c c c c c f s s s s s s s s s p s p p p p p p a a a a a a ",
"tXtXtXtXtXdXdXdXdXdXdXdXdXdXdXdXdXdXnXnXnXnXnXjXnXnXnXnXnXnXnXnXjXjXjXjXjXjXjXjXjXjXjXdXdXdXdXdXdXdXdXdXdXaXdXdXaXaXaXfXfXtXtXtXeXeXeXeXeXeXeXeXeXeXeXwXwXwX8X9X6X6X6X6X6X8X8X8X8X6X3X3X3X2X2X2XS.2X2X2X2X2X2X2XA.C.C.C.C.C.C.B.C.f.f.B.f.d.d.d.f.f.#.f.@.f.i.@.@.@.] p 9 3 3 9 3 3 2 2 < & 2 2 2 2 1 6 k ' 0.9.k.k.k.k.k.t.2.B I ' 0.s.s.s.z.L.gXK.K.J.J.J.J.L.L.G.k.9.9.0.0.6.' '  .I J F F F J J J F F J J J J ' '  .' ' o.a.0.9.9.9.9.9.G.H.H.G.H.W..X.X.X.X&X&X&XGXGXJXGXGX&X&X&X&X&X&XGXGX&XGXGX&X&X%X%X%X%X%X.X.X.X X[.[.Q.Q.W.R.H.H.t.t.8.0.2.I G x G J J F F F M x z z z k h h h k k k 0 0 0 0 0 h z z z k h k z z k h q 0 h h j z z x x x x z j j k h h k 0 < $ X $ $ + + + + X # 5 r c c n Y Y m m Y Y Y Y Y Y Y Y Y Y Y Y Y Y Y Y S Y Y Y Y Y S S m Y Y Y Y Y Y S S S S S S Y S S S S S S S S Z Z Z Z S S D D S S Z S S S Z Z S S S S n v v n n n v n n n n n n n n v v v v v v c c c c c f f s s s s s s s s s s p p p p p p a a a a a a a ",
"tXtXtXdXtXdXdXdXdXdXdXdXdXdXjXnXjXjXjXnXnXnXnXnXnXnXnXnXnXnXnXnXnXnXjXjXjXjXdXdXjXjXjXjXjXjXjXjXsXsXdXdXdXdXaXaXdXdXdXdXaXfXtXeXeXeXeXeXeXeXeXeXeXeXeXeXeXwXwX9X9X9X9X6X6X6X6X6X3X3X4X2X4X2X4X4X2X2X2X2XS.A.A.A.S.A.A.C.C.C.B.B.B.C.C.C.C.C.h.d.f.h.d.d.p.p.i.i.i.@.o.| Z t 0 2 3 3 3 3 3 3 2 < 2 < 5 0 k ' 9.k.t.k.t.t.k.9.L H J ' a.z.L.gXgXgXgX}.}.}.}.}.}.`.`.}.}.K.K.L.L.G.L.L.s.0.6.'  .J J J F J J I I J I I I ' ' ' '  .9.9.9.9.9.9.9.t.G.t.y.H.`.'..X[.%X%X%XGXJXJXJX&X%X%X&XGXGXGXGX%XHX&X%X%X&X&X%X%X[.%X.X[.'.[.'.Q. XW.H.M.H.t.8.6.L P G C x x x x C C z z k k z z x z k k k t k k 6 0 0 0 0 0 k z 0 k k z z z k k k h h h 0 q h z x z k k z z j z h h 0 1 * $ $ $ + + + X X - e y n m S Y Y Y Y Y Y Y Y Y Y Y Y Y Y Y Y Y Y Y Y Y Y E E E E Y Y Y Y Y Y Y Y Y Y Y S S S S S S S S S S S S S Z Z Z Z S S S S S S S S S S S S S S S S m n n n n n n n n n v v v v v v v v v v v v v c c c f c s s s s s s s s f f p p p p p p a a a u u y u ",
"tXtXtXdXrXrXdXdXdXdXdXdXdXdXjXnXjXjXnXnXnXnXnXnXnXnXnXnXnXnXnXnXnXnXjXjXjXjXdXdXjXjXjXjXjXjXjXjXsXsXdXdXdXdXaXaXdXdXdXdXaXfXtXeXeXeXeXeXeXeXeXeXeXeXeXeXeXwXwX9X9X6X6X6X6X6X6X6X6X3X4X4X2X2X3X3X2X2X2X2XS.A.A.A.A.A.A.C.C.C.C.B.B.C.C.C.C.B.h.d.f.h.d.d.d.p.p.i.i.@.@.X.( D i < 2 3 3 3 3 3 2 2 2 2 5 0 k ' 9.k.t.G.G.G.k.7.K K ' 0.s.L.J.gXgXDXDXDXDX}.}.}.}.}.`.`.}.}.K.K.J.L.K.L.L.G.s.9.0.6.' I I I I I I J I I I I  .' ' I 6.0.9.9.9.9.9.8.t.t.t.G.R.`.'.[.%X%X%XGXJXJXJX&X%X%X%X&XGXGX&X%XHX%X%X%X%X%X.X.X X.X.X'.W.Q.W.W.[.W.y.t.t.t.6.2.P J G x x x x z z z k k k z z z z z k k k k k k 0 0 0 0 0 0 0 h k k k z z k k 0 h 0 0 h 0 0 h h k k k k k k j j h k 0 1 * $ $ $ & + + + # 5 y c S Y Y Y E Y Y Y Y Y Y Y Y Y Y Y Y Y Y Y Y Y Y Y Y E E E E Y Y Y Y Y Y Y Y Y Y Y S S S S S S S S S S S S S S Z Z Z S S S S S S S S S S S S S S S S m n n n n n n n n n v v v v v v v v v v v v v c c c f c s s s s s s s s f f s p p p p p p a a a a u u ",
"tXtXtXdXrXdXdXdXdXdXdXdXdXjXjXjXjXnXnXnXnXnXnXnXnXnXnXnXnXnXnXnXnXnXjXjXjXjXjXjXjXjXjXjXjXjXjXjXdXdXdXdXdXaXtXtXdXdXdXdXaXtXtXtXeXeXeXeXeXeXeXeXeXeXeXeXeXwXwX9X9X6X6X6X6X6X6X8X6X6X3X3X3X3X2X2X3X2X2XS.S.S.A.A.A.A.C.C.C.C.C.C.C.C.C.C.C.B.h.h.f.h.d.d.d.p.p.p.i.#.@.@.o.o.F 5 1 1 5 5 5 3 3 3 2 < 5 0 k ' 9.k.t.k.G.k.9.:.K 2.s.z.L.J.J.K.DXDXDXDXDXDXDX{.{.{.'.}.{.{.}.}.}.K.K.K.K.K.K.L.G.G.8.0.0.0.6.6.' ' ' L I I I I I I K ' 8.k.G.s.9.7.9.8.8.t.H.W.`.{.{.@X%XGXGXJXGXGX%X%X%XGXGXGX%X%XHXXX.X.X.X.X.X.X[.{.].`.W.W.W.H.`.H.t.9.7.6.2.L J G x x x C x z z z k k k z k k k z z z k k k h 0 0 0 0 h h h k x z z z z z k t 0 0 0 0 0 0 q 0 h h k k k k k k k k 0 1 * $ $ $ & + + + 2 u v n Y Y E E E Y Y S Y Y Y Y Y Y Y Y Y Y Y Y Y E E E Y E E E E Y Y Y Y Y Y Y Y Y Y Y S S S S S S S S S S S S S S S Z S S S S S S S S S S Z Z S S S S S m n n n n n n n n n v v v v v v v v v v v v v c c c f f s s s s s s s s f s s p p p p p p a a p p a a ",
"tXtXdXdXrXdXdXdXjXdXdXdXdXjXjXjXnXnXnXnXnXnXnXnXvXvXvXvXvXvXvXvXnXnXnXjXjXjXjXjXjXjXjXjXjXjXjXjXdXsXdXdXdXaXtXtXaXdXdXdXdXfXtXtXeXeXeXeXeXeXeXeXeXeXeX9XeXwXwX9X6X6X6X6X6X6X8X8X6X6X6X6X3X3X3X3X3X2X2XS.S.S.A.A.C.C.C.C.C.C.C.C.C.C.C.C.C.B.f.h.f.h.d.d.d.d.d.d.#.#.@.@.#.i.| p 5 3 5 5 5 3 3 5 5 5 9 0 j ' 9.k.k.G.t.t.8.:.:.9.k.L.K.K.J.K.}.DXDXDXDX.XDX.X.X.X.X{.{.{.{.{.{.{.}.}.}.}.}.}.J.J.L.L.G.G.G.s.9.8.0.0.6.' P I I I J L 6.9.k.k.9.8.8.7.8.t.G.H.`.`.{.@X@X%XGXGXGXGXGX%X%X%X%X%X%X%X%X.X.X.X.X.X'.'.`.'.'.`.W.H.H.G.H.t.9.7.2.L P J G x x z x C z z z z z z z z z k z z z z k h h 0 0 0 0 0 h k k k 0 0 0 0 0 0 0 6 0 0 0 0 0 0 0 q 0 h k z z z k k k k 0 1 $ $ $ + + + + + 3 y n n Y Y Y Y Y Y Y Y Y Y Y Y Y Y Y Y Y Y Y Y Y Y E E Y E E E E Y Y Y Y Y Y Y Y Y Y Y Y Y Y Y Y Y Y Y S S S S S S S S S S S S S S S S S S Z S S S S Z S m n n v n n n n n n v v v v v v v v v v v v v c c c f f s s s s s s s s s s s p p p p p a a p p p p a ",
"tXtXdXdXdXdXdXdXjXjXdXdXjXjXjXjXnXnXnXnXnXnXnXnXvXvXvXvXvXvXvXvXnXnXnXjXjXjXjXjXjXjXjXjXjXjXjXjXdXdXdXdXdXdXfXtXfXfXdXdXaXaXtXtXfXeXeXeXeXeXeXeXeXeXeXeXeX8XwX9X6X6X6X6X8X6X8X8X6X6X6X6X6X3X3X2X2X2X2X2X2XS.S.A.A.A.C.C.C.C.C.C.C.C.C.C.C.B.f.f.f.h.d.d.d.d.d.d.i.#.#.@.@.i.@.F 0 5 3 5 5 5 5 5 5 5 9 0 j ' 9.k.H.G.G.G.t.6.7.G.k.J.K.}.`.}.}.}.{.{.{..X.X.X.X.X.X.X.X{.].[.[.{.{.}.].].].`.`.`.`.K.K.J.L.G.G.t.t.9.9.8.6.6.2.2.P L 2.6.0.8.8.8.8.8.9.t.H.H.K.`.{.{.@X%X%XJXGXGXGXGX%X%X%X%X%X%X.XXX.X.X.X X'.`.[.'.'.`.W.H.t.r.r.9.0.6.L I G G x x j z x x z k k k k z z z z z k k k k h h h h z k h h j j h h h h h h h 0 0 9 h 0 0 0 h h 0 0 0 h k z z z x z k k 0 < $ $ $ $   + & % 4 y m m m m S Y Y Y Y Y Y Y Y Y Y Y Y Y Y Y Y Y Y Y Y Y Y E E E E Y Y Y Y Y Y Y Y Y Y Y Y Y Y Y S S S S S S S S S S S S S Z Z m Z S S S S S Z Z S S S S Z m n n v n n n n n n v n v v v v v v v v v v v c c c f f s s s s s s s s s s s p p p a a a a p a a a u ",
"rXdXdXdXdXdXdXdXjXjXjXjXjXjXjXjXnXnXnXnXnXnXnXvXvXvXvXvXvXvXvXvXnXnXnXnXnXjXjXjXjXjXjXjXjXjXjXjXsXdXdXdXdXdXfXfXtXfXfXaXaXaXtXtXfXfXfXeXeXeXeXeXeXeXeXeXeX8X8X9X9X6X6X6X8X8X6X8X8X6X6X6X6X3X2X2X3X2X2X2X2X2XS.A.A.A.A.A.C.C.C.C.C.C.C.C.C.B.f.f.f.h.d.d.d.d.d.d.d.i.i.@.@.#.@.) l 0 3 3 5 5 5 9 5 5 9 0 j ' 9.k.G.G.G.G.G.8.0.t.k.J.}.}.}.}.}.}.'.'.'.'.'..X.X.X.X.X X[.[.'.].[.[.].].'.[.[.[.[.`.W.`.K.J.H.H.G.G.G.G.G.t.9.9.8.6.2.2.:.2.6.0.8.9.9.t.G.H.H.J.`.[.[.@X%X%XGX%X%XGXGX%X%X@X@X@X%X.XXX.X.X X'.W.W.'.W.W.W.H.t.7.6.7.6.2.' L I G x C x x x x x z z h h h k k z k k k z z x z x x M J J M M N G G B J J F F F F x z z x z z z z z k 0 0 k k z z x k k k 0 < $ $ $ $   + - - 8 c S S m m S S Y Y E E Y Y Y Y Y Y Y Y Y Y Y Y Y Y Y Y Y E E E E Y Y Y Y Y Y Y Y Y Y Y Y Y Y Y Y Y Y Y D S S S S S S S S Z m n m Z S S S S S S S S S S Z m n n n n n n n n n v n v v v v v v v v v v v c c c f f s s s s s s s s s s s p p p a a a a a a u u u ",
"rXaXaXdXdXdXjXjXjXjXjXjXjXjXjXnXnXnXnXnXnXnXvXvXvXvXvXvXvXvXvXvXnXnXnXnXnXnXnXnXjXjXjXjXjXjXjXjXsXsXdXdXdXdXfXfXtXtXtXaXdXaXaXtXaXaXfXeXeXeXeXeXeXeXeXeXeX8X8X9X9X9X6X6X6X6X6X6X8X6X6X6X6X3X2X2X4X4X2X2X2XS.S.S.2XS.A.A.C.C.C.C.C.C.C.C.C.B.f.f.f.h.d.d.d.d.d.d.d.i.i.i.@.#.#.X.S r < < 5 5 5 9 9 5 9 0 j ' 9.k.t.G.G.G.G.t.9.k.J.).`.'.}.{.{.'.'.'.'.'.'.|..X.X X X X[.[.[.[.[.[.[.'.[.[.[.^.Q.Q.`.`.W.W.H.J.J.H.H.H.H.H.H.G.k.k.9.8.0.0.0.8.8.t.t.t.G.H.H.J.`.].[.@X@X%X%X%X%XGXGX%X@X@X@X@X%X.XXX.X.X'.`.W.H.H.H.N.N.t.r.7.>.6.2.L P I I G x C C C C C C C C x x z x x x x x J J  .'  .' ' ' ' ' ' ' ' ' ' ' I I J J F F F F F J I J F F M x h 0 0 k z z z z k k 0 < * $ $ $ . % % % 8 n E Y Y Y Y Y Y Y Y E Y Y Y Y Y Y Y Y Y Y Y Y Y Y Y Y Y E E E E Y Y Y E E E E Y Y Y Y Y Y Y Y Y Y Y Y D D S S S S S S S Z n n n Z S S S S S S S S S S Z m n n n n n n n n n n n v v v v v v v v v v v c c c f c s s s s s s s s s s s p p p a p a a a a a u u ",
"rXrXaXdXdXdXjXjXjXjXjXjXjXjXjXnXjXnXnXnXnXvXvXvXvXvXvXvXvXvXvXvXnXnXnXnXnXnXnXnXjXjXjXjXjXjXjXjXsXsXdXdXdXdXfXfXtXtXtXaXdXdXtXtXaXaXfXfXfXeXeXeXeX9X9X9X9X8X9X9X9X9X9X6X6X6X6X6X8X6X6X6X6X3X2X2X4X4X2X2X2XS.S.S.2X2XS.A.C.C.C.C.C.C.C.C.C.C.C.C.h.h.d.d.d.d.d.h.p.#.#.p.i.p.i.@.~ t < < 5 5 5 9 9 5 9 0 k ' 9.k.G.L.G.t.k.k.G.J.).).`.`.'.'.'.).'.'.'.'.'.'.|..X[.[.[. X[.[.[.[.[.'.[.[.Q.Q.Y.R.Q.Q.Q.W.!.W.W.W.`.H.H.H.H.H.H.G.J.L.k.k.t.t.t.9.t.t.t.G.G.H.K.].].[.{.@X%X%X%X%XGXGX%X@X@X@X@X%X.X.X.X X'.`.R.H.y.r.w.t.t.8.6.6.2.' I K K I J G C G G C C C F J J J J I ' ' ' ' ' 6.0.8.8.0.9.9.0.6.6.2.' 2.2.2.' ' ' I I  .' ' J ' ' '  .I J M k h 0 k z M M x k k 0 1 * $ $ + + + + + 8 S Q Y E Y Y Y Y Y Y Y Y Y Y Y Y Y Y Y Y Y Y Y Y E E E Y E E E E Y Y Y Y E E E E Y Y Y Y Y Y Y Y Y Y Y D D D S S S S S S Z n n n Z S S S S S S S S S S Z m n n n n n n n n n n n v v v v v v v v v v v c c c f c s s s s s s s s s s s p p p a p a a a a a u u ",
"dXdXdXdXdXdXdXdXjXjXjXjXjXjXjXjXvXvXvXvXvXvXvXvXnXvXvXvXvXvXvXnXjXjXjXjXjXjXjXjXvXnXjXjXjXdXjXjXjXjXjXdXsXdXdXdXdXdXdXdXdXaXdXdXfXfXfXaXaXeXaXeXaX9XuX9XuX9X9X9X6X9X6X6X9X6X6X8X8X8X6X6X6X3X3X4X2X2X2X2X2X2XS.S.S.S.A.A.A.A.C.C.A.A.C.C.C.C.B.B.h.h.h.h.f.h.h.g.h.%.%.%.d.p.@.o.W i 3 2 5 5 5 5 8 8 0 0 h J k.k.G.G.H.G.G.H.H.J.`.`.W.`.`.`.`.`.'.'.'.`.'.'.|.|.{.{.{.{.{.{.{..X.X.X X X X X[.[.!.!.!.!.!.W.R.R.!.W.W.W.H.H.H.H.l.l.H.H.l.l.k.t.k.t.t.t.G.L.K.K.{.{.%XGXGXGX%XGXJXGX%X%X%X%X.X%X X[.'.`.`.W.).H.H.t.t.r.9.8.6.2.K P I K J J J J G G C G J J J G J I P ' 2.6.0.8.9.9.9.t.t.t.t.t.k.t.9.8.8.0.6.6.2.6.6.2.' ' ' 2.' L L I I J C M z k k z x z x z z k 0 < $ $ $ + & % + * 8 v W D D D E E E E E S E Y Y Y Y Y Y Y Y Y Y Y Y E E E Y Y Y Y Y Y Y Y Y Y E E E E E E E Y Y S Y Y Y Y S S S S S S S S S S S S S S S S S S S S S S S S S m n v v v n n m n n v v v v v v v v v v v c c c c c c f f f f p p f f f p p p p f f f p p p p u u y y ",
"dXdXdXdXdXdXdXdXjXjXjXjXjXjXjXjXvXvXvXvXvXvXvXvXvXvXvXvXvXvXvXvXjXjXjXjXjXjXjXjXvXnXjXjXjXdXjXjXjXjXjXsXsXdXdXdXdXdXdXdXdXaXdXdXfXfXfXaXaXaXaXaXuXuXuX9XuX9X9X9X6X9X6X9X9X6X6X8X8X6X6X6X8X3X4X4X2X2X2X2X2X2XS.S.S.S.A.A.A.A.C.C.A.A.C.C.C.C.B.B.h.h.h.h.f.h.h.h.g.%.#.#.p.p.@.o.( l 5 5 5 5 5 8 8 9 0 0 h J k.k.G.H.H.H.H.H.L.J.`.`.K.`.`.`.`.`.`.`.`.).).).|.).`.`.`.`.`.`.`.].{. X X X X[.[.[. X/.Q.!.!.!.!.!.M.H.H.H.H.H.H.H.H.H.H.H.l.l.l.k.k.t.t.k.H.L.K.`.{.{..X%X%X%X%X%XGXGX%X%X%X%X.X X[.[.'.'.`.W.R.H.l.t.8.7.6.6.2.L J J J J J J J K P P P P L L ' L 6.0.8.9.r.t.k.k.k.k.l.G.H.H.M.N.k.t.t.t.t.t.9.9.9.9.8.6.2.L L L L P P P K J J C x x z z j k z z z k 0 < $ $ + + + + + & r Z D D S D D D E E E S E Y Y Y Y Y Y Y Y Y Y Y Y E E E Y Y Y Y Y Y Y Y Y Y E Y E E E E E Y Y S Y Y Y Y S S S D S S S S S S S S S S Z S S S Z Z S S Z Z S m n v v v v v m n n v v v v v v v v v v v c c c c c c f f f f p f f f f p p p p p f p p p p p u y y u ",
"dXdXdXdXdXdXdXdXjXjXjXjXjXjXjXjXvXvXvXvXvXvXvXvXvXvXvXvXvXvXvXvXjXjXjXjXjXjXjXjXvXnXjXjXjXdXjXjXjXjXjXsXsXdXdXdXdXdXdXdXdXaXdXdXfXfXfXaXaXaXaXaXuXuXuX9XuX9X6X9X6X6X6X6X6X6X6X6X6X6X6X6X6X6X4X3X2X2X2X2X2X2X2XS.S.S.S.A.A.C.C.C.A.A.C.C.C.C.C.B.d.d.h.h.f.f.f.f.p.#.#.#.i.#.@.o.] b 0 5 5 5 5 9 8 9 0 0 h J k.k.G.H.H.H.H.J.J.J.`.`.`.).`.`.`.`.).).T.T.T.T.T.T.W.W.).W.W.W.`.W.W.W.!.!.!.!.!.!.^.^.!.Y.!.!.!.Q.R.R.R.R.R.H.H.H.R.H.H.H.H.H.H.H.H.G.k.G.H.H.K.`.`.{.{.%X@X@X%X%XGXGX%X%X%X%X X X[.[.'.'.`.W.H.H.t.r.6.2.2.L L I J H K K K P L L 2.6.6.6.6.0.0.0.9.t.k.k.G.G.G.G.y.y.y.y.t.y.t.t.t.t.r.r.r.9.8.8.9.9.8.0.2.2.2.2.L L P P P I J J F x z z k k z z z z 0 1 $ $ + # . + % 4 a D D D D D D D E E E E E Y Y Y Y Y Y Y Y Y Y Y Y Y E E E E E Y Y Y Y Y Y Y Y Y Y Y Y Y E Y Y Y Y Y Y Y S S D D S S S S S S S S S Z S S S S S S S S S S Z Z n n v v v v m n n v v v v v n n v v v v c c c c c c f f c f p p f f f f p p p p p p p p p p y u r r ",
"dXdXdXdXdXdXjXjXjXjXjXjXjXjXnXnXvXvXvXvXvXvXvXvXvXvXvXvXvXvXvXvXnXnXnXjXnXnXnXnXvXnXjXjXjXdXjXjXjXjXjXsXsXdXdXdXdXdXdXdXdXaXdXdXfXfXfXaXaXaXaXaXuXuXuX9XuX9X6X6X6X6X9X9X6X6X6X6X6X6X6X6X6X6X3X4X3X3X4X2X2X2X2X2XS.S.S.A.A.A.C.C.A.A.C.C.C.C.C.B.d.d.h.f.d.d.f.d.d.i.i.i.i.i.#.o.| F t 0 9 5 5 8 8 9 0 0 h J k.k.J.H.J.J.J.J.J.J.).).).).).).).).).W.T.T.T.T.R.R.R.R.W.W.W.W.W.W.W.W.R.R.R.R.R.R.P.P.M.M.M.M.R.R.R.R.R.R.P.P.P.M.R.H.H.H.H.H.H.H.H.H.H.G.H.H.J.`.'.[.{.%X%X%X%XGXGXGX%X%X%X%X X X[.[.'.'.'.W.H.H.y.r.2.:.L L P K P P P P L L 2.6.6.6.0.8.8.9.9.t.k.l.H.J.J.J.W.W.).W.R.R.H.H.P.M.H.H.y.y.t.t.t.t.7.0.6.6.2.2.2.6.2.2.2.L L I I J C x x x z x x M z z 0 1 $ $ + # + # - 8 c D D D D D D E E E E E E Y Y Y Y Y Y Y Y Y Y Y Y Y Y E E E E Y Y Y Y Y Y Y Y Y Y Y Y Y E Y Y Y Y Y Y Y S S D S S S S D S S S S S S S S S S S S S S S S Z Z m n n v v v n n v v v v v v n n v v v v c c c c c c c c c c p p f f f f p p a p p p p p a a y u r r ",
"dXdXdXdXdXjXjXjXjXjXjXjXjXnXnXnXvXvXvXvXvXvXvXvXvXvXvXvXvXvXvXvXnXnXnXjXnXnXnXnXvXnXjXjXjXdXjXjXjXjXjXsXsXdXdXdXdXdXdXdXdXdXdXdXfXfXfXaXaXaXaXaXuXuXuX9X9X9X9X9X6X9X9X9X9X6X6X6X8X6X6X6X6X6X3X3X3X3X3X2X2X2X2X2XS.S.S.S.A.C.C.C.A.A.A.A.C.C.C.B.h.B.f.f.f.f.d.f.j.a.i.a.a.i.i.o.o. .z 0 0 0 0 0 0 0 9 0 h J k.k.J.J.J.J.J.J.J.).`.).).).).).).W.T.T.T.T.T.T.R.R.R.R.R.R.W.W.W.W.Q.Q.Q.Q.Q.Q.Q.Q.Y.Y.P.M.M.y.e.e.e.e.e.y.y.y.y.y.R.R.H.H.H.H.H.H.H.H.H.H.H.H.H.W.`.'.{.%X%X%XGXJXGXGX%X%X%X.X X[.[.'.Q.Q.Q.W.H.H.y.r.6.:.L L L P L L L L L 2.6.6.7.7.8.9.9.t.t.G.H.R.).).).`.'.'.Q.Q.T.R.R.Y.Y.Y.R.M.M.y.y.y.t.t.8.7.6.2.2.L ' L 2.2.2.' ' L I J C M x M x x x M z k 0 1 $ $ + + + & 2 r v D D D D D D F E E E S E Y Y Y Y Y Y Y Y Y Y Y Y Y Y Y E E Y Y Y Y Y Y Y Y Y Y Y Y Y Y Y Y Y Y S S Y Y S S S D S S D D S S D S S S S S S S S S S S S S Z Z Z m n n v n n n n v v v v v n n v v v v c c c c c c c c c c p f f f f p p p p p p p a a a a y y u r ",
"dXdXdXdXjXjXjXjXjXjXjXjXnXnXnXvXvXvXvXvXvXvXvXvXvXvXvXvXvXvXvXvXvXvXvXvXvXvXvXvXvXnXjXjXjXdXjXjXjXjXjXsXsXdXdXdXdXdXdXdXdXaXdXdXfXfXfXaXaXaXaXaXuXuXuX9X9X9X9X9X9X9XuXuX9X6X6X6X6X6X6X6X6X6X3X3X3X3X3X2X2X2X2X2X2X2XS.S.A.C.C.C.A.A.A.C.C.C.Z.B.B.B.f.f.f.f.j.j.j.j.a.a.a.0.0.0.o. .z 0 5 5 9 8 0 0 0 0 h J k.k.L.J.J.J.H.J.J.).).).).).).).).T.T.T.T.T.T.R.R.R.R.R.R.R.R.W.W.W.!.!.!.!.!.!.!.!.!.!.!.P.P.M.y.y.e.e.e.e.e.e.e.e.y.y.y.l.l.H.H.H.H.H.H.H.H.H.H.W.W.'.[..X%X%XJXJXGXGXGX%X%X{.[.[. XQ.Q.W.W.R.H.H.t.r.6.:.:.L L L L ' 2.2.2.2.6.7.8.8.r.r.r.t.t.y.y.y.y.y.y.y.H.R.y.y.e.e.e.e.w.w.w.w.w.w.q.q.q.q.7.6.2.:.L P P P L P P L L L I I G G G F M z x z k k 0 1 $ $ $ # + + 2 u v D D W D D D D E E E E E Y Y Y Y Y Y Y Y Y Y Y Y Y Y Y Y Y Y Y Y Y Y Y Y Y Y Y Y Y Y Y Y Y Y Y S S Y Y S S D D S S D D S S D S S S S S S S S S S S S Z Z Z Z Z m n n n n n v v v v v n v n v v v v c c v c c c c c c c p p f f f p p p p p p p a a a a y u r r ",
"jXjXdXjXjXjXjXjXjXjXjXnXnXnXvXvXvXvXvXvXvXvXvXvXvXvXvXvXvXvXvXvXvXvXvXvXvXvXvXvXvXnXjXjXjXdXjXjXjXjXjXdXsXdXdXdXdXdXdXdXdXaXaXaXfXfXfXaXaXaXaXaXaXaXuX9X9X9X9X9X9XuXuXuX9X9X6X6X6X6X6X6X8X6X6X3X3X3X3X2X2X2X2X2X2X2X2XS.A.A.C.C.A.A.A.C.A.C.Z.C.C.B.B.f.f.j.j.j.s.s.s.s.s.s.9.0.'  .z 0 6 5 9 0 r 0 0 0 h J k.k.J.J.J.J.H.J.J.).).).).).).).).).T.T.R.R.R.R.R.R.R.R.R.R.R.R.R.R.R.R.R.R.R.R.R.R.R.Y.R.M.M.M.M.M.M.y.y.e.e.q.q.q.e.y.y.y.y.y.y.y.M.M.R.H.M.M.H.R.W.!.[.[.#X@X%X%X%XGXGXGX%X.X[.'.Q.Q.!.W.R.H.y.y.r.7.2.:.:.:.L L :.2.2.2.2.6.7.7.8.7.7.7.7.q.q.q.q.q.w.w.w.y.e.y.y.y.y.y.e.e.w.q.q.w.q.q.q.<.7.7.>.:.:.K K K K K K K K P L L I I I J J J M x z z k k 0 1 $ $ $ # # # 5 p Z D D D D E F E E E E E E Y Y Y Y Y Y Y Y Y Y Y Y Y Y Y Y Y Y Y Y Y Y Y Y Y Y Y Y Y Y Y Y Y Y Y S Y Y Y S S D D S S S S S S D S S S S S S S Z S S S S Z Z S S S Z n n v n n n v v v v v v v v v v v c c v v c c c c c c p f f f f p p p a a a a a a a u r r r r ",
"jXjXdXjXjXjXjXjXjXjXjXnXnXvXvXnXvXvXvXvXvXvXvXvXvXbXbXbXbXbXbXvXvXvXvXvXvXnXvXvXvXnXjXjXjXdXjXjXjXjXjXsXsXdXdXdXdXdXdXdXdXaXaXaXfXfXfXaXaXaXaXaXaXaXuX9X9X9X9X9XuXuXuXuXuX9X6X6X6X6X6X6X8X6X6X3X3X3X3X2X2X2X2X2X2X2X2XS.A.A.C.C.A.A.A.C.C.C.C.C.C.C.A.f.j.j.j.s.z.z.z.z.z.k.k.s.6.' M h 0 0 r t r 0 0 0 h J k.k.J.J.H.H.H.J.J.).).).).).).).).).T.).R.R.R.R.R.R.H.H.R.H.R.R.R.R.W.W.W.W.W.W.Q.Q.!.R.H.M.y.y.y.y.y.e.e.e.e.q.w.w.e.e.y.y.y.y.y.y.M.P.R.P.M.M.P.R.R.W.Q.[.[.#X@X%X%XGXGXGX.X.X[.'.Q.!.T.R.R.y.t.r.7.6.:.:.:.L P P P L :.:.2.2.2.6.3.>.>.>.<.7.<.<.q.w.y.y.P.R.R.Y.R.P.R.P.P.y.e.e.q.q.q.q.>.>.>.>.:.:.K H G G N N K K K P L L P I I J J J M x z x z k 0 1 $ $ * * & < 0 v F F S Z D E F E E E E E E Y Y Y Y Y Y Y Y Y Y Y Y Y Y Y Y Y Y Y Y Y Y Y Y Y Y Y Y Y Y Y Y Y Y Y Y Y Y Y S S S S S S S S S S D S S S S S S S Z Z S S S S Z S S S Z m n v n v v v v v v v v v v v v v c c v v v c c c c c p f f f f p p p a a a a a a a u r r r e ",
"jXjXdXjXjXjXjXjXnXnXnXvXvXvXvXvXvXvXvXvXvXvXvXvXvXvXvXbXbXbXbXbXvXvXvXvXvXvXvXvXvXvXvXnXnXjXjXjXdXdXsXdXdXdXdXdXjXjXjXdXdXdXdXdXfXfXaXfXaXaXaXaXaXaXuX9X9X9X9XuX9XuXuXuXuX9X6X6X9X9X6X6X6X6X8X8X3X3X2X2X3X2X2X2X2X2X2XS.2XS.A.A.A.A.A.A.C.C.C.C.C.C.f.j.j.z.z.s.z.z.l.z.k.k.z.z.8.2.B h 0 0 0 0 t t k k j J k.G.J.J.J.J.W.).`.`.).).).).).).).).R.H.H.l.l.y.y.y.y.H.H.M.y.H.R.R.W.`.`.H.H.H.H.H.W.H.y.t.y.w.q.w.y.y.w.w.w.e.e.q.q.e.y.y.y.y.y.y.y.M.M.P.R.P.P.M.H.R.!.`.[.%X%X%X%X%XGXGXDX.X.X.X'.!.W.R.H.y.r.7.>.;.K K L P K K L :.2.2.2.6.2.;.:.:.>.>.7.r.y.y.y.w.w.y.y.P.Y.R.R.Y.R.P.M.y.e.e.q.q.q.<.>.>.:.;.:.K K H H G G N N G K P L L L P P I I J G x x z z z h 1 $ $ < < * 1 r v S F F S F E E E E E E E Y Y Y Y Y Y Y Y Y Y Y Y Y Y Y Y Y Y Y E Y Y Y Y Y Y Y Y Y Y Y Y Y Y Y Y Y Y Y Y Y S S S S S S S D S S S S S S S S S S S S S S S m S S S m n n n n n n v n n n n v v v v v v v v c v v v v c c f f f c f f p p a a a p p a a u y r e e e ",
"dXjXjXjXjXjXjXjXnXnXvXvXvXvXvXvXvXvXvXvXvXvXvXvXvXvXvXvXbXbXvXbXvXvXvXvXvXvXnXnXvXvXvXnXnXjXjXjXdXdXsXdXdXdXdXdXjXdXjXdXdXdXdXdXfXfXaXfXaXaXaXaXaXuXuXuX9X9XuXuX9XuXuXuXuX9X6X6X9X9X6X6X6X6X8X8X4X4X3X2X2X2X2X2X2X2X2XS.2XS.A.A.A.D.A.A.C.C.C.C.C.A.f.j.j.z.k.k.l.l.l.l.l.l.l.z.k.0.K x h 0 0 0 0 0 h k j K G.L.J.J.R.R.W.`.`.`.}.).).).).).R.R.R.R.H.l.y.y.y.l.y.H.H.y.y.H.J.R.H.t.t.r.8.8.9.9.t.t.8.8.t.t.w.t.w.w.w.w.w.y.w.q.w.e.e.y.y.y.y.M.y.M.M.P.P.P.P.P.R.R.!.Q.[.$X%X%X%X&XGXGXDX.X.X.X'.Q.T.R.H.y.q.7.>.;.K K L K K K L L :.:.:.2.:.:.7.7.q.q.q.r.t.y.y.t.y.y.y.M.R.M.R.R.M.M.y.y.t.w.q.q.q.<.>.>.:.;.K H G N N N x x N G K P L L L L P I I J G x x x z z h 6 $ $ * * * 5 r z b M F F F E E E E E E E Y Y Y Y Y Y Y Y Y Y Y Y Y Y Y Y Y Y Y E Y Y Y Y Y Y Y Y Y Y Y Y Y Y Y Y Y Y Y Y S S S S S S S S D S S S S S S S S S S S S S S S m S S S m n n n n n v v n n n n v v v v v v v v c v v v v c f f p p c f p p p a p p p p a a u y u r r r ",
"dXjXjXjXjXjXjXjXnXnXnXvXvXvXvXvXvXvXvXvXvXvXvXvXvXvXvXvXvXvXvXvXvXvXvXvXvXvXvXvXvXvXvXnXnXjXjXjXdXsXsXsXdXdXdXdXdXdXdXdXdXdXdXdXfXaXaXfXaXaXaXaXaXaXuX9X9X9XuXuX9XuXuXuXuX9X6X6X9X9X6X6X6X6X8X8X3X4X3X4X2X3X2X2X2X2X2XS.2XS.A.A.A.D.A.A.C.C.V.C.C.A.j.j.s.z.z.k.r.l.l.v.v.v.v.l.l.8.' N j h h 0 0 k k k j I G.J.J.J.R.W.W.`.`.`.'.'.}.).).R.R.H.H.H.l.y.t.t.y.l.l.l.l.t.t.r.r.9.2.L :.2.L K K H L :.P K :.2.2.6.7.7.q.q.w.t.t.w.w.w.w.w.y.y.y.y.y.M.M.P.P.P.P.Y.Y.R.!.W.'.[.%X%X&XGXHXLXGX.X.X.X|.Q.T.R.H.y.q.3.>.;.H K K K K K K :.:.;.:.3.3.3.7.7.q.q.r.r.r.t.r.r.y.l.y.l.H.H.H.H.H.l.y.t.t.t.w.w.q.7.>.>.:.:.K H G N x x x x N G K P L L L L L P I J G C x x x x h 6 $ $ * * < 5 0 k z M M F F D E E E E E E Y Y Y Y Y Y Y Y Y Y Y Y Y Y Y Y Y Y Y Y Y Y E Y Y Y Y Y Y Y Y Y Y Y Y Y Y S S S S S S D D D D Y D S S S S S S S S S S S S S S S m S S S m n n n n n n n n n n n v v v v v v v v c v v v v c f f p p c p f p p a p p p p a a u u y r r e ",
"jXjXjXjXjXjXjXjXnXnXnXvXvXvXvXvXvXbXvXvXvXvXvXvXvXvXvXvXvXvXvXvXvXvXvXvXvXvXvXvXvXvXvXnXnXjXjXjXjXjXsXdXsXdXdXdXdXdXdXdXdXdXdXdXfXfXaXfXaXaXaXaXaXaXuX9X9X9XuXuX9XuXuXuXuX9X6X6X9X9X6X6X6X6X8X8X6X3X3X4X2X3X2X2X2X2X2X2X2XS.A.A.D.D.D.A.C.C.C.C.C.A.j.j.s.z.z.k.r.u.u.l.v.v.v.v.v.r.4.B x x k k k k h z j P G.J.J.J.W.W.W.`.`.`.`.'.'.`.).).R.H.l.l.l.t.t.t.t.t.k.t.r.6.2.P H G N x N G N K ' G J L K N N N N N H :.>.7.7.q.q.q.r.w.w.w.y.y.y.P.R.R.P.P.P.P.Y.Y.Y.R.R.!.Q.'.[.%XGXGXHXHXDX.X.X.X|.Q.T.R.H.y.q.>.:.;.H H K K K K H K ;.;.2.7.7.7.7.7.q.r.r.r.r.r.t.t.l.H.t.l.H.t.t.t.t.r.8.8.8.8.7.7.7.6.2.2.2.:.P K J G x x x x N G K L L L L L ' ' P J G C x x x x k 6 * * < * * < 0 k z z M M F D D E E E E E Y Y Y Y Y Y Y Y Y Y Y Y Y Y Y Y Y Y Y Y Y Y Y Y Y Y Y Y Y Y Y Y Y Y Y Y Y S S S m S S S D D Y Y D S S S S S S S S S S S S S S S m S S S m n n n n n n n n n n n v v v v v v v v c v v v v c c f p p c p f p p a p p p p a a u u r e 8 8 ",
"jXjXjXjXjXjXjXjXvXvXvXvXvXvXvXvXvXvXvXvXvXvXvXvXvXvXvXvXvXvXvXvXvXvXvXvXvXvXvXvXvXvXvXnXnXjXjXjXjXjXjXdXsXsXdXdXsXsXdXdXdXdXdXdXfXfXfXfXaXaXaXaXaXaXuXuXuXuXuXuX9XuXuXuXuXuX6X6X9X9X6X6X6X6X6X6X6X6X6X3X3X2X2X2X2X2X2XS.S.S.A.A.D.D.D.A.C.C.>XC.V.A.A.j.k.z.z.k.5.5.5.u.u.l.v.v.v.r.4.B N x x x z z k z j P L.J.J.W.W.W.).`.`.`.`.`.`.`.).W.R.J.H.H.l.k.l.k.r.8.8.2.L H N N x x J x x j j ' s.0.' 0.6.J x x x N x H :.:.:.>.3.7.q.q.t.y.y.y.R.T.Q.!.Y.Y.Y.Y.Y.Y.Y.Y.R.!.W.'.[.%XGXGXHXHXDX.X.X.X|.Q.T.R.R.y.q.>.>.;.H H K K K K H ;.>.3.7.7.7.7.8.r.r.q.q.7.7.7.7.7.6.2.:.:.2.K :.:.K K H H K K K ;.:.L L L L L I J G M x x x x N G K L 2.2.2.2.' ' P I J G C x x M z 9 < < 1 * $ < 0 k z x M M S S E E E E E D Y Y Y Y Y Y Y Y Y Y Y Y Y Y Y Y Y Y Y Y Y Y E Y Y Y Y Y Y Y Y Y Y Y Y Y Y Y Y S Z S S S D D Y Y D S S S S S S S S S S S S S S S m Z S S m v v v v n v n n n n n v v v v v v v v c v v v v c c c f f c f p p p a p p p p a a u u r e 8 8 ",
"jXjXjXjXjXjXjXnXvXvXvXvXvXvXvXvXbXbXbXbXbXbXbXbXvXvXvXvXvXvXbXvXvXvXvXvXvXvXvXvXvXvXvXnXnXjXjXjXjXjXjXjXsXsXsXsXsXsXdXdXdXdXdXdXfXfXfXfXaXaXaXaXaXaXaXuXuXuXuXuX9XuXuXuXuXuX6X6X9X9X6X6X6X6X6X6X6X6X6X3X3X2X2X2X2X2XS.S.S.S.A.A.D.D.D.A.C.C.,X,XV.A.A.j.z.z.z.k.u.5.5.5.5.u.v.v.v.u.3.;.J B B M F Z z z j P J.J.J.W.W.W.`.`.`.`.`.`.`.`.W.J.H.H.J.l.k.r.8.8.4.;.K G x x N J ' 2.I x x k k 0.D.a. .a.0.J x x M N x L 8.9.7.6.6.7.3.q.q.r.t.y.R.Q.|.^.^.!.!.Y.Y.!.Y.Y.!.!.W.'.[.@X%XGXHXGXDX.X.X.X'.Q.Q.T.R.y.r.7.>.;.H H K K K K K >.7.r.r.r.7.3.7.7.3.>.:.;.;.H N V V V V N N V N N V j j j j V V V N N N G J J G G G M x x x x x G K L 2.2.2.2.2.2.' I J G C x x C z q 1 < 1 * $ < 0 k x M x M M S D E W E E D Y Y T T T T T T Y Y Y Y Y Y Y Y Y Y Y Y Y Y E Y Y Y Y Y Y Y Y Y Y Y Y Y Y Y Y Y S S S S S D D Y D S S S S S S S S S S S S S S S m Z S S m v n n n v n n n n n n v v v v v v v v c v v v v c c c f f c f p p p a p p p p a a u u r r 8 8 ",
"jXjXjXjXjXjXnXnXvXvXvXvXvXvXvXvXbXbXbXbXbXbXbXbXbXbXvXvXvXvXbXbXvXvXvXvXvXvXvXvXvXvXvXnXnXjXjXjXjXjXjXjXjXdXdXdXsXsXsXdXdXdXdXdXfXfXfXfXaXaXaXaXsXaXaXuXuXuXuXaX9XuXuXuXuX9X6X6X9X9X6X6X6X6X6X6X6X6X6X6X3X2X2X2X2X2XS.S.S.S.A.A.D.D.D.A.S.Z.,X,XC.A.j.j.k.z.z.k.u.u.u.u.u.u.c.c.v.l.u.8.6.4.'  . .F z z j P J.J.).W.W.W.`.'.`.'.`.`.`.`.W.H.H.G.k.t.8.2.;.H B N N x x I 2.0.s.D.' z z M x ' a.o.M o.o.M z M J M B 0.L.K.G.t.r.t.7.q.q.q.q.t.M.R.|.^.^.Q.!.!.!.!.Y.!.!.!.Q.[.[.$X.X.XGXGX.X.X.XXX'.Q.Q.Q.T.y.t.q.>.;.H H K K K H ;.3.r.r.r.8.3.:.:.;.;.:.:.;.K H N V h j x J J x N x j h h h h j h j j j j j j j z x x x x x x x x N K L 2.2.2.2.2.2.' P I G C C x M z q 1 * < * < 5 t z M M M M M Z D E W E E S Y Y T T T T T T Y Y Y Y Y Y Y Y Y Y Y Y Y E E Y Y Y Y Y T Y Y Y Y Y Y Y Y Y Y Y S S S S S S S S D S S S S S S S S S S S S S S S m S S S m n n n n v n n n n n n n v v v v v v v c v v v v c c f f f c f p p a a p a p p p a u u r r e e ",
"jXjXjXjXjXnXnXnXvXvXvXvXvXvXvXvXbXbXbXbXbXbXbXbXbXbXvXvXvXvXbXbXvXvXvXvXvXvXvXvXvXvXvXnXnXjXjXjXjXjXjXjXjXdXdXdXsXsXsXdXdXdXsXsXaXaXfXfXaXaXaXaXsXaXaXuXuXuXuXaX9XuXuXuXuX9X6X6X9X9X6X6X6X6X8X6X6X6X6X6X3X2X2X2X2X2XS.S.S.S.A.A.A.A.A.A.A.Z.,X,XC.A.j.j.z.z.l.l.v.c.c.c.c.c.u.u.v.v.).l.z.8.6.2.' J x z j P L.J.).).).W.`.`.'.`.].'.'.W.J.H.l.k.t.r.8.:.B x x N x M ' 0.F.L.gXgXa.x k M z F o.o.M o.| M x J J M M 0.DXIXDXG.k.H.y.r.q.q.r.y.y.M.^.^.^.^.!.!.!.!.Y.!.!.!.Q.[. X.X.X.X.X.X.X.XXX.X|.Q.Q.Q.T.R.y.q.>.;.H H K K K H ;.3.8.r.7.3.;.H ;.;.:.7.9.r.9.0.B j h j x I I z J G x j h h h h h j j j h h h q q h h j k k z x x N H L 2.2.2.2.2.2.' L J G C x x x z q * * * $ 6 0 k z M M M M M S F E W E E D E E E E T T T T Y Y Y Y Y Y Y Y Y Y Y Y Y Y E Y Y Y Y Y Y Y Y Y Y Y Y Y Y Y Y Y D S S S S S S S D S S S S S S S S S S S S S S S m S S S m n n n n n n n n n n n n v v v v v v v c v v v v c c f f f c f p p a a a a p p p a u u r e e r ",
"jXjXjXjXjXnXnXnXvXvXvXvXvXvXvXvXvXvXvXbXbXbXbXbXbXbXbXbXbXbXvXvXvXvXvXvXvXvXvXvXjXjXjXjXjXjXjXjXjXjXjXjXjXjXjXjXdXsXsXsXsXsXfXdXsXsXsXsXdXfXfXfXaXaXuX9X9X9X9XuXuXuXuX9X9X6X6X6X6X6X6X6X6X8X8X8X8X8X8X6X3X3X2X2X2X2X2X2X2XS.S.S.S.S.A.C.C.C.Z.Z.C.C.A.F.z.J.v.v.c.c.c.c.v.v.c.c.v.v.T.).v.l.r.7.L 0.J j x ' L.J.).).).W.W.`.'.[.].'.'.'.`.H.t.8.3.:.H N x x x x N P 0.L.gXgXgXgXD.' z M ~ M M J i.D.a.M x J J J G G.DXDXDXDXJ.J.l.l.y.y.T.).v.y.T.^.^.(.(.^.~.~.P.Y.Y.!.^.|.oX.X.X.X.XXXXXoX|.|.|.|.T.T.T.R.y.w.7.>.;.H H K L K :.>.7.7.;.H H :.3.3.8.k.J.K.gXgX0.x h z k h x J a. .x k k h h h x  .'  .J M k 6 0 0 0 0 0 q 0 z x G J P L :.2.2.2.2.2.L K J G C M x k q 1 * 6 0 h z x x M M M M M M M F D Y Y Y E E W E E Y Y Y Y E E E Y Y Y Y Y Y Y Y E E Y Y Y Y Y Y Y Y Y Y Y Y Y Y Y Y Y Y Y S S S Y Y Y D D D Y S S S S S S S S S S S S S Z Z S m n n n S v v n n n n n n n v v v v c v v v v v v v c c c c f f p p p p p a a p p p a y u r r r u ",
"jXjXjXjXjXnXnXnXvXvXvXvXvXvXvXvXvXvXbXbXbXbXbXbXbXbXbXbXbXbXvXvXvXvXvXvXvXvXvXvXvXvXvXjXjXjXjXjXjXjXjXjXjXjXjXjXjXsXsXsXfXfXdXdXsXsXsXfXsXfXfXfXaXaXuXuX9X9XuXuXuXuXuX9X9X9X6X6X6X6X6X6X6X6X8X8X8X8X6X6X3X3X2X2X2X2X2X2X2XS.S.S.2X2XA.A.C.Z.Z.Z.V.C.A.F.z.J.v.v.c.c.c.c.v.v.v.c.c.v.T.T.T.R.l.y.2.8.K V x ' L.K.`.).).`.'.'.'.[.].].'.'.'.R.l.t.2.:.H G N N J J ' 6.s.F.gXgXDXDXDXa.J M M M M M j.j.0.J J J J J ' K.IXDXDX).z.k.v.T.R.v.R.R.v.y.T.~.^.^.(.^.~.~.P.Y.Y.T.^.|.oXXXoXXXXXXXoXoX|.^.|.Q.T.T.T.R.y.w.q.>.;.H H K ;.L <.<.:.;.;.>.:.;.t.k.k.J.K.gXgXgXs.J h z z x ' F.F.' x h k z k k J 0.j.a.0.' J x h 0 0 0 0 0 0 j j x J K L :.2.2.6.2.2.L K J G C M M z 0 1 1 6 h z M F M M M B B M M M F D D Y Y E E E E E Y Y Y Y E E E Y Y Y Y Y Y Y Y E E E Y Y Y Y Y Y Y Y Y Y Y Y Y Y Y Y Y Y S S S D Y Y D D D Y S S S S S S S S S S S S S Z Z S m n n n Z v v n n n n n n n v v v v c v v v v v v v c c c c f f p p p p p a a p p p a y u r r r u ",
"jXjXjXjXnXnXnXnXvXvXvXvXvXvXvXvXvXbXbXbXbXbXbXbXbXbXbXbXbXbXvXvXvXvXvXvXvXvXvXvXvXvXvXvXvXvXjXjXjXjXjXjXjXjXjXjXjXdXsXsXfXfXdXdXsXsXsXsXsXfXfXfXaXaXuXuX9X9XuXuXuXuXuXuX9X9X9X6X6X6X6X6X6X6X6X8X6X6X6X6X3X3X2X2X2X2X2X2X2XS.S.S.2X2XA.A.C.Z.Z.Z.C.A.A.z.z.J.v.v.c.c.c.c.v.v.v.x.c.v.T.T._.).T.v.8.k.2.x x ' L.`.`.).).'.'.'.[.[.].'.'.'.'.`.J.H.r.8.2.L H J K P 0.0.s.k.L.gXDXDXDXj. .M M M M ~ '  .J M J M x J 0.K.DXL.J.k.8.8.q.u.u.u.u.y.y.x.T.Y.^.^.^.^.~.Y.P.Y.Y.T.^.|.oXXXoXXXXXXXoXoX|.^.|.Q.T.T.T.R.y.y.w.<.;.H H K ;.:.:.:.;.H :.r.r.:.t.t.l.J.K.gXDXDXDX' h h j h M  .' M k k k k h k ' j.D.z.a.' J M x k 0 0 0 0 0 h h V B K L :.:.:.2.2.2.L K J G G M M x 0 1 1 q k M F J G M M M M M M F F F W Y Y E W E E E Y Y Y Y Y E E Y Y Y Y Y Y Y Y E E Y Y Y Y Y Y Y Y Y Y Y Y Y Y Y Y Y Y T S S S D Y Y D D D D S S S S S S S S S S S S S Z Z S m n n n Z v v v n n n n n n v v v v c v v v v v v v c c c c f f p p p p p a a p p a a u u r r r u ",
"jXjXjXnXnXnXvXvXvXvXvXvXvXvXvXvXbXbXbXbXbXbXbXbXbXbXbXbXbXbXbXvXvXvXvXvXvXvXvXvXvXvXvXvXjXjXjXjXjXjXjXjXjXjXjXjXjXdXsXsXsXdXdXdXsXsXsXsXsXfXfXfXaXaXuXuXuXuXuXaXuXuXuXuXuX9X9X9X6X6X6X6X6X6X6X6X6X6X6X6X3X3X2X2X2X2X2X2X2XS.S.S.2X2XA.A.C.C.C.C.C.A.A.z.z.v.v.v.c.c.c.c.v.v.v.x.v.v.v.T.T.T.T.v.k.k.0.N j 2.J.K.`.).).'.'.[.[.[.'.'.'.'.'.`.`.W.J.H.k.8.2.L L ' 2.0.s.z.L.J.gXgXIXgXs.' M M M M k k x M N M J 2.s.G.z.8.8.8.8.r.q.y.y.u.y.v.R.|.T.Y.^.~.~.~.~.Y.Y.Y.T.^.^.|.oXXXoXXXXXXXoXoX|.|.|.Q.T.T.T.R.P.y.y.q.:.H H H ;.;.H :.:.H ;.7.7.>.7.7.r.k.J.K.DXLXIXs.I M x x z j k x M M x z M J j.L.L.s.0.o. .J J x h h h h h h j V G K L :.:.:.2.2.:.L K J G G M F x h 1 1 h x F J J J M M M M M M F F ~ W E Y E W E E E Y Y Y Y Y E Y Y Y E E Y Y Y E E E Y Y E E Y Y Y Y Y Y Y Y Y Y Y Y Y Y T S S S D Y Y D D D D S S S S S S S S S S S S S S Z S m n n n Z v v v n n n n n n v v v v c v v v v v v v c c c c f f p p p p p a a p p a u u y r r r r ",
"jXjXnXnXnXvXvXvXvXvXvXvXvXvXvXvXbXbXbXbXbXbXbXbXbXbXbXbXbXbXbXvXvXvXvXvXvXvXvXvXjXjXjXjXjXjXjXjXjXjXjXjXjXjXjXjXjXdXsXsXsXsXdXdXsXsXsXfXsXfXfXfXaXaXuXuXuXuXaXaXuXuXuXuXuXuX9X9X6X6X6X6X6X6X6X6X6X6X6X6X3X4X2X2X2X2X2X2X2X2XS.2X2X2XS.A.A.Z.C.C.C.A.j.z.z.v.v.b.c.c.c.c.c.c.c.c.v.v.T.T.T.T.R.v.H.G.9.G V 2.J.K.`.).).'.'.[.'.'.[.'.'.'.'.`.'.`.J.J.J.G.9.0.6.6.2.6.8.k.z.J.J.gXDXDXgXs.2.' ' ' I I ' 2.2.0.s.k.k.k.k.r.r.t.l.l.v.T.T.R._.|.|.|.T.Y.~.~.~.Y.Y.Y.Y.Y.T.~.|.|.oXXXoXoXXXXXoXoXoXoX|.|.T.T.T.R.R.y.y.q.>.;.H H K H H H ;.;.;.:.;.;.;.:.3.7.9.k.G.L.DXgXG.2.x j x x x x x z j x ' s.F.F.z.s.0.0.'  .J M x z j h j j x B K L :.:.:.2.2.2.:.L K J G G M F x h 6 6 h M J  .I J M N B B M F F ~ ~ W E Y E W E E E Y Y Y Y Y Y Y E E E E E E E E Y Y Y Y Y Y Y Y Y Y Y Y Y Y Y Y Y Y Y Y T S A A D Y Y D D D D S S S S S S S S S S S S S S Z S n n n n Z v v v n n m m m n v v v v c v v v v v v v c c c c c f f p a p p p p a a a a u y e e e e ",
"nXnXnXnXvXvXvXvXvXvXvXvXvXvXvXbXbXbXbXbXbXbXbXNXbXbXNXNXbXbXbXbXbXbXbXbXvXvXvXvXjXjXjXjXjXjXjXjXjXjXjXjXjXjXjXjXjXjXdXsXdXdXdXdXsXsXsXsXsXfXfXfXaXaXaXuXuXuXaXaXuXuXuXuXuXuXuXuX9X6X6X6X6X6X6X6X6X6X6X6X3X4X2X2X3X2X2X2X2X2X2X2X2X2X2XS.A.A.A.A.A.A.z.z.z.v.v.b.c.b.b.b.b.v.c.c.v.E.T.T.T.T.T.T.).J.k.H V 6.J.K.J.).).'.`.[.'.'.[.[.].'.'.`.'.`.).`.`.J.G.9.8.0.0.8.8.k.k.G.J.gXJ.DXDXgXL.L.J.J.L.k.k.k.G.J.K.k.k.k.k.l.l.l.v.v.R.T.T.R.|.|.T.T.~.~.~.~.Y.Y.Y.Y.Y.Y.T.^.|.|.oXXXoXoXoXoXoXoXoXoX|.|.^.T.T.R.R.P.y.w.>.;.;.H H H K H H >.7.7.3.3.3.3.3.7.7.7.8.9.L.J.J.9.L K J x N x j j G 2.s.L.L.F.s.9.0.0.' J G x x x j j x x J K L :.:.:.2.6.2.2.:.L K J G G M M x h 6 6 k J J J J N x N B B J J J ~ E E E E E W E E E Y Y Y Y Y Y Y E Y E E E E E E Y Y Y Y E E E E Y Y E E Y Y Y Y T Y T T T S A A D Y Y D D D D S S S S S S S S S S S S S Z Z S n n n n Z v v v n n m n m n v v v v v v v v v v v v c c c c c f f p a p p p p a a a a u u e e e e ",
"nXnXnXvXvXvXvXvXvXvXvXvXvXvXbXbXbXbXbXbXbXbXNXNXbXbXNXNXbXbXbXbXbXbXvXvXvXvXvXvXvXvXjXjXjXjXjXjXjXjXjXjXjXjXjXjXjXjXdXdXdXdXdXdXsXsXsXsXsXaXfXfXsXaXaXuXuXaXaXaXuXuXuXuXuXuXuXuX9X9X9X9X6X6X6X6X6X6X6X6X3X4X2X2X3X3X2X2X2X2X2X2X2X2X2XS.A.A.A.A.A.A.D.z.z.v.b.b.b.b.b.b.b.v.c.c.v.E._.T.T.T.T.T.).J.J.L x 0.K.K.J.).).'.'.[.[.[.'.[.[.[.`.`.`.`.}.}.}.K.J.k.9.8.r.r.t.k.k.z.J.J.gXDXDXDXgXJ.J.J.DXJ.J.J.k.J.J.t.t.t.l.H.l.l.v.v.l.R.R.R.|.|.|.^.^.^.~.Y.Y.Y.Y.~.Y.Y.^.^.|.oXoXXXoXoXoXoXoXoXoXoXoXoX^.^.T.R.R.R.y.w.3.:.;.H H H K H H 3.r.t.r.r.t.l.l.l.t.t.k.k.9.9.t.k.k.k.t.2.2.2.2.2.s.L.J.J.J.L.k.s.9.0.' J N x x x x x x J K L :.2.2.2.6.6.2.2.:.L K J G G F F x h 0 h x J B B x x x N B B J J J ~ F E E E E W E E E Y Y Y Y E Y Y Y Y Y Y Y Y E E E E Y Y E E E E Y Y Y Y Y Y Y Y Y Y Y Y T S A A D Y Y D D D D S S S S S S S S S S S S S Z Z S n n n n Z v n v v v n n n n v v v v c v v v v v v v c c c c c f f p a p p p p a a a u u u r r r r ",
"nXnXnXvXvXvXvXvXvXvXvXvXvXbXbXbXbXbXbXbXbXNXNXNXbXNXNXNXNXbXbXbXvXvXvXvXvXvXvXvXvXvXvXvXvXjXjXjXjXjXjXjXjXjXjXjXjXjXdXdXdXdXdXdXsXsXsXsXsXaXfXfXsXaXaXuXuXuXaXaXaXaXuXuXuXuXuXuX9X9X9X9X6X6X6X6X6X6X6X6X3X4X2X2X3X3X2X2X2X2X2X2X2X2X2XS.S.A.A.A.5XA.z.z.z.v.b.b.b.b.b._.b.b.c.c.x.E._.E.v.v.T.T.).H.J.:.N 9.K.K.).}.'.'.{.{.[.[.[.[.[.[.'.'.{.{.{.}.`.`.J.J.k.t.t.k.k.l.l.l.l.z.z.z.z.J.J.).J.J.G.k.J.J.r.8.l.l.l.y.l.H.l.l.R.R.y.R.R.x.R.R.R.~.^.^.~.Y.Y.Y.Y.~.Y.T.^.^.|.oXoXXXoXoXoXoXoXoXoXoXoXoX|.^.T.R.R.R.R.t.7.;.;.H H H H H H ;.:.7.q.r.r.r.t.t.t.t.l.H.H.t.t.l.l.k.k.G.k.k.k.k.k.k.k.k.s.8.0.2.2.' K J G N N N N G G J K :.2.2.2.3.3.6.:.:.:.L P J G G J J x k 0 h x J B N x x x B J B  .J ~ F F E E E E W E E E Y Y Y Y E E E Y Y Y Y Y Y Y Y E E E Y E E E E Y Y Y Y Y Y Y Y Y Y Y Y T S A A D Y Y D Y Y D S S S S S S S S S S S S S Z Z S m n n n Z n n v v v n n n n v v v v c v v v v v v v c c c c c f f p a p p p p a a u u a a r r r r ",
"nXnXnXvXvXvXvXvXvXvXvXvXvXbXbXbXbXbXbXNXNXbXbXbXbXbXbXbXbXvXvXvXvXbXbXbXbXvXvXvXvXvXvXvXvXvXvXvXvXvXvXjXjXjXjXjXjXjXjXdXdXsXsXsXsXsXsXsXsXaXfXfXuXaXuXuXaXuXuXuXuXuXuXuXuX9X9X9XuXuXuX9XuX9X9X9X6X6X8X8X6X3X3X2X3X3X2X2X2X2XS.2X2X2XA.A.A.A.A.C.5XA.z.z.z.v.v.b.b.b.b._._.b.c.c.v.b.E._.E.E.v.R.).H.}.7.G 9.DXK.`.}.{.'.'.{.{..X[. X X[.[.[.].{.{.{.}.}.`.J.H.H.l.l.l.H.H.J.H.l.k.k.k.k.k.k.k.t.r.t.t.t.t.y.l.H.R.R.v.l.l.y.l.x.v.R.R.T.T.T.~.~.~.~.~.Y.Y.~.~.~.Y.^.^.^.|.oXoXoX|.oXXXoXoXoXoX|.oX|.^.|.T.R.R.R.y.y.q.>.;.;.;.K H H H H ;.:.3.7.q.q.q.r.r.t.y.y.t.t.t.t.t.t.t.t.k.k.t.r.9.8.8.8.2.6.2.:.:.:.L K G N N N N G H L 2.2.2.3.3.3.6.6.2.2.2.L P K J J J M M j h h M J N B N x x J K K  . .J F F E E E E W W E W E Y Y E E E E E E E E E Y Y Y Y E Y E E E E E E E E E Y Y Y Y T T Y Y Y Y S S Y Y Y Y Y Y D S S S S S S S S S S S S S m m m m n n n n m n n v v n n m n v v v v v v v v v v v v c c c c c f f p p p p p p p a u u u u r r r r ",
"nXnXvXvXvXvXvXvXvXvXvXvXvXbXbXbXbXbXbXNXNXbXbXbXbXbXbXbXbXbXvXvXvXbXbXbXbXvXvXvXvXvXvXvXvXjXvXvXvXvXvXjXjXjXjXjXjXjXjXdXdXsXsXsXlXsXsXsXsXsXsXaXaXaXuXuXaXaXuXuXuXuXuXuXuXuX9X9XuXuXuX9X9X9X9X9X6X8X8X6X6X3X3X2X2X2X2X2X2X2XS.2X2X5X5XA.D.A.C.C.5XA.z.z.z.v.v.b.b.b.b._._.b.b.c.v.b.E._.E.E.E.T.).).).8.G 9.K.L.`.}.'.'.'.'.{..X X X X[.[.[.].].].{.{.}.'.).R.H.H.H.H.J.).).).H.l.l.l.l.l.l.l.l.t.y.H.H.l.l.R.R.T.R.R.v.v.v.v.v.R.R.R.T.T.|.~.~.~.~.~.Y.Y.~.~.~.~.^.^.^.|.|.oXoXoX.XXXXXXXoXoXoXoX|.^.|.T.R.R.R.y.y.q.>.;.;.K K ;.K K K ;.;.:.3.q.q.q.r.r.r.t.w.t.t.t.t.r.t.r.r.r.t.r.r.r.8.7.7.6.3.2.;.:.;.K H H H H H H H L 2.3.3.3.3.3.3.3.3.3.2.2.L P H J J J M M x h k M J N B N N N J K K  . .J F F E E E E W W E W E Y Y E E E E E E E E E Y Y Y Y E Y E E E E E E E E E Y Y Y Y T T Y Y Y S S S Y Y Y Y Y Y D S S S S S S S S S S S S S m m m n n v v n n n n n v n n n n v v v v v v v v v v v v c c c c c f f p p p p p p a a u u u u r r r r ",
"nXvXvXvXvXvXvXvXvXvXvXvXbXbXbXbXbXbXNXNXNXNXbXbXbXbXbXbXbXbXbXvXvXbXbXbXbXvXvXvXvXvXvXvXvXjXjXjXvXvXvXjXjXjXjXjXjXjXjXdXdXdXsXdXjXlXjXdXsXsXsXsXaXaXaXaXaXaXuXuXuXuXuXuXuXuXuX9XuXuXuX9X9X9X6X6X8X8X6X6X6X6X4X4X2X2X2X2X2XS.2X2X5X5X5XA.A.A.C.C.2X5XD.z.z.v.T.E.b.v.b._._._.b.x.v.E.E.E.E.E.E.T.T.).R.t.H k.K.J.`.}.'.'.'.'.[..X X X X X[.[.[.].'.].[.{.'.'.).).R.R.R.).).).).).).).).).).).).R.H.R.W.W.).R.T.T.T.T.R.R.R.R.R.R.T.T.~.|.^.^.|.|.|.~.~.~.~.~.~.^.^.^.^.|.|.|.oX|..XXXXXXXXXoXoXoX|.|.E.E.E.E.R.R.y.w.q.>.;.;.K K K K K K ;.;.:.>.7.q.q.w.r.w.w.u.u.u.t.t.r.r.r.q.q.q.q.r.q.7.3.>.7.3.2.:.;.;.;.;.H H H H H H :.2.7.7.7.7.3.7.7.3.3.2.2.L P H J J J B N x j j B J B J B N N K L '  . .~ F E W W W E W W E W E Y Y T E E E E E E E E Y Y Y Y Y Y E E E E E E E E E Y Y Y Y T T T Y Y Y S S Y Y Y Y Y Y Y S S S S S S S S S S S S S m m m n n v n n n n n v v n n n n v v v v v v v v v v v v c c c c c f f f p p p p p a a u y u u r r r r ",
"vXvXvXvXvXvXvXvXvXvXvXbXbXbXbXbXbXbXNXNXNXNXbXbXbXbXbXbXbXbXbXbXvXbXbXbXbXvXvXvXvXvXvXvXvXjXjXjXvXvXvXjXjXjXjXjXjXjXjXdXdXdXdXdXjXjXjXdXsXsXsXsXaXaXaXaXaXuXuXuXuXuXuXuXuXuXuXuXuXuXuX9X9X6X6X6X6X6X6X6X6X6X3X4X3X3X2X2X2X2X2X2X5X5X5XD.A.A.A.C.,XA.D.z.z.l.)._.b.c.b.E.OX_.b.b.b.E.E.E.E.E.E.T.T.).H.t.K H.L.K.`.}.'..X'.'.[..X XoX X X X[.[.[.`.].[.{.|.|.'.'.).).R.R.).).).).'.'.'.'.|.).|.).W.`.'.'.'.).T.T.T.T.T.T.T.T.T.|.^.^.|.|.|.|.^.^.^.^.~.~.~.~.^.^.^.^.|.|.|.|.|.|.XXXXXXXXXXXXoXoX|.|.E.E.E.E.R.R.y.w.q.>.;.;.;.K K K K K ;.;.:.>.>.3.q.q.u.u.e.e.e.e.e.e.e.u.w.w.q.q.q.u.q.q.>.>.3.3.3.>.>.:.:.;.H H H H H K :.3.7.7.7.7.7.7.7.7.7.2.:.L K H J J J B N x j x B B B J B N N K ' '  . .J F E W W W E W W E W E Y Y T E E E E E E E E Y Y Y Y Y Y E E E E E E E E E Y Y Y Y T T T T T Y S S Y Y Y Y Y Y S S S S S S S S S S S S S S m m m n n n n n n n n v v n n n n v v v v v v v v v v v v c c c c c f f f p p p p a a a u y u u r r r r ",
"vXvXvXvXvXvXvXvXvXvXbXbXbXbXbXbXbXbXNXNXNXNXNXbXbXbXbXbXbXbXbXbXvXbXbXbXbXvXvXvXvXvXvXvXvXvXvXjXvXvXvXjXjXjXjXjXjXjXjXdXdXdXdXdXjXjXjXdXsXsXsXsXaXaXaXuXuXuXuXuXaXaXuXuXuXuXuXuXuXuX9X9X9X6X6X6X6X6X6X6X6X6X3X4X3X3X3X3X2X2X2X2X5X5X5XD.S.A.C.C.,X2XA.D.z.J.)._.b.b.b.E.OX_.b.b.E.E.E._._._._._._.).H.H.:.H.L.K.}.}.'.'.'.[.[. XoXoX X X X X[.[.].].[.[.'.|.'.'.|.'.).).).'.'.'.|.|.|.|.|.|.|.|.).`.'.'.|.|.T.T.T.T.T.T.).|.|.|.|.oXoXoXoX|.|.^.|.^.^.^.^.^.^.^.^.|.|.|.oXoX|.|.XXXXXXDXXXXXoXoX|.|.E.|.E.E.R.R.y.w.q.>.:.;.;.;.H K K K ;.;.:.>.3.3.q.q.q.q.e.e.e.y.y.y.y.y.e.y.y.y.y.u.w.w.q.q.7.7.7.7.>.:.:.:.;.;.;.:.>.>.3.7.7.7.7.7.7.7.7.7.7.3.:.L P K J J B N N x j x B B J J B N B K L '  . .J F E W W W E W ~ E E Y Y Y T E E E E E E E E Y E Y Y Y Y E E E E E E E E E Y Y Y Y Y Y Y Y T T Y Y Y Y Y D D D D S S S S S S S S S S S S S m m m n n n n n n n n v v n n n n v v v v v v v v v v v v c c c c c c f f f p p p p a a u u u u y u r e ",
"vXvXvXvXvXvXvXvXbXbXbXbXbXbXbXbXbXbXNXNXNXNXNXNXNXbXbXbXbXbXbXbXvXbXbXbXbXvXvXvXvXvXvXvXvXvXvXvXvXvXjXjXjXjXjXjXjXjXjXdXdXdXdXdXdXdXdXdXsXsXsXsXaXaXaXaXuXuXuXuXaXuXuXuXuXuXuXuXuXuX9X9X9X6X6X6X6X6X6X6X6X8X3X3X3X3X3X2X2X2X2X2X5X5X5XD.D.D.A.C.,X,XA.F.z.z.)._._.b.b.b.OX_.b.b.b.E.E._._.+X_._.E.|.).H.8.H.L.K.}.}.'.'.'.'.[. XoXoXoX X X X[.[.[.[. X X|.|.|.|.|.'.`.).`.'.'.`.'.'.|.|.|.|.|.|.`.`.'.'.|.|._.T.T.T._.|.|.|.|.oXoXoXoXoXoX|.|.^.|.|.^.|.^.^.^.^.^.|.|.|.oXoX|.|..XXXXXXXXXXXoXoX|.|.E.|.E.E.R.R.y.w.q.3.>.;.;.;.K L L L ;.;.:.>.7.q.q.q.q.q.e.e.e.x.x.x.x.x.x.x.x.y.y.y.y.e.u.u.q.q.q.7.>.:.;.:.>.>.>.7.7.7.7.q.q.q.q.q.q.q.q.7.7.3.:.L P P J J J N N x x x J B J K B N B K ' '  . .J F E W W W E W W E E Y Y Y T E E E E E E E E E E Y Y Y Y E E E E E E E E E Y Y Y Y Y Y Y Y T T Y Y Y Y Y D D D D S S S S S S S S S S S S S m m m n n n n n n n n v v n n n n v v v v v v v v v v v v c c c c c c f f f p p p p a a u y u u y u r e ",
"vXvXvXvXvXvXvXvXbXbXbXbXbXbXbXbXbXNXNXNXNXNXNXNXNXNXbXbXbXbXbXbXvXbXbXbXbXvXvXvXvXvXvXvXvXvXvXvXjXjXjXjXjXjXjXjXjXjXjXdXdXdXdXsXsXsXsXsXsXsXsXsXaXaXuXaXaXuXuXuXaXaXuXuXuXuXuXuXuXuXuX9X9X6X6X6X6X6X6X6X6X8X6X3X3X3X3X2X2X2X2X2X5X5X3XS.S.D.A.C.C.S.A.D.z.z.R.T.OXb.b.b._._.E.b.b.b.E.E._._.E.v.x.R.'.W.t.J.L.K.}.}.{.'.'.'.[. XoXoXoX X X[.[.[. X X X XoXoXoXoX.X[.'.'.'.'.'.Q.'.'.|.|.|.|.|.|.'.'.'.|.|.|.|._._.oXoXoXoXoXoXoXoXoXoXoXoX|.|.^.|.^.^.^.^.^.^.^.|.|.|.|.oXoXoXoXoXoXXXXXXXXXoX|.|.|.E.E.T.E.R.R.y.w.q.7.>.:.;.;.:.:.;.;.;.;.;.:.7.q.q.q.q.q.e.e.e.x.x.x.x.x.x.x.y.y.y.y.e.e.u.u.q.q.q.q.>.>.>.>.>.>.7.q.q.7.q.w.r.r.r.r.q.q.q.q.7.7.:.L P P I J J N N N x N J J K K B N B K 4.'  . .J F F W W W E W W W E Y Y Y T E E E E E E E E E Y Y Y Y Y E E E E E E E E E Y Y Y Y Y Y T Y S S S S Y Y Y Y D D D S S S S S S S S S S S S S m m m n n n n n n n n v v n n n n v v v v v v v v v v v v c c c c c c f f p p p p p a a u y u u y u r e ",
"vXvXvXvXvXvXvXvXbXbXbXbXbXbXbXbXbXNXNXNXNXNXNXNXNXNXNXbXbXbXbXbXvXbXbXbXbXvXvXvXvXvXvXvXvXvXvXvXvXjXjXjXjXjXjXjXjXjXjXlXsXsXsXsXsXsXsXsXsXsXsXsXaXaXaXaXaXuXuXaXaXaXaXuXuXuXuXuXuXuXuX9X9X6X6X6X6X6X6X6X6X6X6X3X3X3X3X2X2X2X2X2X2X5X3X2XS.S.A.C.C.A.D.D.z.z.J.)._.b.x.b.E.OXE.E.E.E.E.E.v.v.c.u.u.y.|.W.H.K.K.`.`.}.'.'.'.'.[.[..XoX X X X[.[.[. X X X X.X.XXXXX.X.X.X.X.X.X X'.'.'.|.'.|.|.oX|.|.'.'.|.oXoXXXoXXXHXHXXXXXXXoXoX|.|.oXoXoX|.|.^.|.^.^.^.^.^.^.|.|.|.|.|.oXoXoXoX|.|.XXXXXXXX|.|.|.|.|.E.T.E.R.x.y.u.q.7.3.>.;.;.;.;.;.;.;.;.:.>.>.7.q.q.w.e.e.e.e.x.x.x.x.x.x.x.y.x.x.x.e.e.e.u.q.q.q.q.>.>.7.w.q.q.q.r.w.w.r.t.t.t.t.t.r.r.q.q.q.7.:.:.L L K J J B B N x N K K K K B B B K 4.'  . .J F F W W W E W W W E Y Y Y T E E E E E E E E Y Y Y Y Y Y E E E E E E E E E Y Y Y Y Y Y T T S S S S Y Y Y Y Y Y D S S S S S S S S S S S S S m m m n n n n n n n n v v n n m n v v v v n v v v v v v v c c c c c c f f p p p p p a a a u u u y r r e ",
"vXvXvXvXvXvXvXvXbXbXbXbXbXbXbXbXNXNXNXNXNXNXNXNXNXmXbXbXmXmXbXbXbXbXbXbXbXvXvXvXvXvXvXvXvXvXvXvXjXjXjXjXjXlXjXlXlXlXlXsXsXsXsXsXsXsXlXlXlXsXsXsXsXsXaXaXaXaXaXaXuXaXuXuXuXuXuX6XuXuXuX9XuX6X6X6X6X6X6X6X6X6X6X6X3X3X3X3X3X3XS.2X2X2X2XS.S.A.A.A.A.D.A.j.j.z.F.G.)._.E.v.x.b.E._.E.E.E.E.v.c.u.u.5.u.R.).R.H.W.).`.`.'.'.'.'.{..X[.[. X.X.X.X[. X X X.X.X.X.X.X.X.X.X.X.X.X.X.X.X.X.X.X X.X X.X.X.X.X.XDXDXHXHXHXHXHXXXXXXXXX.X.X.XoXXXoXoX|.|.|.|.|.|.^.^.|.|.|.|.|.|.oXoXoXoXoX|.oXoXXXXXXXoXoX|.|.|.T.T.T.R.R.y.u.q.3.3.3.4.;.:.K K ;.;.;.;.:.>.7.q.w.e.w.y.x.x.x.x.x.x.x.x.x.y.y.e.e.e.e.e.e.q.q.q.q.q.q.q.q.u.q.u.w.w.w.u.e.y.w.e.y.y.u.q.w.q.7.3.:.K K K K J B N x x J P K K K B B B K ' 4.' '  .~ ~ ~ Q W E W W W W E W T T E E E E E E E Y Y Y E E E E E E E E E Y Y Y Y Y Y Y Y T T T T S D T T S S S S Y Y Y D D S S S S S S S S S S S S Z m n n n n m n n n n n n v v n n v v v v v v v v v v v c c c f f c p p p p a p p p p a u y u y u r r ",
"vXvXvXvXvXvXvXvXbXbXbXbXbXbXbXbXNXNXNXNXNXNXNXNXNXmXbXbXbXmXbXbXbXbXbXbXbXbXvXvXvXvXvXvXvXvXvXvXjXjXjXjXjXlXlXlXlXlXlXhXsXsXsXsXsXhXhXhXhXsXsXsXsXsXaXaXaXaXaXaXuXuXuXuXuXuXuX6XuXuXuX9XuX6X6X6X6X6X6X6X6X6X6X6X3X3X3X3X3X3XS.2XS.2X2X2XS.A.A.A.D.D.D.j.j.z.F.F.).|._.v.c.b._._.E.E.E.E.v.c.u.u.5.u.v.R.R.).).`.`.`.'.'.'.'..X.X{.[.[. X.X.X.X[..X.X.X.X.X%X%X%X%X%X%X.X%X%XGXGXHXHXHXHXHXHXHXHXGXGXGXGXHXHXGXGXHXHXHXHXHXHX.X.XXX.XXXoXoXoX|.oX|.|.|.|.|.|.|.|.|.|.|.|.oXoXoXoX|.|.oXoXoXoXoXoX|.|.|.T.T.T.R.R.y.u.q.3.3.3.:.;.:.K K ;.;.;.;.>.>.7.q.w.e.y.y.x.x.x.x.P.x.x.P.P.x.x.x.y.e.e.e.e.e.e.e.e.e.e.e.e.e.e.e.e.y.y.y.y.y.e.e.y.y.e.q.w.q.7.3.:.K K K K J B N N N I ' L ;.K B B B B K 4.4.'  .~ ~ W Q E E E W W W E W T E E E E E E E E Y Y Y Y E E E E E E E E Y Y Y Y Y Y Y Y T T T T T D T T S S S S Y Y Y D D D S S S S S S S S S S S Z m n n n n m n n n n n v v v n v v v v v v v v v v v v c c c f f c p p p p a p p p a a u u r u r r r ",
"vXvXvXvXvXvXvXvXbXbXbXbXbXbXbXbXNXNXNXNXNXNXNXNXNXbXbXbXbXbXbXbXbXbXbXbXbXbXbXvXvXvXvXvXvXvXvXvXjXjXjXjXjXlXlXlXlXlXhXhXhXsXhXsXsXhXhXhXhXsXsXsXsXsXaXaXaXaXuXuXuXuXuXuXuXuXuXuXuXuXuX9XuX6X6X6X6X6X6X6X6X6X6X6X3X3X3X3X3X3XS.2X2X2X2X2XS.S.A.A.A.D.D.D.F.F.F.z.J.|._.v.c.x.E._._.E.E.E.v.v.c.c.u.y.v.l.H.).`.'.'.`.'.'.'.'..X.X{.[.[.[.{.{..X{..X.X%X%X%X%X%X%X%X%XGXGXGXGXHXHXJXJXJXJXJXJXJXKXKXKXLXLXHXHXHXGXHXHXHXHXHXHXXX.XXXXXXXXXoXoXoXoX|.|.|.|.|.|.|.|.|.|.|.|.oXoXoXoX|.|.|.oXoXoXoXoX|.|.|.T.E.T.R.v.y.e.q.3.3.3.:.;.:.K L ;.;.;.;.:.3.7.q.w.w.e.y.y.x.x.P.P.P.P.P.P.P.P.x.x.x.x.x.e.y.y.y.y.y.y.x.x.x.x.x.x.x.x.x.x.x.y.y.y.y.e.e.w.q.q.3.:.L K K K K B B N N I 2.:.;.;.;.;.B K K 4.4.'  .~ ~ W W E E E W W W E E T E E E E E E E E Y Y Y Y Y Y E Y E E E E Y Y Y Y Y Y Y Y Y Y Y Y T T T T T D S S Y Y D D D S S S S D D S S S S S S Z m n n n n m n n n n n n v v n n v v v v v v v v v v v c c c f f f f p p p a a a a a u u u r r r r r ",
"vXvXvXvXvXvXbXbXbXbXbXbXbXbXNXNXNXNXNXNXNXNXNXNXNXmXbXbXbXmXbXbXbXbXbXbXbXbXbXbXvXvXvXvXvXvXvXvXjXjXjXjXjXlXlXlXlXlXhXhXlXsXsXhXsXhXhXsXhXsXsXsXaXsXaXaXaXaXuXuXuXuXaXaXuXuXuXuXuXuXuX9X9X6X6X9X6X6X6X6X6X6X6X6X3X3X3X3X3X3XS.S.2X2X2X2X2XS.A.A.A.A.D.D.F.F.F.z.J.)._.v.c.c.b._._.E.E.E.v.v.v.v.v.v.v.y.l.R.W.`.'.'.'.{.'.'..X.X{.[.{.{..X.X.X.X%X%X%X%X&X&XGXGXGXGXGXGXHXHXJXJXJXJXJXJXJXJXJXKXKXKXKXLXHXHXHXHXHXHXHXHXHXHXXX.XXXXXXXXXoXoXoXoX|.|.|.|.|.|.|.|.|.|.|.|.|.|.oX|.|.|.oXoXoXoXoXoX|.|.T.E.T.E.R.v.y.u.q.3.3.>.;.;.:.K L ;.;.;.;.:.7.7.q.q.q.e.y.y.x.x.P.P.P.P.P.Y.P.P.P.P.P.P.x.x.x.y.y.y.x.x.x.x.P.P.P.P.P.P.P.P.R.x.y.y.y.e.e.w.r.q.3.2.:.K K K J B N N N K 2.L :.;.;.;.;.K K 4.4.'  .~ ~ W W E W W W W W W W W E E E E E E E E Y Y Y Y Y Y Y Y E E E E Y Y Y Y Y Y Y Y Y Y Y Y T T T T T D S S Y Y Y D D S S S S D D S S S S S S Z m n n n n m n n n n n n v v n n v v v v v v v v v v v c c c f f f f p p p a a a a a u u u r r r r r ",
"vXvXvXvXvXbXbXbXbXbXbXbXbXNXbXbXNXNXNXNXNXNXNXNXNXNXbXNXmXmXmXbXbXbXbXbXbXbXbXbXvXvXbXvXvXvXvXvXjXjXjXjXkXlXlXlXlXlXlXhXlXlXhXhXsXhXhXsXhXsXsXsXaXaXaXaXaXaXuXuXuXaXaXaXaXuXuXuXuXuXuX9X9X9X9X9X6X6X6X6X6X6X6X6X3X3X3X3X3X3XS.S.2X2X2X2X2X2XA.D.A.A.D.D.D.D.j.j.G.)._.v.c.v.b._._._.E.E.E.v.b.v.T.R.R.l.l.R.).`.'.'.'.{.{.{..X.X.X[..X.X%X%X%X%X%X%X&XGXGXHXHXHXGXGXGXGXHXHXJXJXJXJXJXJXJXJXJXKXLXLXLXLXHXHXHXHXHXHXHXHXHXHXXX.XXXXXXXXXXXoXoXoX|.|.|.|.|.|.|.|.|.|.|.|.|.|.|.|.|.oXoXoXoXoXoXoX|.|.T.T.T.R.R.x.y.u.u.q.3.>.;.;.;.K L ;.;.;.;.,.>.7.q.q.q.e.e.y.x.x.P.P.P.I.I.I.I.I.P.P.P.P.P.P.P.P.P.P.P.P.P.P.R.P.R.P.P.P.P.P.R.R.x.y.y.y.e.u.r.q.3.>.;.K K K J B N N N K :.K 4.4.4.4.4.K K ' 4.'  .~ ~ W W W W W W W W E W W E E E E E E E E Y Y Y Y Y Y Y Y E E E E Y E E E Y Y Y Y Y Y Y Y T T T T T T Y Y Y Y Y D D S S S S S S S S S S S S Z m n n n n m m n n n n v v v n v v v v v v v v v v v v c c c f f c f p p p a a a a a a u y u r r r e ",
"vXvXvXvXbXbXbXbXbXbXbXbXbXbXbXNXNXNXNXNXNXNXNXNXNXNXNXNXmXmXmXbXmXbXbXbXbXbXbXbXvXvXbXvXvXvXvXvXjXjXjXjXkXlXlXlXkXlXlXlXlXlXlXlXsXhXhXhXhXsXsXsXaXaXaXaXaXaXiXuXaXaXaXaXaXuXuXuXuXuX9X9X9X9X9X9XyX6X6X6X6X6X6X6X3X3X3X3X3X3XS.S.2X2X2X2X2X2XS.A.A.D.D.D.D.D.j.z.k.)._.T.v.b._.OX_._.E.T.E.E.E.E.R.R.R.v.R.).'.`.'.'.'.{.{.{..X.X{.[..X.X%X%X%X%X&X&XGXGXHXHXHXHXLXLXGXGXHXHXHXJXJXJXJXJXJXJXJXKXLXLXLXLXHXHXLXKXHXHXHXHXHXHX&X.XXXXXXXXXoXoXoXoX|.|.|.|.|.|.|.|.|.|.|.|.|.|.|.|.|.oXoXoXoXoXoXoX|.|.T.T.T.R.R.x.y.u.u.q.3.>.:.;.;.K L :.;.;.;.,.>.<.q.q.e.e.e.e.x.x.x.P.P.I.I.I.Y.Y.I.Y.I.I.I.I.P.P.P.P.P.P.R.P.R.P.P.P.P.P.P.P.R.R.P.y.y.y.y.w.r.q.3.:.;.K K K K J B B N K 2.;.4.4.4.4.4.;.K ' ' ' ~ ~ ~ ~ Q W Q W W W W W W W W W W W W W W W Y Y Y Y Y Y Y Y E E E E Y E E E Y Y Y Y Y Y Y Y T T T T T T Y Y Y Y Y D Y S S S S S S S S S S S S Z m n n n n m m n m n n n v v n v v v v v v v v v v v v c c c f f c f p p p a a a a a a a u u u r r r ",
"vXvXvXbXbXbXbXbXbXbXbXNXNXNXNXNXNXNXNXNXNXNXNXNXNXNXbXbXmXmXmXbXmXmXbXbXbXbXbXbXvXbXbXvXvXvXvXvXjXjXjXjXkXlXlXlXkXkXlXlXkXlXlXlXsXhXhXhXhXsXsXsXaXaXaXaXaXaXuXuXuXaXaXaXaXaXuXuXuXuXuX9X9X6X6X6XyXyX6X6X6X6X6X6X3X3X3X3X3X3XS.S.2X2X2X2XS.S.S.A.D.D.D.D.A.D.j.z.k.J.|.).v.b._.OXOX_._._.E.E.E.E.R.T.T.R.R.).`.`.'.].{.{.'.{..X.X{.{..X%X%X%X%X%XGXGXGXGXGXJXJXJXKXKXHXHXHXHXHXKXKXKXKXKXKXKXKXKXLXLXLXLXLXLXLXLXHXHXHXHXHXHXHXHXXXXXXXXXoXoXoXoX|.|.|.|.|.|.|.|.|.|.|.|.|.|.|.|.|.|.oXoXoXoXoX|.|.|.T.T.T.R.R.x.y.t.u.q.3.>.:.;.;.K L :.:.;.;.,.>.>.q.q.e.e.e.e.x.x.x.P.P.P.Y.Y.Y.Y.Y.Y.Y.Y.Y.Y.P.P.P.P.P.P.P.P.P.P.P.P.P.P.P.P.R.R.R.y.y.y.y.u.r.q.3.:.L K K K K J J B B K 4.;.,.4.3.5.3.4.K K '  .~ ~ W ~ Q W Q W W W W Q W W W W W W W W W W Y Y Y Y E E E E E E E E Y Y E E Y Y Y Y Y Y Y Y T T D D S S Y Y Y Y Y D Y S S S S S S S S S S S S Z m n n n m m n n m n n n n n v v v v v v v v v v v v v c c c f p c f f p p a a p p p p a a a y r r r ",
"vXvXvXbXbXbXbXbXbXbXbXNXNXNXNXNXNXNXNXNXNXNXNXNXNXNXmXbXmXmXmXbXmXmXmXbXbXbXbXbXvXbXbXvXvXvXvXvXjXjXjXjXkXlXlXlXkXkXkXlXkXlXlXlXsXhXhXhXhXsXsXsXaXaXaXaXaXaXuXuXuXaXaXaXaXaXuXuXuXuXuX9X9X6X6X6XyXyXyX6X6X6X6X6X3X3X3X3X3X3XS.S.S.2X2X2XS.S.S.S.S.D.A.D.A.A.A.z.s.J.).).b._.OXOXOX_._._._._._.E.T.|.|.).).W.`.`.].].{.{.'.{..X{.{.{..X%X%X%XGXGXGXGXGXGXGXLXJXJXKXKXKXJXHXHXKXKXKXKXKXKXKXKXKXKXKXKXKXKXKXLXLXLXJXKXJXJXJXHXHXHXXXXXXXXXoXoXoXoX|.|.|.|.|.|.|.|.|.|.|.|.|.|.|.|.|.|.|.oXoX|.|.|.|.|.T.T.T.R.R.x.u.t.u.q.3.4.:.:.K K L :.:.;.;.,.:.>.<.q.e.e.e.e.x.x.P.P.I.I.Y.Y.Y.Y.Y.Y.Y.E.E.Y.Y.Y.Y.Y.Y.Y.I.I.P.P.P.P.P.I.P.P.R.R.R.x.y.x.y.y.r.q.3.:.L K K K K B B B B K 4.,.,.4.5.5.3.4.;.K  .J J ~ ~ ^ Q R Q W W W W Q W W W W W W W W W W Y Y Y E E E E E E E E E Y Y E E Y Y Y Y Y Y Y Y T T D S S S Y Y Y Y Y D D S S S S S S S S S S S S Z m n n n n m n n n n n n n v v v v v v v v v v v v v v c c c p p c f f p a a p p p p p p p p y r r r ",
"bXbXbXbXbXbXbXbXNXbXbXbXbXNXNXNXNXNXNXNXNXNXNXNXNXNXNXbXbXbXbXbXNXNXbXbXbXbXbXbXbXbXbXvXvXvXvXvXkXjXjXjXjXlXlXlXkXkXkXlXkXhXhXhXhXlXlXhXhXsXsXsXsXsXaXaXaXaXsXsXaXiXaXuXuXuXuXuX9XuXuXuXuX9X6X6XyXyXyX6X6X6X6X6X6X6X3X3X3XS.S.S.S.S.S.S.S.S.S.S.S.S.A.D.A.A.A.F.k.G.).).v.b._.OXOXOX_._._._._._.|.|.).).).R.W.`.`.`.{.{.{.{..X.X.X@X%X%XGXGXGXGXGXGXJXJXJXJXJXJXKXKXKXKXKXKXKXKXKXKXKXKXKXKXKXKXKXKXKXKXKXKXKXKXKXKXJXJXJXJXHXJX&XXXXXXXXXoXoX|.|.|.|.|.|.|.|.|.|.|.|.oXoX|.|.|.|.|.|.oXoXoXoX|.|.|.E.T.T.R.R.x.y.t.u.q.3.:.:.:.;.K K K ;.;.;.,.>.>.>.q.q.e.y.y.x.x.P.P.P.P.P.I.I.I.Y.E.Y.E.E.I.Y.I.I.I.I.I.I.I.I.I.I.I.I.I.P.P.R.R.R.P.x.x.y.w.q.q.7.2.:.K K K K K H N B L 4.4.4.5.5.5.3.4.;.B J J ~ ~ ~ ~ Q R Q Q Q Q W W W W W W W W W E E E E E Y Y Y Y Y E E E E E Y Y Y Y Y Y Y Y Y T T T T T T D T T Y Y S S S S Y S S D S S S D S S S S S Z Z n n n n m m n n v v v v n v v v v v v v v v v v v c c c c p p f f f p p p p p f p a a a u y r r e ",
"bXbXbXbXbXbXbXbXNXNXbXbXNXNXNXNXNXNXNXNXNXNXNXNXNXNXNXbXbXbXbXbXNXmXbXbXbXbXbXbXbXbXbXvXvXvXvXvXkXjXjXjXjXlXjXlXkXkXkXlXkXhXhXhXhXhXlXhXsXsXsXsXsXsXsXaXaXsXsXsXiXiXaXuXuXuXuXuX9XuX9XuXuX9X6X6XyXyXyX6X6X6X6X6X6X6X3X3X3XS.S.S.S.S.S.S.S.S.S.S.S.S.A.D.A.A.A.D.k.G.J.).v.b._.OXOXOX_._._._._._._.|.|.).).W.`.`.`.`.{.{.{.{..X.X@X%X%X%XGXGXGXGXGXGXJXJXJXJXJXKXKXKXKXKXKXKXKXKXKXKXKXKXKXKXKXKXKXKXKXKXKXKXKXKXKXKXJXJXJXHXHXJX&XXXXXXXXXoXoX|.|.|.|.|.|.|.|.|.|.|.|.|.oX|.|.|.|.|.|.|.oX|.|.|.|.|.E.T.T.R.v.x.y.t.u.q.3.:.:.:.;.K K K ;.;.;.;.>.>.>.q.w.e.e.y.x.x.P.P.P.P.I.I.I.I.Y.E.Y.E.E.I.I.I.I.I.I.I.I.I.I.I.I.I.I.I.P.P.R.R.R.P.P.P.y.e.r.q.7.3.;.K K K K K H B B ;.4.4.3.5.5.r.r.3.4.J J J ~ ~ ~ W Q W Q Q Q W W W W W W W W W W E E E E E Y Y Y Y Y E E E E E Y Y Y Y Y Y Y Y Y T T T T T T D T T Y Y S S S S Y Y D D S S D D S S S S S S Z n n n n m m n n v v v v n v v n v v v v v v v v v c c c c p p f f f p p p p p p p a a a u y r r e ",
"bXbXbXbXbXbXbXbXNXNXbXbXNXNXNXNXNXNXNXNXNXNXNXNXNXNXNXNXbXbXbXbXNXNXbXbXbXbXbXbXbXbXbXvXvXvXvXvXjXjXvXjXjXjXlXlXkXkXkXlXkXhXhXhXhXhXhXsXsXsXsXsXsXsXaXaXaXaXsXsXiXaXaXuXaXuXuXuXuXuXuXuXuX9X6X6XyXyXyX6X6X6X6X6X6X3X3X3X3XS.3X2XS.S.S.A.S.A.S.S.S.S.A.A.A.A.A.D.s.G.J.R.v.b.OXOXOX_._.E.E._.OX+XoXoXoX'.).).`.`.`.`.{.{.{.{.{..X{.@XGXGXGXGXGXLXGXLXLXKXKXKXKXKXKXKXKXKXKXKXKXKXKXKXKXKXKXKXKXKXKXKXKXKXKXKXKXKXKXKXJXHXJXHXHXHX&XXXXXXXXXoX|.|.|.|.|.|.|.|.|.|.|.|.|.|.|.|.|.|.|.|.|.oXoXoX|.|.|.|.|.T.T.R.v.y.u.r.q.q.3.:.:.;.K K K H K ;.;.;.:.>.>.q.q.w.e.e.x.x.P.P.P.P.I.I.I.I.Y.E.Y.Y.Y.I.I.I.I.I.I.I.I.I.I.I.I.I.I.I.I.P.Y.T.R.P.R.P.y.t.r.r.7.3.:.L P K J K J B H ;.4.4.3.5.5.5.r.8.4.K J J ~ ( ~ W Q T Q Q Q W W W E W W W W W W E E E E E E Y Y E E E E E E E Y Y Y Y Y Y Y Y Y Y T T T T T D T T Y Y D D S S Y Y Y Y S S D D S S D D S Z m n n n n m m n v v v v v n v v n v v v v v v v v v c c c c p f c p p p p p p p p p a a u u y r r e ",
"bXbXbXbXbXbXbXbXNXNXNXNXNXNXNXNXNXNXNXNXNXNXNXNXNXNXNXNXmXbXbXbXNXNXbXbXbXbXbXbXbXbXbXvXvXvXvXvXjXjXjXjXkXjXjXjXkXkXkXlXkXhXhXhXhXhXhXsXsXsXsXsXsXsXaXaXaXaXsXsXaXaXaXuXaXuXuXuXuXuXuXuXuXuX9X6XyXyXyX6X6X6X6X6X6X3X3X3X3XS.3X3XS.S.S.S.S.A.S.S.S.S.A.A.A.A.A.A.s.z.J.).).b._.OX_._.b.b.b._.OX+XoXXXXX.X).).`.`.`.`.{.{.{.{.{..X.X@XGXGXGXLXGXLXLXLXLXKXKXKXKXKXKXKXKXKXKXKXKXKXKXKXKXKXKXKXKXKXKXKXKXKXKXKXKXKXKXKXJXHXJXHXHXHXXXXXXXXXXXoX|.|.|.|.|.|.|.|.|.|.|.|.|.|.|.|.|.|.|.|.oXoXoXoXoXoX|.|.|.|.T.T.x.y.u.q.q.q.3.:.;.;.;.K K K K ;.;.;.:.>.>.q.q.w.e.e.x.x.P.P.P.P.I.I.I.I.Y.E.Y.Y.E.I.I.I.I.I.I.I.I.I.I.I.Y.Y.I.I.I.P.Y.T.T.R.R.R.y.y.t.r.7.3.2.:.L K J J H G H ;.4.4.3.3.5.5.r.8.4.J J J ~ ~ ~ W R R Q Q Q W W W W W W W W W W E E E E E E E Y E E E E E E E Y Y Y Y Y Y Y Y Y Y T T T T T D T T S S D D S S Y Y Y S S S S D S S D D S Z m n n n n m m n n v n v v n v n n v v v v v v v v v c c c c p f f p p p p p p p p p a a u u y r r r ",
"bXbXbXbXbXbXbXbXNXNXbXbXNXNXNXNXNXNXNXNXNXNXNXNXNXNXNXNXmXmXbXbXNXmXbXbXbXbXbXbXbXbXbXvXvXvXvXvXjXkXkXjXjXlXlXlXkXkXkXlXkXlXlXlXlXlXlXsXhXsXsXsXsXaXaXaXaXaXaXsXaXaXaXaXaXuXuXuXuXuXuXuXuXuX9X6XyXyXyX6X6X6X6X6X6X3X3X3X3XS.3X3XS.S.S.S.S.A.S.S.A.A.A.A.A.A.A.D.j.k.z.J.).b._.OX_.b.b.x.x.b.OX+XoXXXXX.X).W.).`.`.].{.{.{.{.{..X.XDXDXGXGXGXLXLXLXLXLXKXKXKXKXKXKXKXKXKXKXKXKXKXKXKXKXKXPXPXPXPXPXPXPXPXKXKXKXKXKXKXJXHXJXHXHXHX&XXXXXXXXXXX|.|.|.|.|.|.|.|.|.|.|.|.|.|.|.|.|.|.|.|.|.oXoXoXoX|.|.|.|.|.|.R.x.y.u.q.5.3.3.:.;.;.;.:.K K H H ;.;.:.>.<.q.q.q.e.e.x.x.x.P.P.I.I.I.I.I.I.I.I.I.I.Y.I.Y.Y.Y.Y.Y.I.I.Y.Y.Y.Y.E.Y.I.I.Y.T.R.R.P.P.y.y.r.r.7.3.2.:.L P J J H B H ;.4.,.,.3.3.3.3.3.2.J J J ~ ~ ~ W R W Q Q Q W W W W W W W W W W E E E E E E Y Y E E E E E E E Y Y E E Y Y Y Y Y Y Y T T T T T T S S S D D Y Y Y Y D S S S D S S S S D S Z m n n n n m m n n v n v v n n n n v v v v v v v v v c c c c f f f f p p p p p p p p a a u y y y r r ",
"bXbXbXbXbXbXbXbXNXNXNXNXNXNXNXNXNXNXNXNXNXNXNXNXNXNXNXNXmXmXmXmXNXmXbXbXbXbXbXbXbXbXbXvXbXvXvXvXjXjXvXjXjXlXlXlXkXkXkXlXkXlXhXlXlXlXlXsXhXsXsXhXsXaXaXaXaXaXaXsXaXaXaXaXaXuXuXuXuXuXaXaXuXuX9X9XyXyXyX6X6X6X6X6X6X3X3X3X3XS.3XS.S.S.S.S.S.A.S.S.A.A.A.A.A.A.A.D.j.k.z.J.).b._.OX_.b.x.c.c.v._.+X|.XXXX.X).W.W.`.`.].{.{.{.{.{..X@XDXGXGXGXLXLXLXLXLXLXKXKXKXKXKXKXKXKXKXKXKXKXKXKXKXPXKXPXPXPXPXPXPXPXPXKXKXKXKXKXKXJXJXJXJXHXHXHX&XXXXXXXoXoX|.|.|.|.|.|.|.|.|.|.|.|.|.|.|.|.|.|.|.|.|.oXoXoX|.|.|.|.|.T.R.x.y.u.q.3.3.3.:.;.;.;.:.;.K H ;.;.;.:.>.<.q.q.q.e.e.x.x.x.P.P.I.I.I.I.I.I.I.I.I.I.E.Y.Y.Y.Y.Y.Y.E.E.Y.Y.Y.Y.E.Y.I.Y.Y.T.E.R.P.P.y.y.t.r.7.3.4.2.L P J J G N H ;.:.;.,.,.4.4.3.4.2.J J J ~ ~ ~ W R W Q Q Q W W W W W W W W W W E E E E E E E E E E E E E E E E E E E Y Y Y Y Y Y Y Y T T T D T S S S D D Y Y D D D D S S D D S S S S S Z m n n n n m m n n v n v v n n v v v v v v v v v v v c c c c f f f f p p p p p p p p a a y y y y r r ",
"bXbXbXbXbXbXbXbXNXNXNXNXNXNXNXNXNXNXNXNXNXNXNXNXNXNXNXNXmXmXmXmXNXmXbXbXbXbXbXbXbXbXbXvXbXvXvXvXvXvXvXjXjXlXlXlXkXkXkXlXkXhXhXhXlXlXlXhXhXsXhXhXaXaXaXaXaXaXaXaXaXaXaXaXuXuXuXuXuXuXuXuXuXuXuX9XyXyXyX6X6X6X6X6X6X3X3X3X3XS.3XS.S.S.S.S.S.A.S.S.S.S.5XA.A.A.2XD.D.s.z.J.).b.b.OXOXb.x.c.c.x.E._.|.XXHX.X).R.W.`.].{.{.{.{.{.{.@XDXDXGXGXGXLXLXLXGXLXLXKXKXKXKXKXKXKXKXKXKXKXKXKXPXPXPXPXPXPXPXPXPXPXPXPXKXKXKXKXKXKXKXKXJXJXJXJXHX&XXXoXoXoXoXoX|.|.|.|.|.|.|.|.|.oX|.|.oX|.|.|.|.|.oXoXoXoXoXoX|.|.|.|.T.R.x.y.u.q.3.3.3.3.:.:.:.;.K K H H ;.;.;.>.<.q.q.q.w.e.x.x.x.P.P.I.I.E.I.I.I.I.I.I.I.E.Y.E.E.E.E.E.E.E.Y.Y.E.E.Y.Y.Y.Y.Y.T.R.P.P.P.y.y.t.r.7.3.2.2.' P I K G N H ;.;.;.;.,.,.,.4.4.L J J J ~ ~ ~ W R T W Q Q W Q W W W W W W W W E E E W E E E E E E W E E E E Y Y Y Y Y Y Y Y Y Y Y Y T T T D T S S Y D Y Y Y D D D D S S S D S S S S S Z m n n n n m m n n v v v v n v v v v v v v v n v v v c c c c f p f f f p p p a p p a a u y y u y r r ",
"bXbXbXbXbXbXbXbXNXNXNXNXNXNXNXNXNXNXNXNXNXNXNXNXNXNXNXNXmXmXmXmXNXmXbXbXbXbXbXbXbXbXbXbXvXvXvXvXvXkXvXkXjXlXlXlXkXkXkXlXkXhXhXhXlXlXlXhXhXsXsXsXaXaXaXaXaXaXaXaXiXaXaXaXaXuXuXuXuXuXuXuXuXuXuX9XyXyXyX6X6X6X6X6X6X3X3X3X3XS.3XS.S.S.S.S.D.A.S.S.S.A.A.A.A.A.A.D.D.s.z.J.).v.b.OXOXE.b.c.c.x.b._.|.XXHXXX`.W.`.`.].{.{.{.{.{.{.@XDXDXGXGXGXLXLXLXGXLXLXKXKXKXKXKXKXKXKXKXKXKXKXKXPXPXPXPXPXPXPXPXPXPXPXPXKXKXKXKXKXKXKXKXKXJXJXJXHX&X.XoXoXoXoXoX|.|.|.|.|.|.|.|.|.|.|.oXoX|.|.|.oXoXXXXXHXHXXXXXoX|.|.T.T.R.x.y.u.q.3.3.3.3.4.:.;.K K H H H H ;.;.>.>.q.q.q.w.e.x.x.x.P.P.I.I.E.I.I.I.I.I.I.I.I.E.Y.E.Y.E.E.E.E.Y.Y.E.E.E.Y.Y.Y.R.E.R.P.P.P.y.y.t.r.7.3.2.2.L P P I G N G K ;.H m.,.;.;.;.K K K J J ~ ~ ~ Q Q T W Q Q W W W W W W W W W W E E E W E E E E E E W E E E E Y Y Y Y Y Y Y Y Y Y Y Y T T T T T S S S D D Y Y D D D D S S S S S S S S S Z m n n n n m m n n v v v n n v v v v v v v v n v v v c c c c p p f f f p p p a a a a a u y y u y r r ",
"bXbXbXbXbXmXbXbXNXNXNXNXNXNXNXNXNXNXNXNXNXNXNXNXNXNXNXNXNXNXmXmXmXmXbXbXbXbXbXbXbXbXbXkXkXkXjXjXjXkXkXkXkXkXkXlXlXlXlXlXlXlXlXlXhXlXlXhXhXsXsXsXsXsXsXaXaXaXaXaXaXaXaXaXaXaXaXiXaXaXaXuXuXuX9X9XyX6X6X6X6X6X6X6X3X3X3X3X3X3XS.S.S.S.S.D.D.D.D.S.D.S.D.A.A.A.A.D.D.F.z.J.R.T.b.b._.E.v.x.u.u.c.v._.XXHXDX`.H.W.{.`.`.`.].{.{.{.{.DXGXGXGXLXLXLXLXKXKXLXKXKXKXKXKXKXKXKXKXKXKXKXKXPXPXPXPXPXPXKXKXPXPXPXPXPXPXKXKXKXKXKXUXJXJXJXHXHXHXXXXX.XoX|.|.|.|.|.).).).|.|.|.|.|.|.|.|.|.|.|.|.oXXX+X+XXXXXXXoX|.|._.R.x.y.u.q.3.>.>.;.:.:.;.K K K K H H H :.>.<.q.q.q.q.u.x.x.x.P.P.I.I.I.I.I.I.I.I.I.I.E.~.~.~.E.~.Y.E.Y.E.E.E.E.Y.Y.Y.Y.R.T.R.R.x.x.y.y.r.r.7.7.4.2.:.L K J B B H H H H B ;.;.K ;.4.4.B M F ~ ~ W W W W Q W W W W W W W W W W E E E E E W E Y Y Y Y E W E E E E E Y Y Y E E E E E T E T Y Y Y Y Y D D D S S S S S S S S S S S S S S S S m m m m m m m n n n m n n v v v v v v v v v v v v v v c c c c c f f c p l p p p p p p a a a u u u u u r ",
"bXbXbXbXbXbXbXbXNXNXNXNXNXNXNXNXNXNXmXNXNXNXNXNXNXNXNXNXNXNXmXmXNXmXbXbXbXbXbXbXbXbXxXxXxXlXjXlXkXkXkXkXkXkXkXlXlXlXlXlXlXlXlXlXhXhXlXhXsXsXsXsXsXsXsXaXaXaXaXaXaXaXaXaXaXaXiXiXuXuXuXuXuXuX9X9XyX6X6X6X6X6X6X6X3X3X3X3X3X3XS.S.S.S.S.D.D.D.D.S.D.D.D.A.B.A.A.D.D.F.G.J.).T.b.b._.E.E.v.c.u.c.v.|.XXHX.XW.J.`.{.`.`.`.].{.{.{.{.DXGXGXGXLXLXLXLXKXKXLXKXKXKXKXKXKXKXKXKXKXKXKXKXPXPXPXPXPXPXPXPXPXPXPXPXPXPXKXKXKXKXUXUXUXJXJXHXHXHXXXXX.X.X|.|.|.|.|.T.).|.|.|.|.|.^.^.|.|.|.|.|.|.XXXXHXHXFXHXoX|.|.|.T.R.x.y.u.q.3.>.>.;.;.:.;.K H H H H H ;.:.>.>.q.q.q.u.e.x.x.x.P.P.I.I.I.I.I.I.I.I.I.I.I.~.~.~.~.E.Y.Y.Y.Y.Y.E.Y.Y.Y.Y.I.Y.Y.R.P.x.x.y.y.r.r.7.7.4.2.:.L K J B B H H H H B H K K ;.4.4.B M F ~ ~ ~ W W Q Q W W W W W W W W W W E E E E E W E Y Y Y Y E W E E E E E Y Y Y E E E E E E E T Y Y Y Y Y Y Y D S S S S S S S S S S S S S S S S m m m m m n m n n n m n n v v v v v v v n v v v v v v c c c c c f f c f l p p p p p p a a a u u u y y r ",
"bXbXbXbXmXmXbXbXNXNXNXNXNXNXNXNXNXNXmXNXNXNXNXNXNXNXNXNXNXNXmXmXNXNXNXNXmXmXmXbXbXbXbXxXxXlXlXlXkXkXkXkXkXkXkXlXlXlXlXlXlXlXlXlXhXhXhXsXsXsXsXsXsXsXsXaXaXaXaXsXaXaXaXaXaXaXiXiXuXuXuXuXuXuX9X9XyXyX6X6X6X6X6X6X3X3X3X3X3X3X3XS.S.S.S.D.D.D.D.S.D.D.D.A.A.A.A.D.D.F.z.J.).).v.x.E.E.E.E.v.c.c.v.T..XHX'.W.W.`.`.`.`.].{.{.{.{..XDXGXGXGXLXLXLXLXLXLXLXKXKXKXKXKXKXKXKXKXKXKXKXKXPXPXPXPXPXPXPXPXPXPXPXPXPXPXKXKXKXKXUXUXUXJXJXHXHXHXXXXXXXXX.X|.|.).T.T.T.).|.|.|.^.|.|.|.|.|.|.|.oXXXHXHXHXHXHXDX.X|.|._.R.v.y.u.q.3.>.>.;.;.:.;.K H H H H H ;.:.>.>.1.q.q.u.e.x.x.x.P.I.I.I.I.I.I.I.I.I.I.I.I.~.~.~.~.E.E.Y.Y.Y.Y.E.Y.Y.Y.I.I.Y.Y.R.P.y.y.y.y.r.r.7.7.3.2.:.P I J B B H H H N B H H H ;.4.;.B M F ~ ~ ~ ~ Q Q Q W W W W W W W W W W E E E E E W E E Y Y E E W E E E E E Y Y Y E E E E E E E T T T Y Y Y Y Y Y D D S S S S S S S S S S S S S S m m m m m m m m n n n n n v v v v v v n n v v v v v v c c c c c f f f f f p p p p p a a a a u u y u u r ",
"bXbXbXmXmXmXNXNXNXNXNXNXNXNXNXNXNXNXNXNXNXCXNXNXNXNXNXNXNXNXNXNXNXNXNXNXmXmXmXmXbXbXbXxXxXxXlXjXkXkXkXkXkXkXkXlXlXlXlXlXlXlXlXlXhXhXhXsXsXsXsXsXsXsXsXaXaXaXaXsXaXaXaXaXaXiXiXiXuXuXuXuXuXuX9X6XyXyX6X6X6X6X6X6X6X6X3X3X3X3X3X3XS.S.S.D.D.D.D.S.D.D.D.D.A.A.A.D.D.F.z.z.R.v.v.c.v.E.E._.E.v.v.v.R.'.HX.XW.W.`.`.`.].].{.{.{..X%XDXGXGXGXLXLXLXLXLXJXLXKXKXKXKXKXKXKXKXKXKXKXKXKXKXKXPXPXPXPXPXPXPXPXPXPXPXPXKXKXKXKXUXUXUXJXJXHXJXHXXXXXXXXX.XoXT.T.T.T.T.T.T.T.T.T.|.|.|.|.oXoXoXXXHXHXUXUXHXHXHXHXXX|.|.T.R.v.y.q.5.3.3.:.,.:.:.K K K H H H ;.:.>.>.1.q.q.e.e.x.x.x.P.I.I.I.I.I.I.I.I.I.I.I.I.~.~.~.~.~.E.Y.Y.Y.Y.E.Y.Y.Y.I.I.Y.Y.R.y.y.y.y.y.r.r.8.7.3.2.:.P K J G B H G N N B B B B K ;.K B M F ~ ~ ~ W Q Q Q W W W W W W W W W W E E E E E W E E E E E E W E E E E E Y Y Y E E E E E E E T T T Y Y Y Y D D D D S S S S S S S S S S S S S S Z S Z Z Z Z Z Z n n n n n v v v v v v n n v v v v v v c c c c c f f c f f p p p p p p a a a u u u u r r ",
"bXbXmXmXbXNXNXNXNXNXNXNXNXNXNXNXNXNXNXNXNXCXNXNXNXNXNXNXNXNXNXNXNXNXNXNXmXmXbXbXbXbXbXbXxXkXkXkXkXkXkXkXkXkXkXlXlXlXlXlXlXlXlXlXlXlXlXsXhXsXsXsXsXsXsXaXaXaXaXsXaXaXaXaXaXaXaXaXaXaXuXuXuXuX9X9XyXyXyX6X6X6X6X6X6X6X3X3X3X3X3X3XS.S.S.D.D.D.D.S.D.D.D.D.D.D.A.D.D.F.z.z.v.).v.x.x.v.E._.E.b.v.v.y.).XX.X).H.J.`.`.].].{.{.{.GXGX@XGXGXGXLXLXLXLXLXLXLXKXKXKXKXKXKXKXKXKXKXUXPXPXLXKXKXKXPXPXPXPXPXPXPXPXPXPXKXKXKXKXUXUXUXJXJXHXHXHXHXHXXXXX.X|.T.T.T.T.T.T.T.T.T.T.|.|.|.oXoX.XHXHXHXUXUXUXUXUXUXHXFXoX|._.T.R.v.u.q.3.3.3.4.>.:.:.:.:.L H H H :.>.>.1.q.q.e.e.x.x.x.P.P.I.I.I.I.I.I.I.I.I.I.I.~.~.~.~.E.E.E.Y.Y.Y.Y.Y.Y.Y.Y.Y.Y.Y.P.y.y.y.y.y.r.r.r.7.6.2.:.P K J G N H G N N N N B B K K B N M F ~ ~ ~ W Q Q Q W W W W W W W W W W E E E E E W E E E E E E W E E E E E E E E E E E E E E E T T T T S Y D D D D S S S S S S S S S S S S S S S Z Z Z Z S Z Z Z n n n n n n n n v n n n v v v v v v v c c f c c c c c f f f f f p p p a a a u u u r r r ",
"NXmXmXmXNXNXmXNXNXNXmXNXNXNXNXNXNXNXNXNXCXCXCXNXNXNXNXNXNXNXNXNXNXNXNXNXmXmXbXbXbXbXbXbXxXkXkXkXkXkXkXkXkXkXkXlXlXlXlXlXlXlXlXlXlXlXlXsXhXsXsXsXsXsXsXaXaXaXaXaXaXaXaXaXaXaXaXaXaXaXuXuXuXuX9X9XyXyXyXyX6X6X6X6X6X6X6X3X3X3X3X3XS.S.S.D.D.D.D.S.A.D.D.D.D.D.A.D.D.F.F.z.l.v.v.v.x.v._._._.E.b.v.y.l.)..X'.H.H.`.`.].}.{.{.{..XGXGXGXGXGXLXLXLXLXJXLXLXKXKXKXKXKXKXKXKXKXUXKXPXPXLXLXKXKXKXPXPXPXPXPXPXPXPXPXKXKXKXKXUXUXUXJXJXHXJXHXHXHXXXXXoX|.T.T.T.T.T.T.T.T.|.|.|.|.oXoX.XXXHXHXUXUXUXUXUXUXUXHXXX|.|._.T.R.R.y.q.q.3.3.3.3.>.:.:.:.:.K H H :.>.>.1.q.q.e.e.e.x.x.P.P.I.I.I.I.I.I.I.I.I.I.I.~.~.~.~.E.E.Y.Y.Y.Y.Y.Y.Y.Y.Y.Y.Y.Y.P.y.y.y.y.y.r.r.7.7.2.2.L P J J N G H H H B B B B B J J B N M F ~ ~ ~ ~ Q Q Q W W W W W W W W W W E E E E E W W W W W W W W E E E E E E E E E E E E E E E T T T T S Y D D D D D S S S S S S S S S S S S S S S S S S S S S S n m m n n n v n v n n n v v v v v v v c c f c c c c c f f f f f p p p a a a u u u u r r ",
"NXNXmXNXNXNXNXNXNXNXmXNXNXNXNXNXNXNXNXNXCXCXCXNXNXNXNXNXNXNXNXNXNXmXmXmXbXbXbXbXbXbXbXbXxXxXkXkXkXkXkXkXkXkXkXlXlXlXlXlXlXlXlXlXlXlXlXhXhXsXsXsXsXsXsXaXaXaXaXaXaXaXaXaXaXiXaXaXaXaXuXuXuXuX9X9XyXyXyXyXyX6X6X6X6X6X6X3X3X3X3X3XS.S.S.D.D.D.D.S.A.A.D.D.D.D.A.D.A.F.F.z.l.v.v.E.v.E._._._._.E.v.y.y.l.'.'.H.H.`.`.`.].{.{.{..XGXGXGXGXLXLXLXLXLXKXKXLXKXKXKXKXKXKXKXKXKXPXPXPXPXLXLXKXKXPXPXPXPXPXPXPXPXPXPXPXKXKXKXUXUXJXJXJXHXUXHXHXHXXX.X|.'.T.T.).|.|.|.|.|.|.|.|.oXoXXXXXHXHXKXUXUXPXPXPXPXUXUXHXoX_.|._.T.T.y.q.q.3.3.3.3.2.:.:.:.;.K H ;.:.>.7.q.q.e.e.e.e.x.x.x.P.P.I.I.I.I.I.I.I.I.I.I.~.~.~.~.E.E.E.E.Y.Y.Y.Y.Y.Y.Y.Y.Y.Y.P.y.y.y.y.y.r.r.7.6.2.2.L P J G N N H K H H B B H H J B B B M F ~ ~ ~ W W Q Q W W W W W W W W W W E E E E E E W W W W W W E E E E E E Y E Y E E E E E E E T Y Y Y S Y D D Y S S S S S S S S S S S S S S S S S S S S S S S S n n n n n v v v v n v v v v v v v v v c c c c c c c c f p p p p p p p a a a u u y y u r ",
"bXNXNXNXNXNXNXNXNXmXmXNXNXNXNXNXNXNXNXNXCXCXCXNXNXNXNXNXNXNXNXNXmXmXbXbXbXbXbXbXbXbXbXbXbXxXkXkXkXkXkXkXkXkXkXlXlXlXlXlXlXlXlXlXlXlXlXhXhXsXsXsXsXsXsXaXaXaXaXaXaXaXaXaXaXiXaXaXaXaXuXuXuXuX9X9XyXyXyXyXyX6X6X6X6X6X6X3X3X3X3X3XS.S.S.D.D.D.D.S.A.A.D.D.D.D.A.B.A.D.F.G.l.v.v._.v._._._._._._.E.v.r.t.)..XR.H.].`.`.].{.{.{.{..XGXGXGXLXLXLXLXLXKXKXLXKXKXKXKXKXKXKXKXPXPXPXPXPXLXLXKXKXPXPXPXPXPXPXPXPXPXPXPXKXKXKXUXUXJXJXJXHXUXHXHXHXXX.X|.).T.'.|.|.|.|.|.|.|.oXoXoXoX.X.X.XJXKXKXPXPXPXPXPXUXUXHXXXoX_.|.|.T.y.u.q.3.3.3.3.3.:.:.:.;.K ;.;.;.>.7.q.q.w.e.e.e.x.x.x.P.P.I.I.I.I.I.I.I.I.I.I.E.~.~.~.E.E.E.E.Y.Y.Y.Y.Y.Y.Y.Y.Y.Y.R.x.y.y.y.y.r.q.7.6.2.:.L P J G N N J K K K H H K K J B B J F F ~ ~ ~ W E W Q W W W W W W W W W W E E E E E E W W W W W W E E E E E E Y Y Y E E E E E E E T Y Y Y S Y D D Y S S S S S S S S S S S S S S S S S S S S S S S S n n n n n v v v v v v v v v v v v v v c c c c c c c c p p p p p p p p a a a u u y y y u ",
"bXbXNXNXNXNXNXNXNXNXNXNXNXNXNXNXCXCXNXNXNXNXNXNXNXNXNXNXNXNXNXNXNXNXbXbXbXbXbXmXbXbXbXbXkXkXkXkXkXkXkXkXkXkXkXkXkXkXkXlXlXlXlXkXkXkXkXhXhXsXsXsXsXsXsXsXsXsXsXaXaXaXaXiXaXaXuXuXiXaXuXuXuXuXuXuXyXyXyXyXyX6X6X6X6X6X6X6X3X3X3X3XS.S.S.S.S.D.D.D.D.D.D.A.A.A.A.A.D.D.k.z.J.)._._._._.oX+X+X+XoXoXR.l.y.y.R.).`.W.`.`.].{.{.{.{.@X{.DXGXLXLXLXGXLXLXLXKXKXKXKXKXKXKXKXKXKXKXPXPXPXPXPXPXPXPXPXPXPXPXPXPXPXPXKXKXKXKXKXUXUXUXJXJXJXUXHXXXHXXXoX).T.).|.oXoXoXoXoXoXoXoXoXXXXXHXHXHXHXKXKXKXKXPXPXPXUXUXUXHXoX_.|.|._.v.t.q.7.3.3.7.3.3.3.>.>.:.;.;.;.>.>.1.q.e.e.e.x.x.x.x.x.P.I.E.I.I.I.I.I.I.I.E.E.E.E.E.E.E.E.E.Y.Y.Y.Y.Y.I.P.P.Y.Y.R.P.y.y.y.t.r.q.7.2.2.:.P K J G G N H P L K K K K B N N J J M F ~ ~ ~ W W Q Q W W W W W W W W W W W W W W W W E W W W W W W W W W E E E E E E E E E E E E T D Y T Y Y D D S S S S S S S S S S S S S S S S S Z S S S S S S Z n n n n n n n n v v v v v v v v v v c c c c c c c c f f f p p p a p p a u y u u r r y u ",
"bXbXmXNXNXNXNXNXNXNXNXNXNXNXNXNXCXCXNXNXNXNXNXNXNXNXNXNXNXNXNXNXNXNXNXNXmXmXmXmXbXbXbXbXxXxXkXkXkXkXkXkXkXkXkXkXkXkXkXlXlXlXlXkXkXkXkXhXhXsXsXsXsXsXsXsXsXsXsXaXaXaXaXiXaXaXuXuXaXaXuXuXuXuXuXuXyXyXyXyXyX6X6X6X6X6X6X6X3X3X3X3XS.S.S.S.D.D.D.D.D.D.D.A.A.A.A.A.D.F.z.G.J.)._._._._.oX+X+X+XoXoX_.R.y.y.H.R.W.W.`.`.].{.{.{.{.@X{.DXGXLXLXLXGXLXLXLXKXKXKXKXKXKXKXKXKXKXKXPXPXPXPXPXPXPXPXPXPXPXPXPXPXPXPXKXKXKXKXKXUXUXUXUXJXJXUXHXHXHXXXoXT.T.|.|.oXoXoXoXoXoXoXXXXXXXXXDXHXHXHXKXUXKXKXPXPXPXUXUXHXHXoX_.|.|._.v.t.r.7.3.3.7.3.3.3.3.3.>.;.;.;.>.>.1.q.e.e.e.e.x.x.x.x.P.I.I.I.I.I.I.I.I.I.E.E.E.E.E.E.E.E.E.Y.Y.Y.Y.Y.I.P.P.Y.Y.P.P.y.y.y.t.r.q.7.2.2.:.P K G G N N H L ;.;.;.;.K B N N J J M F ~ ~ ~ ~ W Q Q W W W W W W W W W W W W W W W W W W W W E E W W W W E E E E E E E E E E E E T D Y T T Y D S S S S S S S S S S S S S S S S S S Z S S S S S S Z n n n n n n n n v v v v v v v v v v c c c c c c c c f f f p p p a p p p u u u a u y u u ",
"bXbXbXNXNXNXNXNXNXNXNXNXNXNXNXNXCXCXNXNXNXNXNXNXNXNXNXNXNXNXNXNXNXNXNXNXNXmXmXbXbXbXbXbXkXxXxXkXkXkXkXkXkXkXkXkXkXkXkXlXlXlXlXkXkXkXkXlXhXsXsXsXsXsXsXsXsXsXsXaXaXaXaXiXaXaXaXaXaXaXuXuXuXuXuXuXyXyXyXyXyX6X6X6X6X6X6X6X3X3X3X3XS.S.S.S.D.D.D.D.D.D.D.D.A.A.A.A.A.F.s.L.).)._.oX_.oXoXXXFXFX+XoXoX_.R.l.l.R.W.`.`.`.].].{.{.{.{.{.@XGXGXLXLXLXLXLXJXKXKXKXKXKXKXKXKXKXKXKXPXPXPXPXPXPXPXPXPXPXPXPXPXPXPXKXKXKXKXKXKXUXUXUXUXUXJXUXHXHXHXXX|.).T.|.oXoXXXXXoXoXoXXXXXXXXXXXDXDXDXDXKXKXKXUXUXPXUXUXUXHXXXoX|.|.|._.v.y.r.3.3.3.7.3.3.3.7.3.3.:.;.;.:.>.1.q.e.e.e.x.x.x.x.x.P.I.I.I.I.I.I.I.I.I.I.E.E.E.E.~.E.E.E.Y.Y.Y.Y.I.I.P.P.Y.P.P.M.y.y.r.t.r.q.7.2.2.L P K G N N N K L ;.;.4.2.;.H N N J J M F ~ ~ ~ W W Q Q W W W W W W W W W W W W W W W W W W W W W W W W W W E E E E E E E E E E E E T Y T T T Y D S S S S S D S S S S S S S S S S S S Z S S S S S S Z m m n n n n v v v v v v v v v v v v c c c c c c c c f f f p p p p f p p a u u a y y u a ",
"bXbXmXNXNXNXNXNXNXNXNXNXNXNXNXNXCXCXNXNXNXNXNXNXNXNXNXNXNXNXNXNXmXNXNXNXNXNXbXbXbXbXbXbXxXxXxXxXzXzXkXkXkXkXkXkXkXkXkXlXlXlXlXkXkXkXkXlXhXsXsXsXsXsXsXsXsXsXsXaXaXaXaXiXaXaXuXaXaXaXaXuXuXuXuXuXyXyXyXyXyX6X6X6X6X6X6X6X3X3X3X3X3XS.S.S.S.D.D.S.D.D.D.D.D.A.D.D.A.F.F.L.).)._.oXoXoXXX+XFXFXFXXXoX_._.R.l.H.R.`.`.`.].}.].{.{.{.{.@XGXGXLXLXLXLXLXKXKXKXKXKXKXPXKXKXKXKXKXPXPXPXPXPXPXPXPXPXPXPXPXPXPXPXKXKXKXKXKXKXUXKXUXUXUXJXUXHXHXHXXX|.).'.oXXXXXXXXXXXXXXXXXXXXXXXXXXXDXDXDXHXKXHXHXUXUXUXUXUXHXXXoXoX|.|._.v.u.q.3.3.3.7.7.7.7.7.7.3.:.;.;.:.>.q.q.e.e.e.x.x.x.x.x.P.I.I.I.I.I.I.I.I.I.I.E.E.E.E.~.E.E.E.Y.Y.Y.Y.Y.I.P.P.Y.P.P.y.y.y.t.w.r.8.7.2.2.L K J G N N G K ;.4.3.7.3.4.K B B J F M F ~ ~ ~ W W Q Q W W W W W W W E E E E E E E E W W W W W W W W W W W E E E E E E E E E E E E T Y T T T T D D S S S S D S S S S S S S S S S S S Z S S S S S S Z m m m n n v v v n v v v v v v v v v c c c c c c c c f f f p p p p p f p a a a a y u u u ",
"bXbXmXNXNXNXNXNXNXNXCXNXNXNXNXNXCXCXNXNXNXNXNXNXNXNXNXNXNXNXNXNXbXmXNXNXNXmXbXbXbXbXbXbXxXxXxXxXzXzXzXkXkXkXkXkXkXkXkXlXlXlXlXkXkXkXlXlXlXlXhXhXsXsXsXsXsXsXsXaXaXaXaXiXiXuXuXaXaXaXuXuXuXuXuXuXyXyXyXyXyX6X6X6X6X6X6X6X3X3X3X3X3XS.S.S.S.S.S.S.D.D.D.D.D.D.D.D.A.D.F.L.).)._.oXXX+XXXFXFXFXFXFX_.oX|.T.R.R.R.`.`.`.].].].}.{.{.{.@XGXGXLXLXLXLXJXKXKXKXKXKXKXPXKXKXKXPXPXPXPXPXPXPXPXPXPXPXPXPXPXPXKXKXKXKXKXKXKXKXUXKXUXUXUXUXUXHXHXXX.X|.'.|.oXXXXXHXHXXXXXXXXX.XXXXXXXXXXXXXDXHXHXHXHXUXUXUXUXUXHXHXXXoX|.|._.v.u.q.3.3.3.r.r.q.7.7.7.3.>.;.;.:.>.q.w.e.e.x.x.x.x.x.x.P.I.I.I.I.I.I.I.I.I.I.E.E.E.E.~.~.E.E.Y.Y.Y.Y.Y.Y.P.P.P.P.y.y.y.y.t.r.r.8.6.2.2.L K H J N N H :.4.3.8.r.r.3.4.K J J M M F ~ ~ ~ W W Q Q W W W W W W W E E E E E E E E W W W W W W W W W W W E E E E E E E E E E E E T Y T Y T T Y D S S S D D S S S S S S S S S S S S Z S S S S S S S n n n n n v v v n n v v v v v v v v c c c c c c c c c f f p p p p p f p a a a a y u u u ",
"bXbXmXNXNXNXNXNXNXNXCXNXNXNXNXCXCXCXNXNXNXNXNXNXNXNXCXCXNXNXNXNXbXmXNXNXmXmXbXbXmXbXbXbXxXxXxXxXzXzXzXkXkXkXkXkXkXkXkXlXlXlXlXkXhXhXlXlXlXlXlXlXsXsXsXsXsXsXsXaXaXaXaXiXaXuXuXuXaXaXuXuXuXuXuXuXyXyXyXyXyXyX6X6X6X6X6X6X3X3X3X3X3X3XS.S.S.S.S.S.S.D.D.D.D.D.D.D.D.D.D.L.).)._.oX+XXXXXXXFXFXFXFX_._.oX|.T.R.R.).`.`.].].].].{.{.{.{.GXGXGXLXLXLXJXKXKXKXKXKXKXPXKXKXKXPXPXPXPXPXPXPXPXPXPXPXPXPXKXKXKXKXKXKXKXKXKXKXUXKXUXUXUXJXUXHXHXXX.X'.'.|.oXXXHXHXHXXXXXXXXX.XXX.X.X.X.X.X.XHXHXHXHXUXUXUXUXUXHXFXoX|.|.|.T.l.u.q.3.3.3.r.r.r.7.q.q.7.3.>.:.>.>.q.e.e.e.x.x.x.x.x.x.P.P.I.I.I.I.I.I.I.I.I.E.E.E.~.~.~.E.Y.Y.Y.Y.Y.Y.Y.P.P.P.P.y.y.y.y.t.r.q.7.3.2.2.L K K J N B P 4.3.r.r.k.r.8.4.' I J M M F ~ ~ ~ W W Q Q W W W W W W W E E E E E E E E W W W W W W W W W W W E E E E E E E E E E E E T Y Y Y Y Y Y D S S S D D S S S S S S S S S S S S Z S S S S S S Z n n n v n v v v n n v v v v v v v v c c c c c c c c c f f f p p p p p p a u u a y u r r ",
"bXbXmXNXNXNXNXNXNXNXCXCXNXNXNXCXCXCXNXNXNXNXNXNXNXNXNXNXNXNXNXNXNXNXNXNXmXbXbXbXmXmXbXbXxXxXxXxXkXkXzXkXkXkXkXkXkXkXkXlXlXlXlXkXhXhXhXhXlXlXlXlXsXsXsXsXsXsXsXaXaXaXaXiXaXuXuXuXaXaXuXuXuXuXuXuXyXyXyXyXyX6X6X6XyX6X6X6X3X3X3X3X3X3XS.S.S.S.S.S.S.S.D.D.D.D.D.D.A.D.F.L.).).oXoX+XXXXXXXXXXXFXoX_.oXoX|.).).R.W.`.`.].].].].}.{.{.{.GXGXGXGXLXLXLXKXKXKXKXKXKXPXKXKXKXPXPXPXPXPXPXPXPXPXPXPXPXPXPXPXPXKXKXKXKXKXKXKXUXKXUXUXJXJXUXHXHXXX.X'.|.|.XXXXHXHXHXXXXXXX.X.X.X.X.X.X.X.X.XDXHXHXHXUXUXUXUXUXHXXX|.|._.T.T.y.u.q.3.3.3.r.r.r.r.r.r.r.7.3.>.:.>.q.e.e.e.e.x.x.x.x.x.P.P.I.I.I.I.I.I.I.I.I.E.E.E.~.E.E.E.Y.I.Y.Y.!.Y.Y.P.P.Y.P.y.e.y.y.t.w.q.7.2.:.2.L P K G N H 2.8.r.r.r.r.r.8.2.2.' I J M F ~ ~ ~ W W Q Q W W W W W W W E E E E E E E E W W W W E W W W W W W E E E E E E E E E E E E T D T Y Y Y Y D S S S S S S S S S S S S S S S S S Z S S S S S S Z n n n v n v v v n n v v v v v v v v c c c c c c c c c f f p p p a p p p u u y a y y u r ",
"bXbXmXNXNXNXNXNXNXNXCXCXNXNXNXCXCXCXNXNXNXNXNXNXNXNXNXNXNXNXNXNXNXNXNXNXmXmXmXmXmXmXmXbXbXxXBXxXvXkXvXkXkXkXkXkXkXkXkXlXlXlXlXkXhXhXhXhXhXhXlXlXsXsXsXsXsXsXsXaXaXaXaXiXaXuXuXuXaXaXuXuXuXuXuXuXyXyXyXyXyX6X6X6XyX6X6X6X3X3X6X6X3X3XS.S.S.S.S.S.S.S.S.D.D.D.D.D.D.A.F.L.J.).oXFXXXXXXXXXXXoXXXoXoXoXoX_.).).R.W.`.`.].].].`.{.{.{.{.GXGXGXGXLXLXKXKXKXKXKXKXKXPXKXPXKXPXPXPXPXPXPXPXPXPXPXPXPXPXPXKXKXKXKXKXKXKXKXUXUXUXUXUXUXUXUXHXHXXX.X'.|.oXXXXXHXHXHXXXXXXX|.'.'.'.|..X.X.X.XDXHXHXHXUXUXUXUXHXHXXX|.T.T.T.R.y.r.3.3.3.7.r.r.r.r.t.t.t.q.3.>.:.,.1.e.e.e.e.x.x.x.x.x.P.P.I.I.I.I.I.I.I.I.I.I.E.E.E.E.E.E.Y.I.Y.Y.~.!.Y.P.P.Y.P.y.y.e.y.t.r.q.7.2.:.:.L P K x x J 2.r.r.r.r.r.r.8.3.2.' ' J F F ~ ~ ~ W W Q Q W W W W W W W E E E E E E E E W W E E W W W W W W W E E E E E E E E E E T E T D T T Y Y Y D S S S S S S S S S S S S S S S S S Z S S S S S S Z n n n v n v v v v n v v v v v v v v c c c c c c c c c f f p p p a p p a u y y u a u y u ",
"NXNXNXNXNXNXNXNXNXNXNXNXNXNXCXCXNXNXNXCXCXCXNXNXNXCXCXCXCXNXNXNXNXAXNXNXNXbXmXmXmXmXmXmXmXBXBXBXBXBXBXBXBXkXkXkXkXkXkXlXlXlXlXlXkXkXlXhXhXhXhXhXhXhXhXhXhXsXsXsXaXaXaXiXiXiXiXiXuXuXuXuXuXyX6X6XyXyXyXyXyXyX6X6X6X6X6X3X3X3X3X3X3X3X3X3X3X3XS.S.S.S.S.S.S.S.A.D.D.F.s.G.J.DX.X|.XXXXXXXXXXXXXXoX+X_._._.).).R.J.`.`.`.`.{.{.'.'.{.{.{.GXGXGXLXLXLXLXLXKXKXKXKXKXPXIXPXPXPXPXPXPXPXPXPXPXPXPXPXPXKXKXKXKXKXJXJXJXUXUXUXUXUXUXUXUXXXXXXXXXoX|.|.XXXXXXHXHXXXXXXXDX).oXDXDX|.|.oXoXoXoXoXDXHXHXHXHXXXXXXXoX|.T.T.R.R.y.3.3.3.3.r.r.r.u.r.y.y.y.r.7.:.;.,.>.q.e.e.x.x.x.x.x.x.x.x.P.I.I.I.I.I.P.P.P.I.I.I.I.E.E.E.E.Y.Y.Y.Y.Y.Y.P.P.Y.P.M.y.y.t.w.w.7.7.:.L K P H G G x J 6.r.r.r.q.r.t.r.8.6.6.'  .~ W W W W Q Q Q Q Q W W W E W W W E E E E E E W W W W W W W W W E E E E E Y Y Y Y Y W W W T Y Y T T Y D D D S S S S S S S S S S S S S S S S S S S S S S Z m n n n n n n n v v v v v v v v v v c c c c c c f f f f p p p f c f p p p p p p a a a u u u y ",
"NXNXNXNXNXNXNXNXNXNXNXNXNXNXCXCXNXNXCXCXNXNXNXNXNXCXCXCXCXNXNXNXNXAXAXNXNXbXmXmXmXmXmXmXmXBXBXBXBXBXBXBXBXkXkXkXkXkXkXlXlXlXlXlXkXkXlXhXhXhXhXsXhXhXhXhXhXsXsXsXaXaXaXiXiXiXiXiXuXuXuXuXuXyX6X6XyXyXyXyXyXyX6X6X6X6X6X3X3X3X3X3X3X3X3X3X3X3XS.S.S.S.S.S.S.S.A.D.D.F.s.F.J.}.}.'.|.oXoXXXXXXXXXoX+X_._._.|.).R.).`.`.`.`.{.'.'.'.{.{.{.GXGXGXLXLXLXLXLXKXKXKXKXKXIXIXIXPXPXPXPXPXPXPXPXPXPXPXPXKXKXKXKXJXJXJXJXJXUXUXUXUXHXHXHXHXXXXXXXXXoX|.|.XXXXXXUXUXHXXXoX|..X).l.l.v.R.).DXDXDXDXHXHXHXHXHXHXXX|.|.).T.R.R.l.r.3.3.4.,.4.3.q.u.y.l.l.t.q.7.>.;.,.>.q.e.u.e.x.x.x.x.x.x.x.P.I.I.I.I.I.P.P.P.I.I.I.I.E.E.E.E.Y.Y.Y.Y.E.Y.P.P.R.M.y.y.t.t.w.r.7.6.2.L K P H G B M I 0.r.r.r.q.r.t.r.8.6.6.'  .~ Q Q Q Q W Q Q Q Q W W W E W W W E E E E E E W W W W W W W W W E E E E E Y Y Y Y Y W W T T Y T W W Y Y Y D S S S S S S S S S S S S S S S S S S S S S S Z m n n n n n n n v v v v v v v v v c v c c c c c c f f f p p p f c f p p p p a a a u u a u u y ",
"NXNXNXNXNXNXNXNXNXNXNXNXNXCXCXCXNXNXNXNXNXNXNXNXNXCXCXCXCXNXNXNXAXAXNXNXNXbXmXmXmXmXmXmXmXBXBXBXBXBXBXBXvXkXkXkXkXkXkXkXlXlXlXlXkXkXlXhXhXhXhXsXhXhXhXhXhXsXsXsXaXaXaXiXiXiXiXiXuXuXuXuXuXuX6X6XyXyXyXyXyXyX6X6X6X6X6X6X3X3X3X3X3X3X3X3X3X3XS.S.3X3XS.S.S.S.A.D.D.D.F.F.L.J.}.|._.|.oXoXXXXXoXoX+X_._._.|.).).`.`.`.`.`.].{.'.'.{.{.{.GXGXGXLXLXLXLXLXKXKXKXKXKXIXIXKXPXPXPXPXPXPXPXPXPXPXPXPXKXKXKXKXJXJXJXJXJXJXJXUXUXHXHXHX&XXXXXXXXXoX|.|.oXXXXXHXHXHXoXT.R.u.>.;.;.;.;.3.t.|..XDXHXHXXXDXHXHXoX|.).T.R.l.l.t.q.>.;.B B B ,.3.r.y.l.l.t.q.7.>.,.:.>.q.q.u.e.x.x.x.x.x.x.P.P.I.I.I.I.I.I.I.I.I.I.I.I.E.E.Y.E.Y.Y.Y.Y.~.Y.P.P.P.M.y.y.y.t.w.8.7.6.:.P K K K J N N L 8.r.r.q.q.r.r.r.8.8.0.'  .~ Q Q Q W W W W Q Q Q W W W W W W E E E E E E W W W W W W W W W E E E E E E E Y Y T T W T T T Y E E Y Y D D D D S S S S S S S S S S S S S S S S S Z S S Z m n n n n n n n v v v v v v v v v v v c c c c c c c f f p p p f c f p p p a a a u u u a u u y ",
"NXNXNXNXNXNXNXNXCXNXNXNXNXCXCXCXNXNXNXNXNXNXNXNXNXCXCXCXCXNXNXNXNXNXNXNXNXbXmXmXmXmXmXmXmXBXBXBXBXBXBXBXBXkXkXkXkXkXkXkXlXlXlXlXkXkXlXhXhXhXhXhXhXhXhXhXhXsXsXsXaXaXaXiXiXiXiXiXuXuXuXuXuXuX6X6XyXyXyXyXyX6X6X6X6X6X6X6X6X3X3X3X3X3X3X3X3X3XS.S.3X3XS.S.S.S.A.D.D.D.F.F.F.L.K.'._.|.oXoXoXoXoXoX+X_._.oX|.).).`.`.`.`.`.].{.{.{.{.{.{.GXGXGXGXLXLXLXLXKXKXKXKXKXIXIXKXPXPXPXPXPXPXPXPXPXPXPXPXKXKXKXJXJXJXJXJXJXHXHXUXUXUXHX&X&XXXXXXXXXXXoX|.oXXXoXXXXXXXT.l.r.,.,.;.B B B ;.q.R.).|..X.XXXXXXXXXoX|.).T.R.l.r.r.>.B N N B ;.,.>.5.y.l.l.y.r.7.>.;.,.>.q.u.u.e.e.x.x.x.P.P.P.P.I.I.I.I.I.I.I.I.I.I.I.I.I.Y.Y.Y.Y.Y.Y.Y.~.E.Y.P.P.M.y.y.y.t.q.7.6.2.:.P K P K J N N ' 8.r.q.q.q.u.r.r.r.8.0.'  .~ Q Q Q Q Q Q Q Q Q W W W W W W W E E E E E E W W W W W E E W W E E E E E Y E E T T T T T T T T E E E Y Y D D D D Y S S S S S S S S S S S S S S S Z S Z Z m n n n n m n n v v v n n v v v v v v v v c c c c c c c f p p f c p p p p p p a a u u p a u r ",
"NXNXNXNXNXNXNXNXCXCXNXNXCXCXCXCXNXCXCXNXNXNXNXNXNXCXCXCXCXNXNXNXNXNXNXmXNXbXmXmXmXmXmXmXmXBXBXBXBXBXBXBXkXkXkXkXkXkXxXkXlXlXlXlXlXlXlXlXlXhXhXhXhXhXhXhXhXsXsXsXaXaXaXiXaXiXiXiXuXuXuXuXuXyX6X6XyXyXyXyXyX6X6X6X6X6X6X6X6X6X3X3X3X3X3X3X3X3XS.S.S.S.S.S.S.S.A.A.A.D.D.F.s.G.J.)._.|.oXoXoXoX_._._._._.oX|.).W.`.`.`.`.`.}.{.{.{.{.{.{.GXGXGXGXGXLXLXLXKXKXKXKXKXPXPXKXPXPXPXPXPXPXPXPXPXKXKXKXKXKXKXJXJXKXKXJXJXHXJXUXUXUXHX&X&XXXXXXXXXXXoX|.oXoXoXoXoX|.R.t.q.3.r.r.3.3.7.t.l.R.R.R.)..XXX.X.XoX|.).).T.H.r.q.3.;.B B B ;.4.3.>.q.t.l.l.y.w.q.:.;.,.>.q.q.u.e.e.x.x.P.P.P.P.P.P.P.P.P.I.I.I.I.I.I.I.I.I.I.Y.Y.Y.Y.Y.Y.~.Y.R.P.P.M.y.e.y.t.7.7.3.:.:.K K P I J N N 2.8.r.q.q.q.u.r.r.r.8.0.'  .~ Q Q Q Q Q Q Q Q Q Q W W W W W W E E E E E E W W W W W W W W W E E E E E Y Y Y T T T T T T T T E E E Y Y Y Y D Y Y D S S S S S S S S S S S S S S S S Z Z m n n n n m n n n n n n n v v v v v v v v v c c c c c c c f f c c p p f f p p p p a a p a y r ",
"NXNXNXNXNXNXNXCXCXCXCXCXCXCXCXCXCXCXNXNXNXNXNXNXNXCXCXCXCXNXNXNXNXNXNXmXNXbXmXmXmXmXmXmXmXBXBXBXBXBXBXBXkXkXkXkXxXkXxXkXlXlXlXlXlXlXlXlXlXhXhXhXhXhXhXhXhXsXsXsXaXaXiXiXaXiXiXiXuXuXuXuXuXyX6X6XyXyXyXyXyX6X6X6X6X6X6X6X6X6X6X6X3X3X3X3X3X3XS.S.S.S.S.S.S.S.A.A.A.A.D.D.j.z.J.J.)._.|.oXoXoX_._._._._.|.|.T.).W.`.`.`.`.{.{.{.{.{.{.{.{.GXGXGXGXLXLXLXKXKXKXKXKXPXPXPXPXPXPXPXPXPXPXKXPXKXKXJXJXKXKXKXHXHXHXHXHXJXJXUXUXHXHXHX&XXXXXXXXXXXoX|.|.oXoXoX|.).R.y.r.r.l.t.r.l.).|.R.).).R.).|..X|.).|.).).T.R.y.q.3.;.B B H ;.3.3.3.7.r.y.l.y.t.q.7.,.;.,.>.q.q.u.e.e.e.x.P.P.P.P.P.P.P.P.P.P.I.I.I.I.I.I.I.I.I.Y.Y.Y.Y.Y.Y.T.Y.P.P.P.y.y.y.t.w.7.6.:.:.L K K P I J N B :.8.r.q.q.q.u.r.r.8.8.2.'  .~ Q Q Q ! ! Q Q Q Q Q W W W W W W E E E E E E W W W W W E W W W E E E E E Y Y Y W T T Y Y T T T E E E E E Y Y Y E Y D S S S S S S S S S S S S S S S S S Z m n n n m m n n n n n n n n n v v v v v v v v c c c c v c f f c c p p f f f p p p p p p a u e ",
"NXNXNXNXNXNXCXCXCXCXCXCXCXCXCXCXNXCXNXNXNXNXNXNXNXCXCXCXCXNXNXNXAXNXNXmXNXbXmXmXmXmXmXmXmXBXmXmXBXBXBXBXkXkXkXkXxXxXkXkXjXlXlXlXlXlXlXhXlXhXhXhXhXhXhXhXhXsXsXsXiXiXiXiXaXiXiXiXuXuXuXuXuXyX6X6XyXyXyXyXyX6X6X6X6X6X6X6X6X6X6X6X3X3X3X3X3X3XS.S.S.S.S.S.S.S.A.A.A.A.A.A.j.z.z.J.J.).)._._._._._._._._.|.|.T.R.R.`.`.`.`.{.{.{.{.{.{.{.DXGXGXGXGXLXLXLXKXKXKXKXKXKXKXPXPXPXPXPXPXPXPXKXKXKXKXJXJXKXJXHXHXHXHXHXHXHXHXHXHXHXHXHX&XXXXXoXXXXXoX|.|.|.|.|.|.T.R.l.l.l.l.l.R.|.HXHX|.).).).).).).).T.T.T.).R.y.r.3.>.;.;.H ;.;.;.4.3.r.r.l.H.y.t.7.>.:.,.>.1.q.q.u.e.e.e.x.x.P.P.P.P.P.P.P.P.P.P.I.I.I.I.I.I.I.I.Y.Y.Y.I.Y.Y.Y.R.P.P.P.y.y.t.t.w.7.6.:.:.L K K P I J B N L 8.r.r.r.q.r.r.r.8.6.2. .J ~ Q Q Q ! ! ! ! Q Q Q W W W W W W E E E E E E W W W W W W W W W E E E E E Y Y Y E E Y Y Y Y T T E E E E E E E E W E D S S S S D S S S D S D S S S S S S Z m n n n n m n n v v v v v n v v v n n v v v v v c c c c c f c c c p a f f p p p p a a p u r e ",
"NXNXNXNXNXCXCXCXCXCXCXCXCXCXCXCXNXNXNXNXNXNXNXNXNXCXCXCXCXNXNXNXAXNXNXmXNXbXmXmXmXmXmXmXmXmXBXmXBXBXBXBXkXkXkXkXxXxXxXkXjXlXlXlXlXlXlXhXhXhXhXhXhXhXhXsXhXsXsXsXiXiXiXiXaXiXiXiXuXuXuXuXuXyX6X6XyXyXyXyXyX6X6X6X6X6X6X6X6X6X6X6X3X3X3X3X3X3XS.S.S.S.S.S.S.S.A.A.A.C.A.A.D.z.z.z.J.J.).|._.|.|.|.|.|.|.|.|.T.R.H.`.`.`.`.{.{.{.{.{.{.{.DXGXGXGXGXLXLXLXKXKXKXKXKXKXKXPXPXPXPXPXPXPXPXKXKXKXKXJXKXJXJXHXHXJXJXHXHXHXHXHX&X&X&X&X&XXXXXoXXXXXoX|.|.|.|.|.).R.R.R.R.l.l.)..XDX.X|.|.).).).).).R.).).T.T.R.l.r.7.>.:.3.>.>.;.H H :.7.r.r.y.l.l.w.>.;.:.>.>.1.q.q.q.e.e.e.x.x.P.P.P.P.x.P.P.P.P.P.P.P.I.I.I.I.I.I.Y.Y.Y.Y.I.P.Y.R.P.P.P.y.t.t.t.w.7.6.:.:.P K K P I J B N L 8.r.r.r.r.r.r.8.8.2.' I ~ ~ Q Q Q ! ! ! ! Q Q Q W W W W W W E E E E E E W W W W W W W W W E E E E E Y Y Y W W Y Y Y Y T T E W E E E E E E W E D S S S S D S S S D D D S S S S S S Z m n n n n m n n v v v v v v v v v n n v v v v v c c c v c f f c f p a p p p p p a a a a u r e ",
"NXNXNXNXNXNXNXNXNXNXNXCXCXNXNXNXNXNXNXNXNXCXCXCXCXCXCXCXNXNXNXNXAXAXNXmXmXbXmXmXmXmXmXmXmXBXBXBXBXBXBXBXkXkXkXlXlXkXkXkXjXlXlXlXlXlXlXhXhXhXhXhXlXhXhXsXsXsXsXhXsXsXaXaXaXiXiXiXuXuXuXuXuXuXuXuXyXyXyXyXyXyXyXyX6X6X6X6X6X6X3X3X6X3X3X3XS.S.S.S.S.S.S.S.S.A.A.C.C.C.C.C.A.D.F.z.z.z.J.).oXoXoX|.).).|.oX'.).W.W.`.`.}.}.}.}.{.{.{.{.{.{.DXGXGXGXGXLXLXKXKXKXKXKXKXPXPXPXPXPXPXKXKXKXKXKXKXJXJXJXJXJXJXGXGXGXHXHXHXHX&X&X&X&X&X&X&XXXXXXXXXXX|.|.T.T.).|.|.T.R.R.y.l.)..XDX.X.XoX|.).T.T.).).R.R.R.R.H.y.q.3.3.3.>.;.:.;.K H H 2.8.t.l.l.r.>.:.;.>.>.>.1.q.u.u.q.e.e.x.x.x.P.P.P.x.x.x.x.P.P.P.I.I.I.I.I.I.I.Y.Y.Y.Y.Y.Y.Y.P.P.M.M.y.y.t.w.q.7.>.:.:.P P L P P I N B :.7.r.8.r.r.r.r.8.0.2.' J J ~ Q Q Q Q Q Q Q W W W E E E E E E E E E E E E E E E E E E E E E E E E E E E E E Y Y Y Y T T Y Y E E E E E E E E W Y Y Y Y Y D S D D D S S S S S S S S Z S S S S m m n n n v v v n v v v v v n n v v v v v v v v c c c c f p p p f f p p a u u u y y u r ",
"NXNXNXNXNXNXNXNXNXNXNXCXCXNXNXNXNXNXNXNXNXCXCXCXCXCXCXCXNXNXNXNXNXNXNXmXmXbXmXmXmXmXmXmXmXBXBXBXBXBXBXvXkXkXkXlXlXkXkXkXkXlXlXlXlXlXlXhXhXhXhXhXlXhXhXsXsXsXsXhXsXsXaXaXaXiXiXiXuXuXuXuXuXuXuXuXyXyXyXyXyXyXyXyX6X6X6X6X6X6X3X3X6X3X3X3XS.S.S.S.S.S.3X3XS.S.A.A.S.C.C.C.A.j.F.F.k.z.z.J.).).|..X'.'.'.`.).H.H.H.`.`.}.}.}.}.{.{.{.{.{.{..XDXGXGXGXLXLXKXKXKXKXKXKXPXPXPXPXPXPXPXKXKXKXKXJXJXJXJXLXJXGXGX&XGXHXHXHXHXHX&X&X&X&X&X&XXXXXXXXXXXoX|.T.R.R.v.l.y.u.r.y.l.).|..X.X.X.X.X|.).T.T.T.R.R.R.l.r.q.7.7.7.7.>.:.;.K H N N H ;.;.:.:.;.;.;.:.>.>.1.1.q.q.q.u.e.e.x.x.x.x.P.P.x.x.x.x.P.P.P.P.P.P.P.P.I.I.Y.I.Y.Y.Y.Y.Y.P.P.y.y.y.t.w.q.7.6.:.:.L P P L P I I N H 2.8.8.8.r.t.8.8.0.6.'  .J F ~ Q Q Q Q Q Q Q W W W E E E E E E E E E E E E E E E E E E E E E E E E E E E Y E Y Y Y Y T T Y Y E E E E E E E E W Y Y D Y Y D S D D D S S S S S S S S Z S S Z S m m n n n v v v n n v v v v n n c c c c c f f f c c c c f p p p f f p p a u u u y y r r ",
"NXNXNXNXNXCXNXNXNXNXCXCXCXCXNXNXNXNXNXNXCXCXCXCXCXCXCXCXNXNXNXNXNXNXNXmXNXbXmXmXmXmXmXmXmXBXBXBXBXBXvXvXvXvXkXlXlXkXkXkXlXlXlXlXlXlXlXlXhXhXhXhXlXhXhXsXsXsXhXhXsXsXsXaXaXiXiXiXuXuXuXuXuXuXuXuXyXyXyXyXyXyXyXyX6X6X6X6X6X6X3X3X6X3X3X3X3X3X3X3XS.3X3X3XS.S.S.S.S.S.C.A.A.A.j.F.j.k.k.k.z.J.J.`.}.J.J.J.G.k.t.k.`.`.}.}.}.}.{.{.{.{.{.{.{..XDXDXGXGXLXLXKXKXKXPXKXKXKXPXKXKXKXKXKXKXKXKXJXJXJXJXJXJXGXGX&X&XHXHXHXHXHX&X&X&XHXHXXXXXXXXXXXXXoX|.|.T.v.y.t.r.r.q.y.l.).'.|.|..X.XXXoX'.).T.T.R.R.R.y.q.q.q.q.r.q.7.>.K H N N N N N N N N B H ;.:.>.1.1.q.q.q.q.q.e.e.e.x.x.x.P.P.x.x.x.x.x.P.P.P.P.P.P.P.P.P.P.I.Y.Y.Y.Y.Y.P.P.y.y.y.t.q.7.<.>.:.:.L P P P P I J N J 2.0.8.8.8.r.8.6.2.'  . .~ ~ ~ Q Q Q Q Q Q Q W W E E E E E E E E E E E E E E E E E E E E E E E E E E E Y Y Y Y Y Y Y T T T Y E E E E E E E E W Y D D Y D Y S D D S S S S S S S S S Z Z Z S S m m m n n v v v n n n n v v v n v v v v v v v c c c f f p p p p f f p p u u u u u u r r ",
"NXNXNXNXNXCXNXNXNXNXCXCXCXCXNXNXNXNXNXCXCXCXCXCXCXCXCXCXCXNXNXNXNXNXNXmXNXbXmXmXmXmXmXmXmXBXBXBXBXBXBXvXvXvXkXkXlXkXkXkXlXlXlXlXkXkXlXlXlXhXhXhXlXhXhXsXsXsXhXhXsXsXaXaXaXiXiXiXuXuXuXuXuXuXuXuXyXyXyXyXyXyX6X6X6X6X6X6X6X6X3X3X3X3X3X3X3X3X3X3XS.3X3X3XS.S.S.S.S.S.A.A.A.A.A.j.j.j.s.s.k.k.z.G.L.G.G.k.k.k.k.G.J.`.}.}.}.}.{.{.{.{.{.{.{..X@XDXGXGXLXLXKXKXKXKXKXKXKXKXKXKXKXKXKXKXKXKXJXJXJXJXJXJX&X&X&X&XHXHXHXHXHXHX&X&XHXHXXXXXXXXXXXXXoX|.|.).R.v.l.l.l.y.l.R.).|.'.'.|..X.X.X'.'.).).T.R.y.y.t.r.y.y.r.7.7.:.H H N N N N N N N H H ;.>.>.q.q.q.q.q.q.q.q.e.e.e.x.x.x.x.P.P.P.x.x.x.x.x.x.P.P.P.P.P.P.P.P.P.Y.Y.P.P.P.y.y.y.y.t.q.7.>.:.:.:.L P P P P I J N I 2.0.8.8.0.0.2.2.'  .~ ~ ~ ~ ~ Q Q Q Q Q Q W W W E E E E E E E E E E E E E E E E E E E E E E E E E E E Y Y Y Y Y Y Y T T T T E E E E E E E E W Y D D Y Y D S S S S S S S S S S S S Z Z Z S S Z Z m n n n v v n n n v v v v n v v v v v v v v c c f f p p p f f f p a u u u u y u r r ",
"NXNXNXNXNXNXNXNXNXCXCXCXCXCXCXNXNXNXCXCXCXCXCXCXNXNXCXCXCXNXNXNXNXNXNXNXNXbXmXmXmXmXmXmXmXBXBXBXBXBXBXBXBXvXkXkXkXkXkXkXlXlXlXlXkXkXkXlXlXlXlXlXlXhXhXsXsXsXsXhXsXsXaXaXaXiXiXiXuXuXuXuXuXuXuXuXyXyXyXyXyX6X6X6X6X6X6X6X6X6X3X3X3X3X3X3X3X3X3X3XS.S.S.S.S.A.S.S.2XS.A.A.A.A.A.A.A.A.j.j.s.s.s.s.s.s.s.k.k.k.k.G.J.K.}.}.}.}.}.{.{.{.{.{.{.{.{.DXGXGXGXLXLXKXKXKXKXKXKXPXKXKXKXKXKXKXJXJXJXJXJXJXGX&X&X&X&XGXHXHXHXHXHX&XXX&X&XHXXXXXXXXXXXXXoX|.|.|.).T.T.T.T.R.R.).).'.).).).'.'.'.'.|.'.'.T.R.H.y.l.l.l.y.r.7.3.;.H N N N N N G H H K :.>.3.7.q.q.q.q.q.q.q.e.e.e.e.x.x.x.x.x.P.x.x.x.x.x.x.x.P.P.P.P.P.P.P.P.P.P.P.P.P.P.y.y.y.t.t.q.3.:.:.:.:.L P P P I I J G ' 6.0.0.0.2.' '  . .J ~ ~ ~ ~ Q Q Q Q Q W W W W W W E E E E E E E E E E E E E E E E E E E E E E E E E E Y Y Y Y Y Y Y T Y Y Y E E E E E E E E W Y Y Y Y Y D S S S S S S S S S S S S Z Z Z Z S Z Z m m n n v v v v v v n n v v c c c c c c c f c c f p p f f f p p p p a u y y y u r r ",
"NXNXNXNXNXNXNXNXCXCXCXCXCXCXCXCXCXCXCXCXCXCXCXCXNXNXNXCXCXNXNXNXNXNXNXNXNXbXmXmXmXmXmXmXmXBXBXBXBXBXBXBXBXBXkXkXkXkXkXkXjXlXlXlXkXkXkXkXlXlXlXlXhXhXsXsXsXsXsXhXsXsXaXaXaXiXiXiXuXuXuXuXuXuXuXuXyXyXyXyXyXyX6X6X6X6X6X6X6X6X3X3X6X3X3X3X3X3X3X3XS.S.S.S.A.A.S.S.S.S.S.A.A.A.A.A.f.f.j.B.F.s.s.s.s.s.s.F.F.s.k.G.J.K.`.}.}.}.}.{.{.{.{.{.{.{.{.{.GXGXGXLXLXKXKXKXKXKXKXKXKXKXJXJXKXKXJXJXJXJX&X%X%X%X&X%X&XGXHXHXHXHXHX&XXXXXXX&XXXXXXXXXXXXXoXoX|.T.T.T.T.T.T.T.R.).'.'.).).).).T.).'.'.'.).T.T.T.R.H.l.y.t.r.8.7.:.H G G G G N H H H H K :.3.7.q.q.q.q.q.q.e.e.e.e.e.e.x.x.x.x.x.x.x.x.x.x.x.e.x.P.P.P.P.P.P.P.P.P.P.P.P.P.y.y.y.t.q.7.>.:.:.:.:.L P P P I J G G ' 2.6.2.' '  . . .J F ~ ~ Q ! Q Q Q Q W W W W W W W E E E E E Y Y Y Y E E E Y Y Y Y Y E E Y Y E E E E E Y E E Y Y Y Y T Y Y Y E E E E E E E E W Y Y Y Y Y D S S S S S S S D Y S S S Z Z S Z S S Z Z m n n n n v v v v n n n v v v v v c c c v f f p p f f f f p p p p a u y y y y u r ",
"NXNXNXNXNXNXNXNXCXCXCXCXCXCXCXCXCXCXCXCXCXCXCXCXNXNXNXCXCXNXNXNXAXAXAXNXmXbXmXmXmXmXmXmXmXBXBXBXBXBXBXBXBXBXkXkXkXkXkXkXkXlXlXlXkXkXkXkXlXlXlXlXhXhXsXsXsXsXaXhXsXsXaXaXaXiXiXiXuXuXuXuXuXuXuXuXyXyXyXyXyXyX6X6X6X6X6X6X6X6X3X3X6X3X3X3XS.S.S.S.A.S.S.A.A.A.S.S.D.D.A.A.A.A.A.A.f.f.B.B.B.B.j.j.j.j.j.j.j.s.s.G.J.K.`.}.{.{.'.{.{.{.{.{.{.{.{.{.DXGXGXGXLXLXKXKXKXKXKXKXPXJXJXKXJXJXJXJXJXJX%X%X%X%X%X%X&X&XHXHXHX&X&X&XXXXXXXXXXXXXXXXXXXXXoX|.).T.T.T.T.T.T.T.T.).|.|.).).).).).).T.T.T.T.T.T.'.T.R.H.l.y.t.r.8.2.:.H K K H G H G H H H ;.>.>.q.q.q.q.q.q.e.e.e.e.e.e.x.x.x.x.x.x.x.x.x.x.x.e.e.e.x.P.P.P.P.P.P.P.P.P.P.M.y.y.y.w.7.<.>.:.:.:.:.P P P P I J J F I ' ' '  .J J J J ~ ~ ~ W Q Q Q Q Q Q W W E E W W W E E E E E Y Y Y Y E E Y Y Y Y Y Y E E Y E E E E E E Y E E Y Y Y Y T T Y Y E E E E E E E E W E Y Y Y Y D S S S S S S D D Y S S S Z Z S Z S S S Z m n n n n v v v n n n v v v v v v v v v v f f p p p p f f p p p p a u y y u y y u ",
"NXNXNXNXNXNXNXNXCXCXCXCXCXCXCXCXCXCXCXCXCXCXCXCXNXNXNXCXCXCXNXNXNXNXAXNXmXmXmXmXmXmXmXmXmXBXBXBXBXBXBXBXBXBXvXkXkXkXkXkXkXlXlXlXkXkXkXkXkXlXlXlXhXhXsXsXsXaXaXhXsXsXaXaXaXiXiXiXuXuXuXuXuXuXuXuXyXyXyXyXyX6X6X6X6X6X6X6X6X6X3X3X6X3X3X3XS.S.S.S.S.S.S.A.A.A.S.S.D.D.D.A.A.A.C.C.B.B.B.B.f.B.j.j.f.f.j.j.j.s.s.G.J.J.`.}.{.{.{.{.{.{.{.{.{.{.{.{.DXGXGXGXLXLXLXJXKXKXKXKXPXJXJXKXJXJXJXJXHX&X&X&X%X%X%X%X%X&XHXHX&X&X&XXXXXXXXXXXXXXXXXXXXXXXoXoX|.).T.T.T.).).).).`..X.X|.'.'.'.'.'.T.R.R.R.R.T.|.T.R.R.R.H.t.w.7.6.:.K K K K H H H H K ;.;.:.>.q.q.q.q.q.q.e.e.e.e.e.e.e.x.x.x.x.x.x.x.x.y.y.e.e.e.y.x.P.P.P.P.P.P.P.P.P.M.y.e.t.w.7.>.:.:.:.:.:.P P P I I J F F J  .J J J J F ~ ~ ~ ~ W Q W W Q Q Q W W W E E W W W E E E E E Y Y Y E E E Y Y Y Y Y Y E Y Y Y E E E E E Y Y Y Y Y Y Y Y T Y Y E E E E E E E E W Y Y Y Y Y D S S S S S S Y D D S S S Z Z Z Z S S S Z m m n n n v v v n v n v v v v c c c c c c p p p p p p f f p p p p a u y y a u y y ",
"NXNXNXNXNXCXCXCXCXCXCXCXCXCXCXCXNXNXNXNXNXNXNXNXNXCXCXCXCXNXmXmXNXNXNXmXmXbXmXmXmXmXmXmXmXBXBXmXvXBXBXBXBXBXvXvXBXBXvXkXkXkXkXkXkXkXkXkXkXlXlXlXhXsXsXsXsXsXsXsXsXsXsXpXsXiXiXiXiXiXiXiXiXiXiXuXyXyXuXyXyXuXuXuX6XyXyX6X6X3X3X3X6X3X3X3XS.S.S.3X3XS.S.S.S.S.S.S.A.A.A.S.S.S.A.C.f.f.f.f.f.B.B.B.f.f.f.j.j.j.s.s.L.J.K.}.}.{.{.{.{.{.{.{.{.{.{.{.{.@XDXGXLXLXKXKXKXKXKXKXKXKXJXJXHXKXJXHX&X&X&X&X%X%X%X&X&XHXHXHXHXHX&XHX&X&X.X.XXXXXoXoX.XoX|.'.oX'.T.).).'.).).`.`.'.[.{.[.'.'.'.'.'.W.y.y.H.`.).R.).).'.R.H.l.t.3.:.;.K K :.:.K L :.;.;.;.>.3.q.q.q.q.u.e.e.e.e.e.e.e.x.x.x.P.P.P.y.y.y.y.e.e.e.e.y.x.x.P.P.P.P.P.P.P.P.M.e.t.w.7.6.:.:.:.:.:.:.L ' ' ' J F F F F ( F F ~ ~ ~ ~ ~ ! Q Q Q ! Q Q Q W E E E E E W W W E E E E E E E E Y Y Y Y Y E Y Y Y Y Y E E E E E E E E E E Y Y Y Y E Y E E E E E E E E E E E E E Y E D D D S S S D D Y Y Y Y D S S S Z S S S S Z m m n v n v v n v n n n v v v v v v c c c c f f f c c c f p p f p a u u a u u y y ",
"NXNXNXNXNXCXCXCXCXCXCXCXCXCXCXCXNXNXNXNXNXNXNXNXNXCXCXCXCXNXmXmXNXNXNXNXmXmXmXmXmXmXmXmXmXBXmXmXvXBXBXBXBXBXvXvXBXBXvXkXkXkXkXkXkXkXkXkXkXlXlXlXhXsXsXsXsXsXsXsXsXsXsXpXsXiXiXiXiXiXiXiXiXiXiXiXyXyXyXyXyXuXuXuX6XyXyX6X6X3X3X3X6X3X3X3XS.S.S.3XS.S.S.S.S.S.S.A.A.A.A.A.S.S.A.B.f.f.f.f.f.B.B.B.f.f.f.f.j.j.s.s.G.J.K.}.}.}.{.{.{.{.{.{.{.{.{.{.@X@XDXGXGXLXKXKXKXKXKXKXKXKXJXJXHXKXJXHX&X&X%X&X&X&X&X&XHXHXHXHXHXHX&X&X%X%X.X.X.X.X X X.X X|.`..X'.).).).'.'.).`.`.].].].].'.[..X[.'.W.H.y.M.R.R.R.R.'.'.'.).J.H.r.7.3.:.:.:.;.;.:.:.:.;.:.>.3.q.q.5.q.u.u.w.q.e.e.e.e.y.x.x.x.P.x.y.y.y.y.y.e.e.e.y.y.y.x.M.P.M.P.P.P.M.y.e.t.w.7.6.:.:.:.:.:.:.L L ' ' J F F F ~ ( ~ ~ ~ ( ~ Q Q Q Q ! ! Q ! Q Q W E E E E E W W W E E E E E E E E Y Y Y Y Y E E Y Y Y Y E E E E E E E E E E Y Y Y Y E E E E E E E E E E E E E E E Y E Y D D S S S Y D Y Y Y Y D S S S Z S S S S Z m m n v v v v n n n n v v v v v v v v c c c f f f c c c f p f f p a u u a u u u y ",
"NXNXNXNXNXCXCXCXCXCXCXCXCXCXCXCXNXNXNXNXNXNXNXNXNXCXCXCXCXNXmXmXNXNXNXmXmXbXmXmXmXmXmXmXmXmXmXmXvXBXBXBXBXBXvXvXBXBXBXkXkXkXkXkXkXkXkXkXkXlXhXhXhXsXsXsXsXsXsXsXsXsXsXsXsXiXiXiXiXiXiXiXiXiXuXuXyXyXyXyXyXuXuXuX6XyX6X6X6X3X3X3X6X3X3X3X3XS.3X3XS.S.A.S.S.S.A.A.A.B.A.A.S.S.A.A.f.f.f.f.f.B.B.B.f.f.f.f.j.j.s.s.G.L.K.K.}.}.{.{.{.{.{.{.{.{.{.{.@X{.@XGXGXLXKXKXKXKXKXKXKXKXKXKXHXJXHXHX&X&X%X&XHXHXHXHXHXHXHXHX&X&X%X%X%X%X.X.X%X.X X X.X X'.W.'.'.).`.'.'.'.`.'.'.'.[.[.[.{.[..X[.`.W.H.H.H.H.).R.R.`.{.'.}.`.).t.8.7.6.2.2.;.:.:.2.:.;.;.>.3.7.7.q.q.q.q.q.q.e.e.e.e.e.y.y.x.P.y.y.y.y.y.y.e.e.e.e.e.y.y.y.y.y.y.M.y.y.y.w.w.8.7.>.:.:.;.:.:.2.L P '  .J F C F ~ ( ( ~ ~ ~ W Q Q Q Q ! Q Q Q Q Q W W E E E E W W W E E E E E E E E Y Y Y Y Y E E E E Y Y Y E E E E E E E E E Y Y Y Y Y Y E E E E E E E E E E E E E Y E Y Y Y D D D Y Y Y Y Y Y D S S S Z S S S S Z m m n n n v v v n v v v v v v v v v v v c c c f f c c f f p f c p a u u a u u u u ",
"NXNXNXNXNXCXCXCXCXCXCXCXCXCXCXCXCXCXCXCXCXCXCXCXNXCXCXCXCXNXNXmXNXNXNXmXmXbXmXmXmXmXmXmXmXmXmXmXBXBXBXBXBXBXvXvXBXBXBXkXkXkXkXkXkXkXkXkXkXhXhXhXhXsXsXsXsXsXsXsXsXsXsXsXsXiXiXiXiXiXiXiXiXuXuXuXyXyXyXyXyXuXuXuX6XyX6X6X6X3X3X3X6X3X3X3X3XS.S.3XS.S.A.A.A.A.A.A.B.B.B.A.A.S.S.S.f.f.f.f.f.B.B.B.f.f.f.f.j.j.s.s.G.L.K.K.`.}.{.}.{.{.{.{.{.{.{.{.@X{.@XDXGXGXLXLXLXLXJXJXKXJXHXHXHXHXHX&X&X%X%X&XHXHXHXHXHXHXHXHX%X%X%X%X%X.X.X.X%X X X X.X[.`.W.'.'.'.`.'.'.`.`.`.'.'.`.[.[.{.{.[.'.'.W.H.H.H.R.).R.R.).'.`.'.`.J.t.8.7.6.7.6.:.:.2.6.2.:.:.:.3.3.7.q.q.q.q.q.q.e.e.e.e.e.y.y.x.x.y.e.e.y.y.e.e.e.e.e.e.y.y.e.e.y.e.e.e.y.w.w.w.7.6.:.:.:.:.:.:.2.P P '  .J F Z F ( ( ( ~ ( ~ W Q Q Q Q Q Q Q Q Q Q W W E E E E W W W E E E E E E E E T E Y Y Y E E E Y Y Y Y E E E E E E E E E Y Y Y Y Y Y Y Y E E E E E E E E E E E Y E Y Y Y D Y Y Y Y Y Y Y Y D S S S Z S S S S Z m m n n n v v v v v v v v v v v v v v v v c f f f c c f f f f c p a a a a a a u u ",
"NXNXNXNXNXCXCXCXCXCXCXCXCXCXCXCXCXCXCXCXCXCXCXCXNXCXCXCXCXNXNXNXNXNXAXmXNXbXmXmXmXmXmXmXmXmXmXmXBXBXBXBXmXBXBXvXkXkXkXkXkXkXkXkXkXkXkXhXhXhXhXhXlXhXsXsXsXsXsXsXsXsXsXsXsXpXiXiXiXiXiXiXiXyXyXyXyXyXyXuXyXuXuXuX3X6X6X6XyX6X3X3X6X3X3X3X3XS.3X3XS.S.A.A.A.A.A.B.B.B.B.B.A.S.S.S.f.f.f.f.f.B.B.B.f.f.f.f.j.j.s.s.G.L.K.K.`.].{.}.{.{.{.{.{.{.{.{.{.{.{.@XGXGXLXLXLXLXLXJXLXLXHXHXJXHX&X&X%X%X%X&XHXHXHXHXHXHXHXHX%X%X%X%X%X.X.X.X.X{. X[.[.[.`.W.'.'.`.`.'.].`.`.`.`.'.`.'.'.'.'.'.[.'.W.y.y.H.W.`.W.R.`.'.`.`.`.H.t.7.7.2.6.7.2.:.:.2.2.2.2.2.2.3.7.q.q.q.q.q.q.e.e.e.e.y.y.y.y.y.y.y.y.y.y.y.e.e.e.e.e.e.e.e.e.y.e.y.y.t.w.q.q.6.2.:.:.:.:.:.:.:.L I I  .J F F ~ ( ) ( ( ( ~ W Q Q ! Q Q Q Q Q Q Q W W W E E E W W W E E E E E E E E Y Y Y Y Y Y Y Y Y E E Y Y E E E E E E E E Y Y Y Y Y Y Y Y E E E E E E W W E E E Y Y D Y Y Y D Y Y Y D D D Y D S S S Z S S S S Z m m n n n v v v v v v n n v v v c v v c c l l p p c c p p f c c f p a a a a a a u ",
"NXNXNXNXNXCXCXCXCXCXCXCXCXCXCXCXCXCXCXCXCXCXCXCXNXCXCXCXCXNXNXNXAXAXAXmXNXbXmXmXmXmXNXmXmXmXmXmXBXBXBXBXBXBXBXkXkXkXkXkXkXkXkXkXkXkXkXhXkXhXhXhXlXhXsXsXsXsXsXsXsXsXsXsXsXpXiXiXiXiXiXiXiXyXyXyXyXyXyXuXuXuXuXuX3X6X6X6XyX6X3X3X6X3X3X3X3XS.3X3XS.S.A.A.A.A.A.B.A.B.B.B.B.A.S.S.f.f.f.f.f.B.B.B.f.f.f.f.j.j.s.s.F.L.K.K.K.].}.}.{.{.{.{.{.{.{.{.{.{.{.@XGXGXGXLXLXLXLXLXLXLXJXGXJXJX&X*X%X%X%X&XHXHXHXHX&X&XHXHX%X%X%X%X.X.X.X.X{.[.[.].[.'.`.`.`.`.`.`.`.`.}.`.`.`.'.'.'.`.'.`.'..X'.H.y.t.H.W.'.W.W.`.`.`.`.}.W.y.r.7.2.6.7.:.:.:.2.2.2.2.2.2.2.7.7.q.q.q.q.w.e.e.e.e.y.y.y.y.y.y.y.e.y.y.e.e.e.e.e.e.e.e.e.e.e.y.w.w.w.w.7.7.:.:.:.:.:.:.:.:.L L P '  .J F F ( ( ) ( ~ ( ~ ~ Q Q Q Q Q Q Q Q Q Q W W W E E E W W W E E E E E E E E Y Y Y Y Y Y Y Y Y E Y Y Y E E E E E E E E Y Y Y Y Y Y Y Y E E E E E W W W E E E Y Y D Y Y Y Y Y E Y D D D Y D S S S Z S S S S Z m m n n n v v v v v v n n v v v v v v v v l l p p c c p p c c c f p a a p p p a u ",
"NXNXNXNXNXCXCXCXCXCXCXCXCXCXCXCXCXCXCXCXCXCXCXCXNXCXCXCXCXNXNXmXAXAXNXNXNXbXmXmXmXmXmXmXmXmXmXmXBXBXBXBXBXBXzXkXkXkXkXkXkXkXkXkXkXkXkXkXkXhXhXhXlXhXsXsXsXsXsXsXsXsXsXsXsXpXiXiXiXiXiXiXiXyXyXyXyXyXyXuXuXuXuXuX6X6XyXyXyX6X3X3X6X3X3X3X3XS.3X3X3XS.S.A.S.A.A.B.A.B.B.f.B.A.S.S.f.f.f.f.f.B.B.B.f.f.f.f.f.f.j.s.F.L.K.J.K.`.}.].{.{.{.{.{.@X@X{.{.{.{.@X@XGXGXGXLXLXLXLXLXLXGXGXGXGX&X%X%X%X%X&XHXGXGXGX&X&X&X%X%X%X%X%X%X.X{..X{.{.].].].].].`.`.`.`.`.`.`.`.{.`.`.`.`.`.`.W.W.`.'.W.y.t.y.R.`.'.W.W.`.{.{.`.{.`.H.y.r.6.6.7.:.:.:.6.6.6.6.2.2.:.>.7.7.q.q.q.q.q.w.e.e.y.y.y.y.y.y.y.y.y.y.e.e.w.e.e.e.e.e.e.e.y.w.w.w.w.q.<.>.:.:.:.L :.:.:.:.L ' ' ' J F F F ( ( ( ~ ~ ~ ! ! Q Q Q Q Q Q Q Q Q Q W W W E E E W W W E E E E E E E E Y E Y Y Y Y Y Y E E E Y Y E E E E E E E E Y Y E Y E E Y E E E E Y E E W W W E E Y Y D D Y E E E E E Y Y Y Y D S S S Z S S S S Z m m n n n v n v v v n n n v v v v v v c v l l p p c c l p c c c f p a a p p p a a ",
"NXNXNXNXNXCXCXCXCXCXCXCXCXCXCXCXCXCXCXCXCXCXCXCXNXCXCXCXCXNXNXmXNXNXNXNXNXbXmXmXmXmXmXmXmXmXmXmXBXBXBXBXBXBXvXkXkXkXkXkXkXkXkXkXkXkXkXhXkXhXhXhXlXhXsXsXsXsXsXsXsXsXsXsXsXpXiXiXiXiXiXiXiXyXyXyXyXyXyXuXuXuXuXuX6XyXyXyXyX6X3X3X6X3X3X3X3XS.3X3X3XS.S.S.S.A.A.B.A.A.B.f.B.A.S.S.f.f.f.f.f.B.B.B.f.f.f.B.f.f.j.a.F.L.K.J.K.`.}.].{.{.{.@X{.{.@X@X{.{.{.{.@XGXGXGXLXLXJXLXLXJXGXGXJXGX&X%X%X%X%X&XGXGXGX&X&X%X%X%X%X%X%X%X.X.X{.{.{.{.`.`.`.].].].`.`.`.`.`.`.].{.`.`.`.`.W.W.W.W.W.R.H.t.w.M.T.'.'.W.W.`.`.`.`.`.`.J.H.t.7.7.7.:.>.<.6.6.6.6.2.2.:.:.6.7.7.7.7.q.w.w.w.e.y.y.y.e.y.y.y.y.y.y.e.e.w.w.e.e.e.e.e.w.t.w.w.w.q.7.>.:.:.:.L L :.:.:.:.L ' ' ' J F F ~ ( ) / ~ ~ ~ ! ! Q Q ! Q ! Q Q Q Q Q W W W E E E W W W E E E E E E E E E Y Y Y Y Y Y Y E E E Y Y E E E E E E E E Y Y E E E E E E E E E Y E E W W W E E Y Y D D D E E E E E Y Y Y Y D S S S Z S S S S Z m m n n n n n v v v n n n v v v v v v c c l l p p c c l p c c c f p a a p p p a a ",
"NXNXNXCXCXCXCXCXCXCXCXCXCXCXCXCXCXCXCXCXCXCXCXCXNXCXCXCXCXCXCXNXNXNXNXmXmXbXmXmXNXmXmXmXmXmXmXmXBXmXBXBXBXBXvXkXkXkXkXkXkXkXkXkXkXkXkXkXkXkXhXsXhXhXsXsXsXsXsXsXsXsXsXpXpXiXiXiXiXiXiXiXiXuXyXyXuXyXyXuXuXuXyXuXyXyX6X3X6X3X3X3X6X3X3X3X3X3XS.S.3XS.S.S.A.A.B.B.A.A.B.B.B.A.A.S.B.f.f.f.f.f.f.f.f.f.f.f.f.f.f.j.s.F.L.K.K.}.}.{.].{.{.{.{.{.{.{.{.{.{.@X@XDXGXGXGXGXGXGXGXGXGX&X%X%X%X%X&X&X&X&X%X%X%X%X%X%X%X.X.X.X.X.X%X%X.X[.].`.K.`.`.`.`.`.].`.`.`.`.`.].].[.W.W.W.H.R.W.W.R.H.y.r.t.y.R.W.Q.Q.`.'.`.'.`.`.'.W.H.H.t.7.3.3.>.<.7.6.6.2.3.6.:.:.:.>.7.7.8.t.w.w.w.w.t.y.y.e.y.e.e.e.y.y.y.e.e.w.q.q.q.w.w.w.w.q.q.7.7.7.>.:.;.:.:.:.:.:.2.2.2.' ' '  .J J ( ~ ~ ! ! ~ ~ ! ! Q Q ! Q Q W W W Q Q Q W W W E E E E E E E E E E Y Y Y Y Y Y Y E E E E E Y Y Y Y E E E E Y Y Y Y Y Y Y Y Y Y Y Y E E E E E E Y Y E E E E E E E E Y Y Y D Y Y Y D E Y D S S S S S Z Z Z m m n n n n n n v v v v v v v v v v v c c l l p p l l p p c c c p f p p p p a u u ",
"NXNXNXCXCXCXCXCXCXCXCXCXCXCXCXCXCXCXCXCXCXCXCXCXNXCXCXCXCXCXCXNXNXNXNXNXmXmXmXmXNXmXmXmXmXmXmXmXBXmXBXBXBXBXkXkXkXkXkXkXkXkXkXkXkXkXkXkXkXkXhXsXlXhXsXsXsXsXsXsXsXsXsXpXsXiXiXiXiXiXiXiXiXuXyXyXuXyXyXuXuXuXyXuXyXyX6X3X6X3X3X3X6X3X3X3X3X3XS.S.S.S.S.S.A.A.B.B.A.B.B.B.B.B.A.A.B.f.f.f.f.f.f.f.f.f.f.f.f.d.f.f.j.F.L.K.K.}.}.{.}.{.{.{.{.{.{.{.{.{.{.@X@XDXGXGXGXGXGXGXGXGX&X&X&X%X%X%X&X&X&X&X%X%X%X.X.X.X.X.X{.[.[.[.{.{.[.].].`.`.].`.W.`.].].`.`.`.`.`.].].].W.R.W.H.R.`.`.R.H.y.y.y.H.W.Q.'.'.`.'.'.`.`.`..X`.W.H.y.q.3.>.<.7.6.7.6.6.6.6.:.:.:.>.<.7.7.q.w.w.w.w.w.y.y.y.e.e.e.e.y.y.e.e.e.q.q.q.q.w.q.w.w.q.7.7.7.3.:.:.:.:.:.:.:.:.L L ' ' '  .J F F ( ~ ~ ! ! ~ ~ ! ! Q Q ! Q Q W W W Q Q Q W W E E E E E E E E E E E Y Y Y Y Y Y Y Y E E E E E E Y Y E E E E Y Y Y E E E Y Y Y Y Y Y E Y E E Y Y Y Y E E E E E E E E Y Y E D Y Y Y D E Y D S S S S S Z Z Z m m m n n n n n v v v v v v v v v v v c c l l p p l l p p c c f f f f p p p a u u ",
"NXNXNXCXCXCXCXCXCXCXCXCXCXCXCXCXCXCXCXCXCXCXCXCXNXCXCXCXCXCXCXNXNXNXNXmXmXbXmXmXNXmXmXmXmXmXmXmXBXBXBXBXBXxXkXkXxXxXxXkXkXkXkXkXkXkXkXkXkXkXhXsXlXsXsXsXsXsXsXsXsXsXsXsXsXiXiXiXiXiXiXiXiXuXyXyXuXuXyXuXyXyXuXuXyXyX6X3X6X3X3X3X6X3X3X3X3X3XS.A.S.S.S.S.A.A.A.B.B.B.B.B.B.B.A.A.B.f.f.f.f.f.f.f.f.f.h.h.f.d.d.f.f.F.L.K.K.}.}.{.}.{.{.{.{.{.{.{.{.{.{.{.{.@XGXGXDXGXGXGXGXGX&X%X&X%X%X&X&X&X&X%X%X%X{.[.[.[.%X%X[.[.].'.].].'.`.].].{.{.`.K.`.].].`.`.W.W.W.W.W.`.H.H.R.H.H.W.T.H.H.y.y.y.H.R.T.'.'.'.'.'.'.'.'..X'.'.).l.r.3.>.7.6.7.7.7.7.6.3.:.:.:.>.:.<.7.7.r.r.q.w.w.w.w.w.y.w.e.e.e.e.e.e.w.q.q.q.q.q.q.q.w.q.7.7.3.>.:.:.:.L :.:.:.:.L P L ' '  .J M F  .~ ! ! ! ! ! ! ! Q ! ! Q W W W W Q Q Q W E E E E E E E E E E E E E Y Y Y Y Y Y Y Y Y E Y E E E E E Y Y Y Y Y E E E E E Y E E Y Y Y Y Y Y Y Y Y Y E E E E E E E E Y Y E Y Y Y D S Y Y D S S S S S Z S Z Z m m m n n n n n v v v v v v v v v v c c l l p p l l p p f f p p f f f f p a u u ",
"NXNXNXCXCXCXCXCXCXCXCXCXCXCXCXCXCXCXCXCXCXCXCXCXNXCXCXCXCXCXCXNXNXNXNXmXmXbXmXmXNXmXmXmXmXmXmXmXBXBXBXBXBXzXkXkXxXxXxXkXkXkXkXkXkXkXkXkXkXkXhXsXkXlXsXsXsXsXsXsXsXsXsXsXsXiXiXiXiXiXiXiXiXuXyXyXuXuXyXuXuXuXuXuXyXyX6X3X6X3X3X3X6X3X3X3X3X3XS.A.S.S.S.S.A.A.A.A.B.B.B.B.B.B.B.B.B.f.f.f.f.f.f.f.f.f.h.h.h.h.f.f.f.F.L.K.K.K.}.}.}.{.{.{.{.{.{.{.@X{.{.{.{.@XDXDXDXDXGXGXGXGX%X%XGX%X&X&X&X&X%X%X.X{.[.[.[.[.%X%X[.].].`.'.].W.`.`.`.`.`.`.K.W.`.].].`.W.W.W.W.W.W.H.H.H.H.H.R.R.R.H.l.y.l.R.R.W.Q.'.'.'.'.'.'.'..XoX.X'.R.t.q.>.7.<.<.6.7.7.6.2.2.:.:.:.:.:.<.7.8.q.q.q.q.q.w.w.w.w.q.w.e.e.e.w.w.q.q.q.q.q.q.q.q.8.7.6.:.:.;.:.L L :.:.:.L L L L ' ' I F F ~  .~ ! ! ! ! ! ! ! Q ! ! Q W W W W Q Q W W E E E E E E E E E E E E E Y Y Y Y Y Y Y Y Y Y Y E E E E Y Y Y Y Y Y E E E E E E E E E E Y Y Y Y Y Y Y Y E E E E E E E E E Y Y D Y D D S Y Y D S S S S S S S Z Z Z m m m n n n n n v v v v v v v v v c c l l p p l l p p p f f p f f p p p a u u ",
"NXNXCXCXCXCXCXCXCXCXCXCXCXCXCXCXCXCXCXCXCXCXCXCXNXCXCXCXCXCXCXNXNXNXAXmXmXbXmXmXNXmXmXmXmXmXmXmXBXBXxXxXxXzXkXkXxXxXkXkXkXkXkXkXkXkXkXkXkXkXhXsXkXhXhXsXsXsXsXsXsXsXsXsXsXpXiXiXiXiXiXiXiXuXyXyXuXuXyXuXuXuXuXuXyXyX6X3X3X3X3X3X6X3X3X3X3X3XS.A.S.S.S.S.A.A.A.A.B.B.B.B.B.B.B.B.B.f.f.f.f.f.f.f.f.f.h.h.g.h.h.d.d.B.D.L.K.K.`.].}.{.{.{.{.{.{.{.{.{.{.{.{.{.@X@XDXDX%XGXGXGX%X%X&X%X&X&X&X&X%X$X.X{.[.[.[.{.%X%X{.].'.'.'.'.W.`.`.J.H.J.`.`.`.`.[.].'.W.W.W.W.W.'.R.W.W.R.R.W.W.R.R.R.R.R.R.T.T.T.W.Q.'.'.|.|.|.|.oXoX|.T.y.r.q.7.<.>.>.3.7.6.2.:.:.:.>.>.:.6.7.7.7.7.7.7.q.q.q.w.w.q.w.e.e.e.w.w.w.q.q.7.7.q.q.q.7.7.2.:.:.:.:.L P L :.:.:.2.' L ' ' J F F ~ ] ! ! ! ! ! ! ! ! Q ! ! ! W W W Q Q Q W W E E E E E E E E E E E E E E Y Y Y Y E E Y Y E E E Y Y Y Y Y Y Y Y E E E E E E E E E Y Y Y Y Y Y Y Y Y Y E E E E E E E E E E Y D D D D Y Y Y D S S S S S S S S S Z Z m m n m m n n n v v v v v v v v v v l l p p l l p p p f p p p p p p p a u u ",
"CXCXCXCXCXCXNXNXCXCXCXCXCXCXCXCXCXCXCXCXCXCXCXCXNXCXCXCXCXCXCXNXAXAXAXmXNXbXmXmXNXmXmXmXmXmXmXmXBXBXxXxXxXzXkXkXkXxXkXkXkXkXkXkXkXkXkXkXkXkXhXsXkXkXhXsXsXsXsXsXsXsXsXsXsXpXiXiXiXiXiXiXiXuXyXyXuXuXyXuXuXuXuXuXyXyX6X3X6X3X3X3X3X3X3X6X6X3XS.A.S.S.S.A.A.A.A.A.B.B.B.B.B.B.B.B.B.f.f.f.f.f.f.f.f.f.h.h.g.g.h.d.f.B.D.L.K.K.`.`.].{.{.{.{.{.{.{.{.{.{.{.{.{.{.{.@XDX%X%XGX%X%X%X%X%X%X&X&X*X X[.[.[.[.[.{.{.{.{.[.].'.W.`.].W.`.`.H.H.H.`.`.`.`.{.[.'.'.Q.Q.'.[..X'.[..X'.`.'.`.T.).R.R.T.R.R.R.R.T.T.'.|.|.oX.XoXXXXX|.T.R.l.y.q.q.7.7.3.3.3.6.2.:.:.2.>.:.<.6.6.7.7.7.7.7.q.q.w.q.q.q.w.e.e.q.w.q.q.q.7.7.7.q.7.7.6.:.:.;.;.:.L P L :.:.:.2.' I P I J F F ~ ( ! ! ! ! ! ! ! ! Q ! ! ! W W W W W W W W E E E T E E E E E E E E E E Y Y Y Y E E Y Y E E Y Y Y Y Y Y Y Y Y Y E E E E E E E E Y Y E E Y Y Y Y Y Y E E E E E E E E E E Y D Y D D D Y Y D S S S S S S S S S Z Z Z Z m m n m n n n v v v v v v v v v l l p p l l p p p p p p p p p p a u y y ",
"CXCXCXCXCXCXCXCXCXCXCXCXCXCXCXCXCXCXCXCXCXCXCXCXNXCXCXCXCXCXCXNXNXAXNXNXNXbXmXmXNXmXmXmXmXmXmXmXBXxXxXxXxXzXkXkXkXkXkXkXzXkXkXkXhXkXkXkXkXkXlXsXkXlXlXsXsXsXsXsXsXsXsXsXsXpXiXiXiXiXiXiXiXuXyXyXuXuXyXuXuXuXuXuXyXyX6X3X6X3X3X3X3X3X3X6X6X3XS.A.S.S.S.A.A.A.A.A.A.A.A.A.A.B.B.B.B.f.f.f.f.f.f.f.f.f.h.h.h.g.h.d.f.f.D.L.K.K.`.`.].{.{.{.{.{.{.@X{.{.{.{.{.{.{.@X@X@X@X@X@X@X%X%X%X%X%X%X%X%X X'.'.].[.[.{.[.[.[.[.'.W.W.W.`.`.`.`.R.H.W.`.`.`.`..X.X[.[.[.[.[. X&X.XXXJXXX.XXX.X|.'.T.).T.R.R.R.T.Q.Q.|.oXoXXXoXXXXXoX_.T.R.v.l.y.y.r.q.7.3.7.7.2.2.2.>.:.:.:.6.2.2.6.7.7.7.q.q.q.q.q.q.q.w.q.q.q.q.q.q.<.<.7.7.>.>.2.:.:.L L :.L L L L L :.L ' I I J F F ~ ( ( ! ` ` ` ` ` ! ! Q ! ! ! Q W W W W W E E E E T T E E E E E E E E E E Y Y Y E E E Y Y E E Y Y Y Y E E Y Y Y Y Y Y Y Y Y E Y Y Y Y E E E E Y Y Y Y E E E E E E E E Y Y Y D Y D D D Y Y D S S S S S S S S S S Z Z Z m m n m n n n v v v v v v l v v l l p p l l p p p p p p p p p p a u y y ",
"CXCXCXCXCXCXCXCXCXCXCXCXCXCXCXCXCXCXCXCXCXCXCXCXNXCXCXCXCXCXCXNXNXmXNXmXNXbXmXmXNXmXmXBXmXBXmXBXxXxXxXxXxXzXkXkXkXkXkXkXkXkXkXkXhXkXkXkXkXkXlXsXkXkXlXsXsXsXaXaXsXsXsXsXsXpXiXiXiXiXiXiXiXuXyXyXuXyXyXuXuXuXuXuXuXyX6X6X6X3X3X3X3X3X6X6X6X3XS.A.S.S.S.A.A.A.A.A.A.A.A.A.A.A.B.B.B.f.f.f.f.f.f.f.d.f.f.h.g.h.g.h.f.f.D.L.K.K.`.`.].{.{.{.{.{.{.@X{.{.{.{.{.{.{.{.@X@X@X@X@X@X%X%X%X%X%X%X%X%X[.'.W.`.].[.[.[.].'.'.`.W.W.W.W.`.`.`.`.).`.`.`.`.'..X.X[. X X X X.XXX.XHXUXUXHXHXXXHXXXXXXXoX'.T.^.|.|.|.oXoXXXoXXXoXoX_.T.v.R.v.v.v.y.y.r.q.3.7.7.3.2.>.2.:.:.:.:.:.2.2.6.7.7.q.q.q.7.<.q.q.w.q.q.q.q.q.<.<.<.7.7.>.>.2.:.:.K L L L L L L L L P L P I J J J  .] ~ ! ` ! ! ` ` ! ! Q ! ! ! Q W W W W W W E E E T T E E E E E E E E E E Y Y Y Y E E Y Y E E Y Y Y Y E E Y Y Y Y Y Y Y Y Y Y Y Y Y Y E E E E Y Y Y Y E E E E E E E E Y Y E Y Y D D D Y Y D S S S S S S S S S S Z Z Z m m m n n n n v v v v v v l v v l l p p l l p p p p p p p p p p a u y y ",
"CXCXCXNXNXNXCXCXCXCXCXCXCXCXCXCXCXCXCXCXCXCXCXNXNXCXCXCXCXCXCXNXmXAXmXmXmXbXmXmXmXmXmXmXBXxXBXBXxXxXxXxXxXkXkXkXkXxXxXxXkXkXkXkXkXkXkXkXkXlXlXlXkXhXhXsXsXsXsXhXaXaXaXiXiXiXiXiXiXiXiXuXuXuXuXuXyXyXyXyXyXyXyXyX6X6X6X6X6X6X6X6X3X3X3X3XS.S.S.S.S.S.D.D.A.A.A.A.B.B.C.f.B.A.A.A.C.f.f.f.f.f.f.f.d.f.f.f.f.h.h.d.f.p.j.L.K.J.K.].].}.{.{.{.{.{.{.DX{..X{.{..X.XDX@X@X@XDXDX@X@X@X@X@X%X%X%X%X{.[.W.W.W.`.'.'.].].].].`.`.W.`.`.`.`.`.`.`.`.}.}.{..X.X.X.X.X.X.X.X&XXXXXXXXXXXXXXXXXXXHXHX+X+XXXoXoXXX+X+X+X+X+XoX_.E.v.v.v.x.v.T.v.v.y.u.w.q.q.>.7.7.7.7.>.:.:.2.2.2.2.2.7.7.7.7.7.7.q.q.q.q.q.q.q.q.<.<.<.<.7.<.2.:.:.:.L K K P K L L :.L L L P P I J F F  .] / ! ! ! ! ! ! ! ! Q Q Q Q Q W E E E E E E E E E E E E E E E E E E T T Y Y T T T T T T Y Y T T T T E E E E Y Y Y Y Y Y Y Y Y E E E Y E E E E E E Y Y Y Y E E E E Y W W E E Y Y S Y Y D S S S S S S S S S m m m m S m m m m m m m b v v v v v v v v l l l l p p p p p p p p p p p p u u u u ",
"CXCXCXNXNXCXCXCXCXCXCXCXCXCXCXCXCXCXCXCXCXCXCXNXNXCXCXCXCXCXCXAXmXAXAXmXmXbXmXmXmXmXmXmXBXxXxXxXxXxXxXxXxXkXkXkXkXxXxXxXkXkXkXkXkXkXkXkXkXsXlXlXkXhXhXsXsXsXsXhXaXaXaXiXiXiXiXiXiXiXiXuXuXuXuXuXyXyXyXyXyXyXyXyX6X6X6X6X6X6X6X6X3X3X3X3XS.S.S.S.S.S.D.D.A.A.A.A.C.C.C.f.C.A.A.A.C.f.f.f.f.f.f.f.d.f.f.f.f.h.h.f.f.a.s.F.L.J.K.K.].}.}.{.{.{.{.{.DX{.{.{..X.X.XGX{.@X@XDXDXDX@X@X@X@X.X%X%X{.[.'.W.W.`.`.W.W.`.`.'.`.`.W.W.W.`.`.`.`.`.`.`.}.}.{..X.X.X.X.X.XoXoX|.|.|.|.|.|.E.E.oXoXoX+X+X+XFXUXFXFXFX+X_._.E.E.v.c.c.c.u.u.u.c.x.x.x.y.w.w.q.q.7.7.7.7.6.>.>.2.2.2.2.6.7.7.7.7.7.7.q.q.q.q.r.q.q.q.<.<.<.7.7.6.2.:.:.L P K P P P L L L L P L P I I J F ~  .] ! ! ! ! ! ! ! ! ! Q Q Q Q Q W E E E E E E E E E E E E E E E E E E T T T Y T T T T T T Y Y T T T T E E Y Y Y Y Y Y Y Y Y E Y E E E Y E E E E E E Y Y Y Y E E E E Y W W E E D Y S Y Y D S S S S S S S S S m m m m S m m m m m m m b v v v v v v c v l l l l p p p p p p p p p p p p a u a u ",
"CXCXCXNXNXCXCXCXCXCXCXCXCXCXCXCXCXCXCXCXCXCXCXNXNXCXCXCXCXCXCXAXmXAXAXmXmXbXmXmXmXmXmXBXBXxXBXBXxXxXxXxXxXxXkXkXkXxXkXkXkXkXkXkXkXkXkXkXkXlXlXlXkXhXhXsXsXsXsXhXaXaXaXaXiXiXiXiXiXiXiXuXuXuXuXuXyXyXyXyXyXyXyXyX6X6X6X6X6X6X6X6X3X3X3X3XS.S.S.S.S.S.D.D.A.A.A.Z.C.C.C.C.C.A.A.A.C.B.f.d.f.f.f.f.d.f.f.f.f.h.h.f.p.a.s.F.L.J.K.K.].}.}.{.{.{.{.{.{.{.{.{.{.{..X{.{.{.@XDXGXGX@X@X%X@X%X%X%X{.].].'.`.'.Q.W.W.W.W.'.`.W.W.W.W.`.`.`.`.`.`.`.}.'.'.XX.X.XoXoXoXoXoX|.|.|.|.|.T.T.T.|.|._._.oX+XFXFXFXFX+X_.E.v.c.c.c.c.u.u.u.u.u.u.y.y.y.y.u.u.t.r.r.q.7.7.7.7.3.2.2.2.2.6.7.7.7.7.7.7.7.7.q.q.q.q.q.7.<.>.<.7.7.6.2.:.:.L P K P P L L L L L P L P I J J F ~ ] / Q ! ! ! ! ! ! ! ! Q Q Q Q Q W W E E E E E E E E E E E E E E E E E T E T T T Y Y Y T T E Y T T Y T Y Y Y Y E Y E E Y Y Y E Y E E E Y E E E E E E Y Y Y Y E E E Y Y E E E Y Y Y Y Y Y D S S S S S S S S S m m m m S m m m m m m m b v v v v v v v c l l l p p p p p p p p p p p p p a a u u ",
"CXCXNXNXNXCXCXCXCXCXCXCXCXCXCXCXCXCXCXCXCXCXCXNXNXCXCXCXCXCXCXAXmXAXAXmXmXbXmXmXmXmXmXBXBXxXxXBXxXxXxXxXxXxXkXkXkXxXkXkXkXkXkXkXkXkXkXkXkXlXlXlXkXhXhXsXsXsXsXhXaXaXaXaXaXiXiXiXiXiXiXuXuXuXuXuXyXyXyXyXyXyXyXyX6X6X6X6X6X6X6X6XS.3X3X3XS.S.S.S.S.S.D.D.A.A.Z.Z.C.C.C.C.A.A.A.A.C.f.f.d.d.d.f.f.d.f.f.f.f.h.h.f.p.a.s.F.L.L.K.K.}.].}.{.{.{.{.{.{.{.{.{.{.{..X{.{.{.@X@XGXGX@X@X%X@X%X@X{.{.'.W.'.'.'.'.Q.W.W.W.'.`.`.`.W.`.`.`.`.`.`.`.}.'..X.XoXoXoXoX|.|.|.|.|.|._._._.|._._._._.E._._._._._._._._.b.c.u.u.u.c.c.c.c.c.u.u.u.u.e.u.u.u.u.t.r.y.t.q.7.7.7.7.3.2.2.2.6.7.7.7.7.7.7.7.7.7.7.q.q.q.7.>.>.>.<.7.6.2.:.:.L P K P L P L P P P P P P I J M F ~ ] / Q ! ! ! ! ! ! ! ! Q Q Q Q Q W W W E E E E E E E E E E E E E E E E E E T Y Y Y Y Y T T E E E E Y Y Y Y Y Y E E E E Y Y Y E Y E E E Y E E E E E E Y Y Y Y E E Y Y Y E Y Y D D D Y Y Y D S S S S S S S S S m m m m S m m m m m m m b v v v v v v v v l c l p p p p p p p p p p p p p a a u u ",
"NXNXNXNXNXCXCXCXCXCXCXCXCXCXCXCXCXCXCXCXCXCXCXNXNXNXCXCXCXCXCXAXmXAXAXmXmXbXmXmXmXmXmXBXBXxXBXBXxXxXxXxXxXkXkXkXkXkXkXkXkXkXkXkXkXkXkXkXkXsXsXsXhXhXhXsXsXsXhXhXaXaXsXiXaXaXiXiXaXaXiXuXuXuXuXuXyXyXyXyXyXyXyXyX6X6X6X6X6X6X6X6XS.S.6X3XS.S.S.S.D.D.D.A.A.A.A.A.C.C.C.C.A.A.A.C.B.f.f.f.d.d.f.f.d.f.f.f.f.h.h.d.p.p.s.F.L.L.K.K.}.].}.{.{.{.{.{.{.@X{.@XGX{.DX{.{.{.{.@X@XDX%X%X@X@X{.@X{.[.'.W.`.Q.[.[.'.Q.'.Q.'.'.'.'.'.`.`.`.}.}.'.'.'.'..X.X|.|.|.|.|.|.|.|._._._._._._._._._._._.E.E.E.E.E.E.E.v.v.c.u.c.c.c.c.c.c.c.u.u.u.u.u.u.u.u.u.u.r.y.r.r.r.r.q.7.7.2.2.3.6.7.7.7.7.7.7.7.7.7.7.7.7.7.7.>.>.>.<.6.6.:.:.L P P K K P P P P P P P P P I J M M ~ ( / ! ! ! ! ! ! ! ! ! Q Q Q Q Q W W W E E E E E E E E E E E E E E E E E E E Y Y Y Y Y T E E E T Y E Y Y Y Y Y Y Y E E Y Y Y Y Y E E E Y E E E E E E Y Y E Y E E Y Y Y Y D D D Y Y Y Y Y D S S S S S S S S S m m m m S m m m m m m m b v v v v v v v v l l l p p p p p p p p p p p p p a a u u ",
"NXNXNXNXCXCXCXCXCXCXCXCXCXCXCXCXCXCXCXCXCXCXCXNXNXNXCXCXCXCXNXNXmXAXAXmXAXbXmXmXmXmXmXBXBXxXBXBXxXxXxXxXxXxXkXkXkXkXkXkXkXkXkXkXkXkXkXkXkXlXsXsXhXhXhXsXsXsXhXhXsXaXsXaXaXaXaXaXaXaXiXuXuXuXuXuXyXyXyXyXyXyXyXyX6X6X6X6X6X6X6X6XS.S.6X3XS.S.S.S.D.D.D.A.A.A.A.A.C.C.A.A.A.A.C.C.C.f.f.d.d.d.d.f.d.j.f.f.f.h.h.d.d.f.s.s.F.L.K.K.K.].}.{.{.{.{.{.{.{.@XGXGXGX{.{.{.{.{.@XDXGX%XGX%X@X@X@X%X{.].'.`.`.Q.[.Q.Q.Q.Q.Q.Q.'.'.'.'.'.'.'.'.'.'.'.'._.|.|.|.|.|._._._._._._._._._._._._._._._._._._.b.b.E.E.v.x.c.c.c.c.c.c.c.c.u.u.u.u.u.u.u.u.u.u.u.q.u.r.r.r.q.q.7.7.7.3.3.3.6.7.7.7.7.7.q.q.q.q.3.7.7.<.>.>.>.>.2.>.:.L P P P K K P L P K K P K P I ' J M F ~ ~ ! / ! ! ! ! / / / / Q Q Q Q Q W W W E E E E E E E E E E E E E E E E E E Y Y Y Y Y Y T E E E T T E E Y Y E E Y Y E Y Y Y Y Y Y E E E Y E E E E E E Y Y E Y E E Y Y Y D D D D D D Y S Y D S S S S S S S S S m m m m S m m m m m m m b b v v v v v v v l l l p l p p p p p p p p p p p a a u u ",
"NXNXNXNXCXCXCXCXCXCXCXCXCXCXCXCXCXCXCXCXCXCXCXNXNXCXCXCXCXCXCXAXAXAXAXAXAXbXmXmXmXmXmXBXBXxXBXBXxXxXxXxXxXxXxXxXkXkXkXkXxXkXkXkXkXkXkXkXkXhXsXsXhXhXhXsXcXhXhXhXsXsXsXaXsXaXaXaXaXaXiXuXuXuXuXuXyXyXyXyXyXyXyXyX6X6X6X6X6X6X6X6XS.3X6X3XS.S.S.S.D.D.D.A.A.A.A.A.C.C.A.A.A.C.C.f.C.f.f.d.d.d.d.f.d.j.f.f.h.h.h.d.d.f.j.s.F.L.K.K.K.].}.}.{.{.{.{.{.{.DXDXDXDX{.{.}.{.{.@X@XDX%XGX@X@X%X%X%X%X[.'.Q.Q.[.Q.Q.!.W.W.W.W.W.`.'.'.'..X|.|._.).).T._._._._._._._._._._.+X+X_.+XOXOXOXOX_._._._._._._._._.b.x.c.c.c.c.c.c.v.c.u.u.c.u.u.u.u.u.5.5.q.q.q.q.q.r.q.q.7.7.7.7.7.3.3.3.7.7.7.q.q.q.r.r.q.7.3.7.7.<.<.<.>.:.:.:.L P P P K K P L P P K K K I I J F F F ( ~ ! / ! ` / / / / ) ) ! ! Q Q Q W W W E E E E E E E E E E E E E E E E T T Y Y Y Y Y Y T T Y Y T T T T Y E E E Y Y Y Y Y Y Y Y Y E E E Y E E E E E E Y Y E Y E E Y Y Y D D D D D D D D Y D S S S S S S S S S m m m m S m m m m m m m b b b v v v v v v l l l p l p p p p p p p p p p p u u u u ",
"NXNXNXNXCXCXCXCXCXCXCXCXCXCXCXCXCXCXCXCXCXCXCXNXNXCXCXCXCXCXCXAXAXAXAXAXAXbXmXmXmXmXmXBXBXxXBXBXxXxXxXxXxXxXxXxXkXkXkXxXxXkXkXkXkXkXkXkXkXhXhXhXhXhXhXhXhXhXhXhXsXsXsXsXsXaXaXaXaXaXiXuXuXuXuXuXyXyXyXyXyXyXyXyX6X6X6X6X6X6X6X6XS.S.6X3XS.S.S.D.D.D.D.A.A.A.A.A.C.A.A.A.A.C.C.f.B.f.f.d.d.d.d.f.p.j.f.f.f.h.h.d.d.j.a.a.s.L.L.K.K.].}.}.{.{.{.{.{.{.@XDXDXDX{.{.}.{.{.@X@XDX@X%X@X@X%X%X%X%X{.[.[.`.Q.Q.!.R.R.H.H.R.W.W.`.'.'.|.|._.|.).T.T.T.E._._._._._.OX+X+XOXOXOX_._._._._.OX_.b.b.b.b.n.OXb.v.c.c.c.c.c.c.c.c.c.u.5.u.u.u.5.5.5.5.5.5.5.5.3.q.q.q.3.3.3.7.7.7.3.2.3.7.7.7.q.w.w.r.r.q.7.7.7.7.<.6.3.>.:.:.L K K L P K K I L P P K K I I I J F F ~ ( ! ! ! ! ) / / ) ) ) ) ! ! Q Q Q W W W E E E E E E E E E E E E E E E E T T Y Y Y Y Y m T T Y Y T T T T E E E E Y Y Y Y Y Y Y Y Y E E E Y E E E E E E Y Y Y Y E E Y Y Y Y D D D D D D D Y D S S S S S S S S S m m m m S m m m m m m m b b b b v v v v v l l l l l p p p p p p p p p p p u u u u ",
"CXCXCXCXCXCXCXCXCXCXCXCXCXCXCXCXCXCXCXCXCXCXCXCXNXCXCXCXCXNXmXmXmXAXAXmXmXbXmXmXmXmXmXmXBXBXBXBXxXxXxXxXxXkXkXkXkXkXkXkXkXkXkXkXkXkXkXkXhXhXhXhXhXhXhXhXhXcXsXsXsXsXsXaXaXaXiXiXiXiXiXiXuXuXuXuXyXyXyXyXyXyXyX6X6X6X6X6X6X6X6X6X6XS.S.S.S.S.S.D.D.D.A.A.A.D.A.A.f.C.A.C.f.f.f.C.f.f.f.f.f.f.d.p.j.j.f.f.f.h.h.f.d.d.j.a.s.F.L.K.K.K.].}.{.{.{.{.{.{.{.{.{.{.{.{.}.}.{.{.@X@X%XGX%X%X%X%X%X.X[.[.[.[.Q.R.M.y.y.y.y.M.H.R.W.T.T.).R.R.R.T.R.T.v.v._.E.b.b.b._._._._._._._._.OXOX_.n.n.b.n.n.b.n.b.b.c.c.v.c.c.c.c.b.c.c.u.5.5.5.5.5.5.5.1.5.5.5.3.3.3.3.3.3.3.3.3.3.2.2.:.:.>.>.7.7.q.t.t.t.w.7.7.>.>.7.6.>.>.:.:.L K K K I I P P L P K K P I I J F F J ( ( ! Q Q ) ) ) ! ! ! ! ! Q Q Q W W E W W E E E E E E E E E E E E E E E E T T Y Y Y Y Y Y Y Y Y Y Y T T T Y Y Y Y Y E E E Y Y E E E E Y Y E E E E E Y Y Y E E E E Y Y Y Y S Y Y Y Y E E Y S S S S S S S S S S S S S S S S m m m m m m m b b b b v v v v v l l p p l l p p p p p p p p p p a u u y ",
"CXCXCXCXCXCXCXCXCXCXCXCXCXCXCXCXCXCXCXCXCXCXCXCXNXCXCXCXCXNXmXmXmXAXAXmXmXbXmXmXmXmXmXmXBXBXxXxXxXxXxXxXxXkXkXkXkXkXkXkXkXkXkXkXkXkXkXkXhXhXhXhXhXhXhXhXcXcXsXsXsXsXsXaXaXaXiXiXiXiXiXiXuXuXuXuXyXyXyXyXyXyXyX6XyXyX6X6X6X6X6X6X6X3XS.S.S.S.S.D.D.D.A.A.A.A.A.A.f.C.A.C.f.f.f.f.f.f.f.f.f.f.d.p.j.d.f.f.f.d.h.h.d.p.a.a.s.s.L.K.K.K.].{.{.{.{.{.{.{.{.{.{.{.{.{.}.}.{.{.{.@X%XGX%X%X%X%X%X.X[.[.'.Q.Q.!.H.M.M.M.y.y.y.y.y.H.l.l.y.v.v.v.v.x.v.v.c.c.u.u.c.c.c.c.b.b.b.b.b.n.OXOXb.n.n.b.n.b.b.b.b.c.c.c.c.c.c.c.c.u.5.5.5.1.1.1.,.,.,.,.,.,.,.,.>.3.>.>.>.4.4.4.:.:.:.2.:.:.>.>.7.q.w.t.t.r.7.3.>.<.7.6.6.:.:.:.K K K K I I P P L P K I P I I J F F ~ ( ( ! ! ! ) ) ) ! ! ! ! ! Q Q Q W W E W W E E E E E E E E E E E E E E E E T T Y Y Y Y Y Y Y Y Y Y Y Y T T Y Y Y Y Y Y E E Y Y E E E Y Y Y Y E E E E Y Y Y E E E E Y Y Y Y S Y Y Y Y Y E D S S S S S S S S S S S S S S S S m m m m m m m b b b v v v v v v l l p p l l p p p p p p p p p p a u u y ",
"CXCXCXCXCXCXCXCXCXCXCXCXCXCXCXCXCXCXCXCXCXCXCXCXCXCXCXCXCXNXmXmXmXAXAXmXmXbXmXmXmXmXmXmXBXBXxXxXxXxXxXxXxXkXkXkXkXkXxXkXkXkXkXkXkXkXkXkXhXhXhXhXhXhXhXcXcXcXiXiXsXsXsXaXaXaXiXiXiXiXiXiXuXuXuXuXyXyXyXyXyXyXyX6XyXyXyX6X6X6X6X6X6X6XS.S.3X3XS.S.D.A.A.A.D.D.A.A.f.C.A.A.B.f.f.f.f.f.f.f.f.f.d.p.j.j.f.f.f.h.h.h.d.d.a.a.a.s.L.K.K.K.K.}.}.{.{.{.{.{.{.{.@X@X@X{.{.{.{.{.{.@X@X@X@X@X%X%X%X.X[.[.Q.[.'.Q.W.R.R.R.H.M.y.l.l.R.R.v.v.v.v.v.v.v.v.v.v.c.c.c.c.c.c.c.u.c.c.c.c.c.b.b.b.b.b.b.n.n.n.b.c.c.c.c.c.5.5.u.5.5.1.1.1.,.,.m.,.m.m.m.m.m.m.m.,.;.;.m.H H ;.;.H ;.:.:.3.3.>.>.7.7.w.t.t.r.7.>.>.>.7.7.6.:.:.:.K K K K I P P ' P P I I I I J J F F ~ ( ( / / ) ! ! / ! ! ! ! ! Q Q Q W W E W W E E E E E E E E E E E E E E E E T T Y Y Y Y Y Y Y Y Y Y Y Y Y T Y Y Y Y Y Y Y E Y Y Y E Y Y Y Y Y Y E E E Y Y Y Y Y E E Y Y E Y S Y Y Y Y E E Y S S D D D D S S S S S S S S S S m m m m m m m b v v v v v v v v l l p p l l p p p p p p p a a a a u u y ",
"CXCXCXCXCXCXCXCXCXCXCXCXCXCXCXCXCXCXCXCXCXCXCXCXCXCXCXCXCXCXNXmXmXAXAXmXmXbXmXmXmXmXmXmXBXBXxXxXxXxXxXxXxXkXkXkXkXxXxXkXkXkXkXkXkXkXkXkXhXhXhXhXhXhXhXsXcXcXiXiXhXsXsXaXsXaXiXiXiXiXiXuXuXuXuXuXyXyXyXyXyXyXyX6XyXyXyX6X6X6X6X6X6X6X3X3X6X3XS.S.D.A.A.A.D.D.A.A.B.C.C.C.B.f.f.f.f.f.f.f.f.f.d.p.p.p.d.f.d.d.h.h.h.d.p.a.a.s.F.L.K.J.K.].{.{.{.{.{.{.{.{.@X@XDX{.{.{.{.{.{.{.@X@X@X@X%X%X%X{.[.[.[.[. X[.'.'.'.'.Q.T.T.T.T.T.).)._._._._._._._._._._.b.b.b.b.n.n.c.c.c.c.c.c.c.c.c.c.c.c.c.c.c.c.5.5.5.5.5.5.5.5.5.5.5.1.1.1.1.1.1.1.,.,.m.m.m.m.m.m.B B B B B B H H ;.:.3.7.7.7.7.7.w.t.t.q.7.>.>.<.7.7.6.:.:.L H H K K I P P ' P I I I I I J J F F ~ ( ( / / ) / ! / ! ! ! ! ! Q Q Q W W E W W E E E E E E E E E E E E E E E E T T Y Y Y Y Y Y Y Y Y Y Y Y Y Y Y Y Y Y Y Y E E Y Y E E Y Y Y Y Y Y E E E Y Y Y Y Y Y Y Y Y E E S Y Y Y Y E E Y S S D D D D S S S S S S S S S S S S m m m m m m v v v v v v v v l l p p l l p p p p p p p a a a a u u y ",
"CXCXCXCXCXCXCXCXCXCXCXCXCXCXCXCXCXCXCXCXCXCXCXCXCXCXCXCXCXCXNXmXAXAXAXmXmXmXmXmXmXmXmXBXBXBXBXxXxXxXxXxXxXxXkXkXxXxXxXkXkXkXkXkXkXkXhXhXhXhXhXhXhXhXcXcXcXcXiXiXhXsXsXaXaXaXiXiXiXiXiXuXuXuXuXuXyXyXyXyXyXyXyX6X6X6X6X6X6X6X6X6X6X6X3X3X6X3XS.S.D.D.A.A.D.A.A.A.C.f.f.C.C.C.f.f.f.f.f.f.f.f.d.p.p.a.p.d.d.d.h.h.h.h.p.a.a.s.F.L.L.J.K.].{.#X@X@X{.{.{.@X{.{.@X{.{.{.{.{.{.{.{.@X@X@X%X%X%X{.[.[. X X X X X'.'.'.Q.T.T.T.T.|.|.|._.|._._._._._._._._._._.n.n.n.n.OXOXn.n.n.n.n.n.c.c.c.c.c.c.c.u.5.5.5.c.c.u.c.c.c.c.c.u.u.u.5.5.5.5.5.3.,.,.,.,.,.;.;.H H H ;.;.;.;.:.>.3.q.q.7.7.7.q.w.r.7.3.>.>.<.7.7.2.:.:.K H H H K I P P ' I I I I I I J F F F ~ ~ ! ! ^ ) / ! ) ! ! ! ! ! Q Q Q W W E W W E E E E E E E E E E E E E E E E T T Y Y Y Y S S Y Y Y Y Y Y Y Y Y Y Y Y Y Y E Y Y Y Y Y Y Y Y Y Y Y Y E E E Y Y Y Y Y Y E Y E E S D Y E Y Y Y D S S D S D D S S S S S S S S S S S S S m m m m m v v b v v v v v l l p p l l p p p p p p p p p p a u u y ",
"CXCXCXCXCXCXCXCXCXCXCXCXCXCXCXCXCXCXCXCXCXCXCXCXCXCXCXCXCXCXNXCXAXAXAXmXmXmXmXmXmXmXmXBXBXBXBXBXxXxXxXxXxXxXkXkXxXkXxXkXkXkXkXkXkXkXhXhXhXhXhXhXhXhXcXcXcXcXiXiXhXsXsXaXaXiXiXiXiXiXiXuXuXuXuXuXyXyXyXyXyXyXyX6X6X6X6X6X6X6X6X6X6X6XS.S.3X3XS.S.D.D.A.A.D.D.A.A.C.f.f.f.C.C.f.f.f.f.f.f.f.f.d.p.p.a.p.p.d.d.h.g.h.d.d.a.a.s.F.L.L.J.K.K.].{.{.{.{.{.{.@X{.{.@X{.@X{.{.}.}.{.{.{.@X@X%X%X%X{.[.[.[.[.[.[. X'.'.T.T.R.R.R.T.T.|.|._._._._._._._._._.n.n._.n.n.n.n.OXOXOXOXOXOXOXn.n.n.n.n.n.n.n.n.n.n.n.n.n.n.n.n.n.n.b.c.c.c.c.u.5.5.5.5.3.>.4.3.,.;.;.;.;.:.4.3.3.3.3.>.7.q.w.q.7.q.q.q.q.7.3.>.>.7.7.7.2.:.L K H H J K I P P P I I I I I I J C F F ~ ~ ~ Q ^ ^ / ! ) ! ! ! ! ! Q Q Q W W E W W E E E E E E E E E E E E E E E E T Y Y Y Y Y S S Y Y Y Y Y Y Y Y Y Y Y Y Y Y Y Y Y Y Y Y Y Y S S Y Y Y E E E Y E Y Y Y Y Y Y E E S D Y E Y Y Y D S S S S D S S S S S S S S S S S S S S S m m m m b v b v v v v v l l p p l l p p p p p p p a p p a u u y ",
"CXCXCXCXCXCXCXCXCXCXCXCXCXCXCXCXCXCXCXCXCXCXCXCXCXCXCXCXCXCXCXAXAXAXAXmXmXbXmXmXmXmXmXBXBXBXBXBXxXxXxXxXxXkXkXkXkXkXkXkXkXkXkXkXkXkXhXhXhXhXhXhXhXhXcXcXcXcXiXiXhXsXsXaXaXaXiXiXiXiXiXuXuXuXuXuXyXyXyXyXyXyXyX6X6X6X6X6X6X6X6X6X6XS.S.S.S.S.S.D.D.D.A.A.A.A.A.A.C.f.f.C.C.A.f.f.f.f.f.f.f.f.d.p.p.a.p.p.d.d.h.g.d.d.d.p.a.s.F.G.L.J.K.K.].}.{.{.{.@X@X@X{.{.{.{.@X{.{.].].{.{.{.@X@X%X%X%X{.[.].[.[.[.[. X X'.T.T.R.R.R.T.|.|.|.|.|._._._._._._.OXOXFXFXFXFXFXFXn.n._.OXOXOXOXOXn.n.OXFXFXOXOXOXOXOXn.n.n.n.n.n.n.n.n.b.b.c.c.u.5.5.5.5.5.3.3.3.,.,.;.;.;.:.4.4.4.3.3.>.3.r.w.8.q.q.q.q.7.7.6.3.>.7.7.7.2.:.K H H H J K I I I P I I I I I I J F J F ( ~ Q Q ^ ^ / / ) ! ! ! ! ! Q Q Q W W E W W E E E E E E E E E E E E E E E E T T Y Y Y Y Y Y Y Y Y Y Y Y Y Y Y Y Y Y Y Y Y Y Y Y Y Y Y Y S S Y Y Y E E E E E E E Y Y E Y Y Y S D Y E E E Y D S S S S S S S S S S S S S S S S S S S S S m m m b b b v v v v v l l p p l l p p p p p p p p p p a a u y ",
"CXCXCXCXCXCXCXCXCXCXCXCXCXCXCXCXCXCXCXCXCXCXCXCXCXCXCXCXCXCXCXAXAXAXAXmXmXmXmXmXmXmXmXBXBXBXBXBXxXxXxXxXxXkXkXkXkXkXkXkXkXkXkXkXhXkXhXhXhXhXhXhXhXhXcXcXcXcXiXiXhXsXsXaXaXaXiXiXiXiXiXuXuXuXuXuXyXyXyXyXyXyXyX6X6X6X6X6X6X6X6X6X3XS.S.S.S.S.D.D.D.D.A.A.A.A.A.A.B.B.f.C.C.A.f.f.f.f.f.f.f.f.f.p.p.p.p.d.d.d.h.h.p.d.d.p.a.a.j.F.L.K.K.K.K.}.].].{.@X@X@X{.{.{.{.@X{.{.].].].{.{.@X@X%X%X%X{.[.]. X X X X X X|.Q.T.T.R.T.T._._._._._._._._._._._.OXOXFXFXFXFXFXFXFXFXFXFXFXFXOXOXOXn.OXOXOXn.n.n.FXOXn.n.n.n.n.n.n.n.n.n.b.b.c.c.u.u.u.u.5.3.3.3.3.4.4.:.;.;.;.;.;.;.:.;.3.q.w.7.w.w.q.q.7.7.7.3.3.6.7.6.2.:.K H H J K K I I I I I I I I I I J F J ( ( ( ! ! ^ ^ ) / ) ! ! ! ! ! ! Q Q W E E W W E E E E E E E E E E E E E E E E T T Y Y Y Y Y Y Y Y Y Y Y Y Y Y Y Y Y Y Y Y Y Y E Y Y Y Y Y S S Y Y Y E E E E E E E E Y Y Y Y Y S D Y E E Y Y D S S S S D S S S S S S S S S S S S S S S S m m m b b b v v v v v l l p p l l p p p p p p p p p p a u u u ",
"CXCXCXCXCXCXCXCXCXCXCXCXCXCXCXCXCXCXCXCXCXCXZXZXZXZXZXAXAXAXAXAXAXAXmXmXmXmXmXmXBXBXxXxXxXmXmXBXxXxXxXxXxXzXzXzXzXzXzXkXzXkXkXkXkXkXhXhXhXhXhXhXhXhXhXcXcXcXcXhXsXsXsXsXsXiXiXiXsXsXiXiXiXiXiXiXuXuXyXyXyXyX6X6X6X6XyX6X6X6X6X3XS.S.3X3X3XS.S.S.D.A.A.A.A.A.A.A.A.B.B.f.B.B.B.f.B.f.f.B.B.p.i.p.p.p.f.d.p.p.d.d.i.d.f.f.p.a.a.a.D.L.K.K.K.K.}.}.{.{.{.{.@X{.{.#X@X#X].].].].[.[.@X@X@X@X@X[.[.'.[. X X%X.X X'.'.T.T.T.T.T._._._._._._.|._._.oX_._.OXFXFXFXFXFXFXFXFXFXFXFXFXFXOXFXFXOXFXOXOXOXOXOXOXOXOXOXOXOXOXOXn.n.n.n.n.c.c.c.u.u.u.5.5.3.3.3.4.,.;.;.;.;.:.;.;.;.:.>.q.q.w.w.q.q.7.7.7.3.3.6.6.6.3.:.L K G H H K I I I I I P I I J J J F F ~ ~ ~ ! ! ! ! ! ) ) ! ! ! ! ! ! Q Q Q Q Q W W W E E E E E E E E E E E E E T T T Y Y Y Y Y Y Y Y Y Y Y Y Y Y Y Y Y Y Y Y Y Y Y Y T Y Y Y Y Y Y Y Y Y Y Y Y E E E E E E E E E E E S S E E E D D D E E S S S S S S S S S S S S S S S S S S S m m b v v v v v v v v c l l l l l p p p p p a p a a i i i a t ",
"CXCXCXCXCXCXCXCXCXCXCXCXCXCXCXCXCXCXCXCXCXCXZXZXZXZXAXAXAXAXAXAXVXNXmXmXmXmXmXmXBXBXxXxXxXmXBXBXxXxXxXxXxXzXzXzXzXzXzXkXzXkXkXkXkXkXhXhXhXhXhXhXhXhXhXcXcXcXcXhXsXsXsXsXpXsXiXiXsXsXiXiXiXiXiXiXuXuXyXyXyXyX6X6X6X6XyX6X6X6X6X3XS.S.S.S.S.S.S.S.D.D.A.A.A.A.A.A.A.B.B.f.B.B.B.B.B.f.f.B.B.d.p.p.p.p.d.d.d.d.d.f.i.d.f.f.d.p.i.a.F.D.gXgXK.K.K.}.{.{.{.@X@X{.{.{.@X#X].].].].].[.#X@X@X@X#X#X[.[. X X X%X.X X|.'.|.|.).T.T.T._._._._._._._._._._._._.FXFXFXFXFXFXFXFXFXFXFXFXFXFXFXFXFXFXFXFXOXOXFXOXOXOXOXOXOXOXOXOXOXn.b.n.b.c.c.c.u.u.5.5.3.3.3.,.,.,.;.;.;.;.;.;.;.:.>.q.w.w.w.q.q.7.7.7.7.7.7.6.2.:.:.K H H H H K I I I I I P I I J J F F ~ Q ! ! ! ! ! ! ! ) ) ! ! ! ! ! ! Q Q Q Q Q W W W E E E E E E E E E E E E E T T T Y Y Y Y Y Y Y Y Y Y Y Y Y Y Y Y Y Y Y Y Y Y Y Y T Y Y Y Y Y Y Y Y Y Y Y E E E E E E E E E E E E Y Y Y Y D D D D E E S S S S S S S S S S S S S S S S S S S m m b b v v v v v v v c l l l l l p p p p p a p a i i i i i t ",
"CXCXCXCXCXCXCXCXCXCXCXCXCXCXCXCXCXCXCXCXCXCXCXZXZXZXAXAXAXAXAXAXVXNXmXmXmXmXmXmXBXmXxXmXmXmXmXmXxXxXxXxXxXzXzXzXzXzXzXkXzXkXkXkXkXkXhXhXhXhXhXhXhXhXcXcXcXcXcXhXsXsXsXsXpXsXsXiXsXsXiXiXiXiXiXiXuXuXyXyXyXyX6X6X6X6XyX6X6X6X6X3XS.S.S.S.S.S.S.D.D.D.A.A.A.A.A.A.A.A.B.f.B.B.B.B.B.f.f.B.B.d.p.p.i.i.d.d.d.d.d.f.i.d.d.d.d.i.i.a.a.F.K.gXK.K.K.}.}.{.{.{.{.{.{.{.@X#X].].].].].].[.{.@X@X@X#X[.[. X X X%X.X X[.'..X|.|.|._.T.T.T.T._._._._._._._._._.FXFXFXFXFXFXFXFXFXFXFXFXFXFXFXFXFXFXFXFXOXOXFXFXFXFX+X+XOXOXOXOXOXOXOXb.b.c.c.c.u.u.5.5.>.>.,.;.;.;.;.;.;.;.;.;.:.>.7.q.w.w.w.q.q.7.7.7.7.7.7.6.2.;.K H H H H H K I I I I P I I I J F F ~ ~ ~ ~ ! ! ! ! ! ! / / / ! ! ! ! ! Q Q Q Q Q W W W E E E E E E E E E E E E E E T T Y Y Y Y Y Y Y Y Y Y Y Y Y Y Y Y Y Y Y Y Y Y Y Y T Y Y Y Y Y Y Y Y Y Y Y E E E E E E E E E E E E Y S Y Y Y E S S E D S S S S S S S S S S S S S S S S S S S S m m Z Z b b v v v v c l l l l l p p p p p a p a a a i i i t ",
"CXCXCXCXCXCXCXCXCXCXCXCXCXCXCXCXCXCXCXCXCXCXCXCXZXZXAXAXAXAXAXAXVXNXmXmXmXmXmXmXxXmXxXxXmXmXmXmXxXxXxXxXxXzXzXzXzXzXzXkXzXkXkXkXkXkXhXhXhXhXhXhXhXhXcXcXcXcXcXhXsXsXsXsXsXsXsXsXsXsXiXiXiXiXiXiXuXuXyXyXyXyX6X6XyXyXyX6X6X6X6X6XS.S.S.S.S.S.D.D.D.D.A.A.A.D.A.A.A.A.B.B.B.B.B.B.B.f.f.f.f.f.p.p.i.p.d.d.p.d.d.f.i.d.d.d.d.i.i.a.a.F.L.K.K.K.K.K.}.}.{.{.{.{.{.}.@X#X].].].].].].[.[.#X@X%X#X#X#X[. X X%X X X X[..X.XoX|._._._.T.T.T._._._._._._._._.FXFXFXFXFXFXFXFXFXFXFXFXFXFXFXFXFXFXFXFXOX_.FXFXFXFXFX+XOXOXOXOXOXOX_.b.b.b.c.u.u.u.5.5.3.>.,.;.;.;.H H H H :.:.>.>.7.q.q.w.w.q.7.7.7.7.7.7.7.6.:.;.K H H H H K I I I I I I I I J J F F ~ ( ~ ! ! ! ! ! ! ! ) ) / ! ! ! ! ! Q Q Q Q Q W W W E E E E E E E E E E E E E E T T T T Y Y Y Y Y Y Y Y Y Y Y Y Y Y T T T T T T T T T Y Y Y Y Y Y Y Y Y Y E E E E E Y Y Y Y Y Y E E E E E E E E E E E D S S S S S S S S S S S S S S S S S S S S m m Z Z Z Z b v b b c l l l l l p p p p p a a a i i i i i t ",
"CXCXCXCXCXCXCXCXCXCXCXCXCXCXCXCXCXCXCXCXZXZXZXZXZXZXAXAXAXAXAXAXVXMXmXmXmXmXmXmXxXmXmXmXxXxXxXxXxXxXxXxXxXzXzXzXzXzXzXkXkXkXkXkXkXkXhXhXhXhXhXhXhXhXcXcXcXcXcXcXsXsXsXsXsXsXsXsXsXsXiXiXiXiXuXiXuXuXyXyXyXyXyXyX6X6XyX6X6X6X6X3XS.3XS.S.S.D.D.D.D.D.A.A.D.D.A.A.A.A.B.B.B.B.B.B.B.B.f.f.f.f.p.p.d.d.d.d.i.i.d.d.i.p.d.d.p.i.i.i.a.s.F.L.K.K.K.K.}.}.}.}.}.{.}.}.@X{.{.}.].].].].[.[.#X@X@X@X@X[. X X$X%X%X%X[.[..X.X.X|.|.|.|.|.E.T._._._._._._._._.OXFXFXFXFXFXFXFXFXFXFXFXFXFXFXFXFXFXFXFXFX_.+XOXFXFXFXOXOX_.OXOX_._._.b.b.b.c.u.5.5.5.5.3.>.,.;.;.;.H H ;.;.:.>.>.7.7.q.q.w.w.q.7.7.7.7.7.7.7.6.2.:.H H H J K K I I I I I I I I J J F F ~ ~ ! ! ! ! ! ! ! ! ) ) / ! ! ! ! ! Q Q Q Q Q W W W E E E E E E E E E E E E E T T T T T T Y Y Y Y Y Y Y Y Y Y Y Y Y T T T T T T T T T Y Y Y Y Y Y Y Y Y Y E Y E E E Y Y Y E Y Y E Y E E E E E E E E E E S S S S S S S S Y S S S S S S S S S S S S Z Z Z Z Z Z Z b b c l l l l l l p p p p a a i i i i i i t ",
"CXCXCXCXCXCXCXCXCXCXCXCXCXCXCXCXCXCXCXCXZXZXZXZXZXZXAXAXAXAXAXAXVXMXmXmXmXmXmXmXxXmXmXmXxXxXxXxXxXxXxXxXxXzXzXzXzXzXzXkXkXkXkXkXkXkXhXhXhXhXhXhXhXhXcXcXcXcXcXcXsXsXsXsXsXsXsXsXsXsXiXiXiXiXuXiXuXuXyXyXyXyX6X6X6X6XyX6X6X6X6X3X3X3X3XS.S.D.D.D.S.D.A.A.D.D.A.A.A.A.B.B.B.B.B.B.B.B.f.p.d.f.d.p.d.d.d.d.i.i.p.d.i.p.d.d.p.i.i.i.a.a.s.L.K.K.K.K.}.}.}.}.}.}.}.}.{.}.}.}.].].].].[.[.@X@X@X@X@X#X$X$X%X%X%X@X#X[.{..X.X.XoX|.|.|._._._._._._._._._._.OXFXFXFXFXFXFXFXFXFXFXFXFXFXFX_.FXFXFXFXFXFX+XOXOXFXOX+XOX_.OXOX_._._.b.b.b.c.u.5.5.5.5.3.>.,.;.;.;.;.;.;.;.>.>.7.q.q.q.q.q.q.q.7.7.7.7.7.7.7.2.2.:.K H H J K K I J J J I I I J J J F ~ ( ~ ! ! ! ! ! ! ! ! ) ) ) ! ! ! ! Q Q Q Q Q Q W W W E E E E E E E E E E E E E T T T E T T T Y Y Y Y Y Y Y Y Y Y Y T E E E E E E E E T Y Y Y Y Y Y Y Y Y Y Y E E E E Y Y Y Y Y Y Y Y E E E E E E E E E E S S S S S S Y S Y S S S S S S S S S S S S Z Z Z Z Z Z v b b c l l l l l l p p p p a p i i i i i i t ",
"CXCXCXCXCXCXCXCXCXCXCXCXCXCXCXCXCXCXCXCXZXZXZXZXZXZXAXAXAXAXAXAXVXMXmXmXmXmXmXmXxXxXmXmXBXBXxXxXBXBXBXxXxXzXzXzXzXzXzXkXkXkXkXkXkXkXhXhXhXhXhXhXhXhXhXcXcXcXcXhXsXsXsXsXsXsXsXsXsXpXiXiXiXiXiXiXuXuXyXyXyXyX6X6X6X6XyX6X6X6X6X3X6X6X6X3XS.S.D.D.S.D.A.A.D.D.A.A.S.A.B.B.B.B.B.B.B.B.f.p.p.f.f.i.i.p.d.p.i.i.d.d.i.p.d.d.p.i.i.i.a.a.s.G.L.K.K.K.}.}.}.}.}.}.}.}.].].}.}.].].].].{.@X@X@X@X#X#X#X@X@X@X@X@X@X@X@X%X%X.X.X X|.|.|.E.E._._._._._._._._._.OXOXFXFXFXFXFXFXFXFX+X_._.FXFX_._._._.FXFX+XOXOXOXOXOXOXOXOXOX_._.b.b.b.c.c.u.5.5.5.5.>.>.;.,.;.;.;.;.;.;.>.3.q.q.w.q.w.w.q.7.7.7.7.7.7.7.6.2.:.K H H J J K K I I J J I I I J J J ~ ( ( ~ ! ! ! ! ! ! ! ! ) ) ) ! ! ! Q Q Q Q Q Q Q W W W E E E E E E E E E E E E E T T T E E T T T Y Y Y Y Y Y Y Y Y T T E E E E E E E E T Y Y Y Y Y Y Y Y Y Y Y Y E E E Y Y Y Y Y Y Y Y E E E E E E E E E E S S S S S S S S Y S S S S S S S S S S S S Z m b b b v v v v c l l l l l p p p p p a p i i i i i i t ",
"CXCXCXCXCXCXCXCXCXCXCXCXCXCXCXCXCXCXCXCXZXZXZXZXZXZXAXAXAXAXAXAXVXMXmXmXmXmXmXmXxXxXmXmXmXBXBXxXBXBXBXxXxXzXzXzXzXzXzXkXkXkXkXkXkXkXhXhXhXhXhXhXhXhXhXcXcXcXcXcXsXsXsXsXsXsXsXsXsXpXiXiXiXiXiXiXuXuXyXyXyXyX6X6X6X6XyX6X6X6X6X3X6X6X6X6XS.S.S.D.D.D.A.A.D.D.A.A.S.A.B.B.B.B.B.B.B.B.f.p.p.f.f.i.i.i.i.i.i.i.d.f.i.i.d.d.p.i.i.i.a.s.F.G.L.L.K.K.}.}.}.}.}.}.}.}.K.K.].].].}.].].{.@X@X@X@X#X[.[.@X@X@X@X@X@X@X@X%X%X%X.X X|.|.|.|._._._._._._._._._._.OXOXOXOXFXFXFXFXFXFX+XOXOXFXFXOX_._._.OXFXOXOXOXOXOXOXOXOXOXOXOX_.n.n.b.c.c.u.5.5.5.3.>.,.;.;.;.;.;.;.;.;.>.7.q.w.w.w.w.w.q.7.7.7.7.7.7.7.6.2.L K H H J J K I I J J J I I I J J F (  .( ! ! ! ! ! ! ! ! ! ) ) ) ! ! ! Q Q Q Q Q Q Q W W W E E E E E E E E E E E E E T T T E E E T T Y Y Y Y Y Y Y Y E T T E E E E E E E E T Y Y Y Y Y Y Y Y Y Y Y Y E E E Y Y Y Y Y Y Y Y E E E E E E E E E E S S S S S S S S D S S S S S S S S S S S S S m b v v v v v v c l l l l l p p p p p p p i i i i i i t ",
"CXCXCXCXCXCXCXCXCXCXCXCXCXCXCXCXCXCXCXCXCXCXZXZXAXAXAXmXAXAXAXAXVXMXMXmXmXmXmXmXmXmXBXBXmXmXxXxXxXxXxXxXxXxXzXzXzXzXzXzXzXkXkXkXkXkXhXhXhXhXkXkXhXhXhXcXhXcXcXsXsXsXsXsXsXiXiXiXsXsXpXiXiXiXiXiXiXiXuXyXyXyXyXyXyXyX6X6X6X6X6X6X6X6X6X3XS.S.S.S.D.A.A.A.D.D.A.Z.A.B.B.B.A.A.B.B.f.f.f.f.f.f.p.p.p.p.p.p.p.p.p.p.p.p.p.i.p.i.i.i.a.F.F.F.s.L.K.K.}.}.{.{.{.}.K.K.}.}.}.}.].{.{.{.[.[.{.[.[.{.@X@X#X#X@X@X@X@X@X@X%X%X%X%X X X XoX|.E.^.E.|._._._._._._._._.OXOXOXOXOXOXOXOXOXFXFXFXFXOXOX_._.OXOXOXOXOXOXOXOXOXOXOXOXOXn.n.n.b.b.c.u.u.5.5.3.>.,.,.;.;.;.;.:.>.>.3.q.t.w.q.q.q.q.7.7.<.7.6.6.6.6.:.P K H H H H K J J J J J J J J J F F F  .] / ! ! / / ! ! Q Q Q ! ! ! ! ! Q Q Q Q Q W W E E E E E E E E E E E E E E E T T Y Y Y T T T Y Y Y Y Y Y Y Y Y Y E Y T Y T T T T Y Y Y Y Y Y Y Y Y Y Y E E Y E E E Y Y E Y Y Y Y Y S Y E E E E E E E E S S S S Y Y Y S E S S S S S S S S S S S S m m m Z Z b v v v v v c l l l l l p p p p p p p i i i a a i i ",
"CXCXCXCXCXCXCXCXCXCXCXCXCXCXCXCXCXCXCXCXCXCXZXZXAXAXAXmXAXAXAXAXMXMXMXmXmXmXmXmXmXmXBXmXmXmXxXxXxXxXxXxXxXxXzXzXzXzXzXzXzXkXzXkXkXkXhXhXhXhXkXkXhXhXhXcXcXcXcXsXsXsXsXsXsXsXiXiXsXsXpXiXiXiXiXiXiXiXuXyXyXyXyXyXyXyX6X6X6X6X6X6X6X6X6X3XS.S.S.S.D.A.A.A.D.D.A.A.A.B.B.B.A.A.B.B.f.f.f.f.f.f.p.p.p.p.p.p.p.p.p.p.p.p.p.p.p.p.p.i.i.F.D.F.s.G.K.K.K.}.}.}.}.}.}.}.}.}.}.}.].{.{.{.[.[.{.{.[.{.@X@X#X#X#X@X@X@X@X@X%X%X%X%X X X X X|.|.|.^.|.|._._._._._._._._._._.FXOXOXOXOXOXOXOX_.OXOXOXOXOXOXOXOXOXOXOXOXOXOXn.n.n.n.n.n.n.b.c.c.u.r.5.5.3.>.:.:.:.:.:.:.>.3.3.7.q.w.r.q.q.q.q.7.<.<.<.6.6.2.2.L P K J J J J J J J J J J J J J J F F F ( / / ( / / / ! ! Q Q Q ! ! ! ! ! Q Q Q Q Q W W E E E E E E E E E E E E E E E T T Y Y Y T T T Y Y Y Y Y Y Y Y Y Y E Y Y Y T T T T Y Y Y Y Y Y Y Y Y Y Y Y Y Y E Y E Y Y E Y Y Y Y S S Y D D D D E E E E S S S S E D S S E S S S S S S S S S S S S m m m Z Z b v v v v v c l l l l l p p p p p p a i i i i i t t ",
"CXCXCXCXCXCXCXCXCXCXCXCXCXCXCXCXCXCXCXCXCXCXCXCXAXAXAXAXAXAXAXAXMXNXMXmXmXmXmXmXmXmXBXmXmXmXxXxXxXxXxXxXxXxXzXzXzXzXzXzXzXzXkXkXkXkXhXhXhXhXkXkXhXhXhXcXhXcXcXsXsXsXsXsXsXsXsXiXsXsXiXiXiXiXiXiXiXiXuXyXyXyXyXyXyXyX6X6X6X6X6X6X6X6X6X3XS.S.S.S.D.A.A.A.D.D.A.A.A.B.B.B.A.A.B.B.f.f.f.f.f.p.p.p.p.p.p.p.p.p.p.p.d.d.d.p.p.p.p.p.a.F.D.F.F.s.G.K.K.K.K.K.}.}.}.}.}.}.}.}.}.}.{.{.{.{.].{.{.{.{.@X@X@X#X#X@X@X@X@X@X#X$X$X$X$X X X X|.|.^.^.^.|.|._.|._._._._._._.OXOX_._._._._._.b._._._._._._._._._._._.n.n.n.n.n.b.b.b.b.b.c.c.u.u.u.q.q.5.3.>.:.:.>.>.>.7.7.q.q.w.r.w.q.w.q.q.<.<.>.>.:.2.2.:.P P K K H J J G J J J J J J I I F F F ~ ( ( / ! / / ^ ^ / Q Q Q ! ! ! ! ! Q Q Q Q Q W W E E E E E E E E E E E E E E E T T Y Y Y T T T Y Y Y Y Y Y Y Y Y Y E T T Y T T T T Y Y Y Y Y Y Y Y Y Y Y Y Y Y Y Y Y Y Y E Y Y Y Y Y Y Y S S S S S S S S S S S S S S S S E S S S S S S S S S S S S m m m Z Z b v b v v v c l l l l l p p p p p p a a i i u u u u ",
"CXCXCXCXCXCXCXCXCXCXCXCXCXCXCXCXCXCXCXCXCXCXZXCXCXAXAXAXAXAXAXAXmXNXMXmXmXmXmXmXmXmXBXmXmXmXxXxXxXxXxXxXxXxXzXzXzXzXzXzXzXzXzXzXkXkXhXhXhXhXhXhXhXhXhXcXcXcXcXsXsXsXsXsXsXsXsXsXsXpXiXiXiXiXiXiXiXiXuXyXyXyXyXyXyXyX6X6X6X6X6X6X6X6X6X3XS.S.S.S.D.D.A.D.D.A.A.A.A.B.B.B.A.A.B.B.f.f.f.f.f.p.p.p.p.p.p.p.p.p.p.p.d.d.p.p.p.p.p.p.i.a.D.L.F.9.F.K.K.K.K.K.K.}.}.@X}.}.}.].].}.{.{.}.}.].{.{.{.{.{.{..X#X#X@X@X@X@X#X#X$X$X$X$X$X$X X X|.^.^.^.|.|.|.|.|._._._._._._._._._._._._._.b.b.b._._._.b.b.b.b.b.b.b.b.b.b.v.b.b.b.c.v.c.c.u.u.u.r.q.q.3.>.>.>.>.>.7.7.q.q.w.w.w.q.q.w.q.7.<.<.:.:.:.:.:.:.P K K J J J J G J J J J J J J J F F ( ( ( ! / / / / ^ ^ / Q Q Q ! ! ! ! ! Q Q Q Q Q W W E E E E E E E E E E E E E E E T T Y Y Y T T T Y Y Y Y Y Y Y Y Y Y T T T Y T T T T Y Y Y Y Y Y Y Y Y Y Y Y Y Y Y Y Y Y Y E Y Y Y Y Y S Y S S S S S S S S S S S S S S S S E S S S S S S S S S S S S m m m Z Z b v b v v v v l l l l l p p p p p a a a i i t u u u ",
"CXCXCXCXCXCXCXCXCXCXCXCXCXCXCXCXCXCXCXCXCXCXCXCXCXAXAXAXAXAXAXAXmXmXmXmXmXmXmXmXmXmXmXmXmXmXmXxXxXxXxXxXBXxXzXzXzXzXzXzXzXkXkXkXkXkXkXhXhXhXhXhXhXhXhXhXcXcXcXsXsXsXsXsXsXsXsXsXsXsXiXiXiXiXiXiXiXiXyXyXyXyXyXyXyXyX6X6X6X6X6X6X6X6X3XS.S.S.S.S.D.D.D.D.A.A.A.A.A.B.B.B.A.A.B.B.f.f.f.f.p.p.p.p.p.p.p.p.p.p.p.p.p.p.p.p.%.%.#.i.a.a.F.L.F.9.9.L.K.K.K.K.K.}.}.}.}.}.}.}.].].].}.}.}.{.{.[.{.{.{.[.{.[.#X@X@X@X@X#X#X$X$X$X$X$X$X X/.^.Q.^.Q.T.T.|.T.T.T.T._._._._._._.T.v.v.v.v.v.v.v.v.v.v.v.v.v.v.v.v.v.v.v.v.c.v.v.x.c.c.c.u.u.u.r.r.q.3.3.>.>.3.7.7.7.q.q.q.w.w.w.q.q.w.q.<.<.>.:.:.:.:.:.:.P K J G J J J J J J J J J J J F F F  .( ( ~ ! / / ^ ^ ^ ! Q Q Q ! ! ! ! ! Q Q Q Q Q W W E E E E E E E E E E E E E E E T E Y Y Y E E Y Y Y Y Y Y Y Y Y Y Y T T T Y E E E T Y Y Y Y Y Y Y Y Y Y Y Y Y Y Y Y Y Y Y E Y Y Y Y Y Y Y S S S S S S S S Y Y S S S Y S S E S S S S S S S S S S S S m m m Z Z Z b b v v v c l l l l l p p p p p a a i i i i t t t ",
"CXCXCXCXCXCXCXCXCXCXCXCXCXCXCXCXCXCXCXCXCXCXCXCXCXAXAXAXAXAXAXAXmXmXmXmXmXmXmXmXmXmXxXBXmXmXmXxXxXxXxXxXBXxXzXzXzXzXzXzXzXkXkXkXzXkXkXhXhXhXhXhXhXhXhXhXcXcXcXsXsXsXsXsXsXsXsXsXsXsXiXiXiXiXiXiXiXiXyXyXyXyXyXyXyXyX6X6X6X6X6X6X6X6X3XS.S.S.S.S.D.D.D.D.A.A.Z.Z.A.B.B.B.A.A.B.B.f.f.f.f.p.p.p.p.p.p.p.p.p.p.p.p.p.p.%.%.%.%.#.i.p.a.F.L.L.s.s.G.K.K.K.K.K.K.K.K.}.}.}.}.].].].].].}.{.{.[.{.{.{.[.[. X X%X@X%X@X#X#X$X$X$X$X$X$X X XQ.Q.Q.Q.Q.T.T.T.T.T.T.R.T.R.T.v.v.l.u.u.u.r.q.q.q.q.q.r.u.u.r.r.u.r.r.r.u.u.y.x.x.y.y.c.y.u.u.r.r.q.3.3.3.>.7.7.7.7.q.q.q.q.w.w.w.w.q.w.q.<.<.:.:.:.:.:.:.L P K J G J J J J J J J J J J F F F ~ ( ( ! Q ! ^ ^ ^ ^ ^ ! Q Q Q ! ! ! ! ! Q Q Q Q Q W W E E E E E E E E E E E E E E E T E Y Y Y T E Y Y Y Y Y Y Y Y Y Y Y T T T Y Y T E T Y Y Y Y Y Y Y Y Y Y Y Y Y Y Y Y Y Y S E Y Y Y Y Y Y Y S S S S S S S S D D S S Y Y S S E S S S S S S S S S S S S m m m Z Z Z b b v v v c l l l l l p p p p p p a a i i i i t t ",
"CXCXCXCXCXCXCXCXCXCXCXCXCXCXCXCXCXCXCXCXCXZXCXCXCXAXAXAXAXAXAXAXVXVXmXmXmXmXmXmXmXmXBXBXmXmXBXxXxXxXxXBXBXxXzXzXzXzXzXzXzXkXkXkXzXzXkXhXhXhXhXhXhXhXhXcXcXcXcXsXsXsXsXsXsXsXsXsXsXsXiXiXiXiXiXiXiXiXyXyXyXyXyXyXyXyX6X6X6X6X6X6X6X6X3XS.S.S.S.S.D.S.S.D.A.B.B.A.A.B.B.B.A.A.B.B.f.f.f.f.p.p.p.p.p.p.p.p.p.p.p.p.p.p.p.p.p.p.p.i.p.a.j.L.K.G.G.G.L.L.K.K.K.K.K.K.}.}.}.}.}.}.].}.].].{.{.[.[.{.{.[.[. X.X%X@X@X@X$X$X$X$X$X$X$X$X X X X/.Q.|.'.|.T.T.T.T.T.R.R.v.l.l.y.r.r.q.5.3.3.3.3.3.3.q.q.q.3.3.3.3.3.3.q.q.u.y.u.u.u.y.u.u.r.r.q.3.3.3.3.7.7.7.7.q.q.q.q.q.w.w.w.w.q.q.7.<.>.:.:.:.:.:.L L K K J J J J J J J G J J F F F F ~ ( ( ( ! ! ! ^ ^ ^ ^ ^ ! Q Q Q ! ! ! ! ! Q Q Q Q Q W W E E E E E E E E E E E E E E E T E Y Y Y T T T Y Y Y Y Y Y Y Y Y Y T T T Y T T T T Y Y Y Y Y Y Y Y Y Y Y Y Y Y S Y S Y Y E Y Y Y Y Y Y E S S S S Y Y S S S S S S E Y Y S E S S S S S S S S S S Z S m m m Z Z Z b v v v v c l l l l l p p p p p p a a i i u u u u ",
"CXCXCXCXCXCXCXCXCXCXCXCXCXCXCXCXZXCXZXCXZXZXZXCXVXAXVXAXAXAXAXAXVXVXVXmXmXmXmXmXmXmXBXBXmXmXBXxXxXxXxXBXBXxXzXzXzXzXzXzXzXkXkXkXzXzXkXhXhXhXhXhXhXhXhXcXcXcXsXsXsXsXsXsXsXsXsXsXsXsXiXiXiXiXiXiXiXiXyXyXyXyXyXyXyXyX6X6X6X6X6X6X6X6X3XS.S.S.S.S.D.S.S.D.A.B.B.A.A.B.B.B.A.A.B.B.f.f.f.p.p.p.p.p.p.p.p.p.p.p.p.p.d.d.d.p.p.p.p.i.p.a.s.L.K.L.G.G.G.G.L.K.K.K.K.K.}.}.}.}.}.}.].}.].].{.{.].[.{.{.[.[.[.{.@X%X@X@X%X%X%X$X$X$X$X$X$X X X X X X X|.'.|.|.|.T.R.R.l.l.y.y.r.r.q.q.q.q.q.r.r.r.r.r.r.3.3.3.3.3.3.q.r.r.r.t.r.r.t.u.r.r.r.q.q.3.7.q.q.q.q.q.w.q.w.q.q.q.w.w.w.q.q.7.<.:.:.:.:.L L L P K H H J I I J G J J F F F F F F  .~ ( ! ! ! / ^ ^ ^ ^ ! ! Q Q Q ! ! ! ! ! Q Q Q Q Q W W E E E E E E E E E E E E E E E T T Y Y Y T T T Y Y Y Y Y Y Y Y Y Y T T T Y T T T T Y Y Y Y Y Y Y Y Y Y Y Y Y Y S S S Y Y E Y Y S Y S Y S S S S S Y Y S S S S S S Y Y S S E S S S S S S S S Z Z Z Z m m m Z Z Z v v v v v c l l l l l p p p p p p a a i i u u r r ",
"CXCXAXCXCXCXCXCXCXCXCXCXCXCXCXCXCXCXZXCXZXZXZXZXMXVXVXVXVXAXNXmXVXVXmXmXmXmXmXmXmXmXmXmXmXxXBXBXxXxXxXxXxXxXzXzXzXzXzXzXzXzXzXzXzXzXkXkXkXhXhXhXhXhXhXhXhXhXhXhXhXsXsXsXsXsXpXsXsXpXpXuXuXuXuXpXuXuXuXuXuXuXuXuXyXyXuXuXuX6X3X3XS.S.S.S.S.S.S.S.S.A.A.S.S.A.Z.A.Z.B.B.B.Z.B.B.p.f.f.d.d.d.p.p.p.p.d.d.p.i.#.i.p.p.p.p.p.p.p.p.p.p.a.F.L.K.J.H.G.t.N.G.L.L.K.K.}.K.].}.}.].].].].].].].[.[.{.{.{.[.[.[.[.@X@X%X%X%X%X%X$X$X$X$X$X$X$X$X X X X X X X X|.|.'.T.T.R.l.y.l.H.l.y.y.y.y.l.H.H.l.y.y.y.t.y.y.r.r.q.q.q.q.r.t.r.q.r.r.q.q.q.q.u.u.t.u.r.w.w.r.t.t.t.w.r.w.q.w.w.w.q.7.<.:.:.:.:.L L P P J J I K J J J I J J F F F F F ~ ) ) / ! / / ! ! ! ! ! ! ! ! ! ! ! ! / ! Q Q Q Q Q W W E E E E W E E E E E E E E E E E E E Y Y T Y T T T T Y Y Y Y Y Y Y Y Y Y Y T T T T T T T T Y Y Y Y Y Y Y Y Y Y Y Y Y Y Y Y S S S S D D D S E E E S S S S S D Y Y Y S S D Y E S S S Z Z Z S S Z Z Z Z Z Z b b b b b b b b b v c l l l l l l p p p p p i i i i i u r ",
"CXCXAXCXCXCXCXCXCXCXCXCXZXZXCXCXCXCXZXZXZXZXZXZXMXVXVXVXVXVXNXmXVXVXmXmXmXmXmXmXmXmXmXmXmXxXBXBXxXxXxXxXxXxXzXzXzXzXzXzXzXzXzXzXzXzXkXkXkXhXhXhXhXhXhXhXhXhXhXhXsXsXsXsXsXsXsXsXsXpXpXuXuXuXuXpXuXuXuXuXuXuXuXuXyXyXuXuXuX6X3X3X3XS.S.S.S.S.S.S.S.D.A.S.D.A.B.A.Z.B.B.B.Z.B.B.d.f.f.d.d.d.p.p.p.p.d.d.p.i.#.i.p.p.p.p.p.p.p.p.p.i.a.s.L.K.J.L.H.G.N.G.G.L.K.K.K.}.}.}.K.K.K.].{.].].].[.[.{..X{.[.[.[.{.@X@X%X%X%X%X%X%X%X%X$X$X$X$X%X X X X X X X X|.|.|.|.Q.T.T.).).).T.R.R.R.R.).W.W.).R.H.R.H.H.H.l.l.y.y.y.t.y.y.t.r.r.w.q.u.u.u.u.y.y.y.y.t.w.t.t.y.t.w.w.q.q.q.w.q.7.7.>.:.:.:.:.L L P K J J J I J J J J J F F F F F F ( ) ) ! ! ! / ! ! ! ! ! ! ! ! ! ! ! ! ! ! Q Q Q Q Q W W W E E W W E E E E E E E E E E E E E T Y T Y T T T T Y Y Y Y Y Y Y Y Y Y Y T T E Y T T T T Y Y Y Y Y Y Y Y Y Y Y Y Y Y Y Y S S S S D S S S E E E S S S S S S Y Y S S S D Y E S S S Z Z Z S Z Z Z Z Z Z Z b b b b b b b b b v c l l l l l p p p p p p i i i p i u r ",
"CXCXCXCXCXCXCXCXCXCXCXCXZXZXZXCXCXCXZXZXZXZXZXZXVXVXVXVXVXVXNXNXVXNXmXmXmXmXmXmXmXmXmXmXmXxXxXBXxXxXxXxXxXxXzXzXzXzXzXzXzXzXzXzXkXkXkXkXkXhXhXhXhXhXhXhXhXhXhXhXsXsXsXsXsXsXsXsXsXpXpXuXuXuXuXpXuXuXuXuXuXuXuXuXyXyXuXuXuXyX3X3X3XS.S.S.S.S.S.S.S.D.D.S.D.A.A.A.Z.B.B.Z.Z.Z.B.f.f.f.d.d.d.p.p.p.p.d.d.p.i.#.i.p.p.p.p.p.p.p.p.p.i.a.s.L.K.K.J.J.H.G.N.G.L.K.K.K.}.}.K.K.K.K.].{.}.}.].].[.{..X{.{.[.[.{.@X@X%X%X%X%X%X%X%X%X$X$X%X%X%X%X%X X.X X X X XoX.XoX|.|.'.'.'.|.'.T.T.T.`.`.`.`.`.`.`.).).).).).).T.T.T.v.R.R.y.y.y.y.w.y.y.y.y.y.y.y.y.y.y.y.e.y.y.w.w.q.q.q.q.q.7.>.:.:.:.:.:.L P K J J J J J G G J J J F C F ~ F F ( / ) ! ! ! / ! ! ! ! ! ! ! ! ! ! ! ! ! ! Q Q Q Q Q Q W E E E W W E E E E E E E E E E E E E T T T Y T T T T Y Y Y Y Y Y Y Y Y Y Y T T E E T T T T Y Y Y Y Y Y Y Y Y Y Y Y Y Y Y Y S S S S S S S S E E E S S S S S S S S S S S Y Y E S S S S S S S Z Z Z Z Z Z Z b b b b b b b b b v c l l l l l p p p p p a i i i p p t u ",
"CXCXCXCXCXCXCXCXCXCXCXCXZXZXCXCXCXCXZXZXZXZXZXZXVXVXVXVXVXVXVXNXMXNXmXmXmXmXmXmXmXmXmXmXmXxXxXxXxXxXxXxXxXxXzXzXzXzXzXzXzXzXzXzXkXkXkXkXkXhXhXhXhXhXhXhXhXhXhXhXsXsXsXsXsXsXsXsXsXpXpXuXuXuXuXpXuXuXuXuXuXuXuXuXyXyXuXuXuXyX3X3X3XS.S.S.S.S.S.S.D.D.D.D.D.A.A.A.Z.Z.B.Z.A.Z.B.f.f.f.d.d.d.p.p.p.p.d.d.p.i.#.i.p.i.i.i.i.i.i.i.i.i.a.s.L.K.K.K.K.H.H.G.G.H.L.K.K.K.K.K.K.K.K.].{.}.].].].[.{..X{.{.{.[.{.@X@X%X%X%X%X%X%X%X%X$X$X*X*X%X%X%X%X%X.XoX XoX.X.X.X.X X'.'.'.'.'.Q.T.T.'.Q.W.W.`.'.'.'.).|.|.|.|.).).|.T.T.T.R.R.R.P.y.R.R.x.y.y.y.y.y.y.y.y.y.y.y.w.w.q.q.q.q.7.7.>.:.:.:.:.L L P K J J J J J G G F F F x x F  .F ~ ( ) ) ! ! ! / ! ! ! ! ! ! ! ! ! ! ! ! ! ! Q Q Q Q Q Q W W W W W W E E E E E E E E E E E E E T T T Y T T T T Y Y Y Y Y Y Y Y Y Y Y Y Y Y Y Y Y Y Y Y Y Y Y Y Y Y Y Y Y Y Y Y Y Y Y S S S S S S S S E E E S S S S S S S S S S S Y Y D S S S S S S S Z Z Z Z Z Z Z b b b b b b b b b v c l l l l l p p p p a a i i i p a i t ",
"CXCXCXCXCXCXCXCXCXCXCXCXCXCXCXCXCXCXCXCXZXZXZXZXVXZXVXVXVXVXVXNXMXMXMXmXmXmXmXmXmXmXmXmXmXmXBXBXxXxXxXxXxXxXzXzXzXzXzXzXzXzXzXzXkXkXkXhXhXhXhXhXhXhXhXhXhXsXsXsXsXsXsXpXsXsXsXsXsXpXpXuXuXuXuXpXuXuXuXuXuXyXuXuXyXyXuXyXuXyX6X3X3X3XS.S.S.S.S.S.D.D.D.D.A.A.A.A.Z.Z.Z.Z.Z.Z.B.f.f.f.d.d.d.p.p.p.p.d.d.p.i.#.i.p.i.i.i.i.i.i.i.i.a.a.s.L.K.K.K.K.J.H.L.G.G.G.J.K.L.L.K.K.K.K.`.].}.}.].].[.{.{.{.{.{.{.{.@X@X%X%X%X%X%X%X%X%X$X$X*X*X*X*X%X%X%X%X%X.X.X.X.X.XoX|.'.'.'.'.'.'.`.Q.|.Q.T.T.'.|.|.'.T.T.'.|.).T.).^.Q.T.T.T.T.Y.R.R.R.R.R.P.P.P.M.y.M.y.y.y.y.y.w.w.q.w.q.q.7.<.>.:.:.:.L L L P K K J J J J J F C C M z z F  .( ( ) ) ! ! ! ! ! ! ! ! ! ! ! ! ! ! ! ! ! ! ! Q W Q Q Q Q W W W W W W E E E E E E E E E E E E E T T T Y Y E E T Y Y Y Y Y Y Y Y Y Y Y Y Y Y Y Y Y Y Y Y Y Y Y Y Y Y Y Y Y Y Y Y Y Y Y Y Y S S S S S S E E D S S S S S S S S S S S S Y E S S S Z Z S S Z Z Z Z Z Z Z b b b b b b b b b v l l l l l l p p p p a a a i i p a i i ",
"CXCXCXCXCXCXCXCXCXCXCXCXCXCXCXCXCXCXCXCXZXZXZXZXZXZXZXZXVXVXVXVXMXMXMXmXmXmXmXmXmXmXmXmXmXmXBXxXxXxXxXxXxXxXzXzXzXzXzXzXzXzXzXzXkXkXkXhXhXhXhXhXhXhXhXhXhXsXsXsXsXsXsXpXsXsXsXsXsXpXpXuXuXuXuXpXuXuXuXuXuXyXuXuXyXyXuXyXuXyX6X6X6X3X3XS.S.D.S.D.A.D.D.A.A.A.A.B.Z.Z.Z.Z.A.Z.B.f.f.f.d.d.d.p.p.p.p.d.d.p.i.#.i.i.%.%.%.%.i.i.i.i.i.a.s.L.K.K.`.K.K.K.K.H.G.G.H.J.G.L.J.K.K.K.`.`.].].].].{.{.{.{.@X{.{.[.{.@X%X%X%X%X%X%X%X%X$X$X*X*X*X*X%X%X%X%X&X%X.X.X.X X X[.Q. X X'.'.'.'.Q.Q.Q.Q.Q.Q.'.|.|.T.T.^.^.^.T.^.|.Q.Y.T.Q.^.!.Y.Y.Y.R.R.R.P.P.P.M.M.y.y.y.y.y.w.w.w.w.q.7.7.6.:.:.L L L P L P K K I J J J J F M x z z Z ~ ( ( ( ) / ! ! ! ! ! ! ! ! ! ! ! ! ! ! ! Q ! ! ! Q W W Q Q Q Q W W W W W W W W W W W W W E E E E E T T T Y Y E E T Y Y Y Y Y Y Y Y Y Y Y Y Y Y Y Y Y Y Y Y Y Y Y Y Y Y Y Y Y Y Y Y Y Y Y Y Y S S D S S S D D S S S S S S S S S S S S S S E S S S Z Z S S Z Z Z Z Z Z Z b Z Z Z Z Z Z Z Z v l l l l l l p p p p a a a i i a a i i ",
"CXCXCXCXCXCXCXCXCXCXCXCXCXCXCXCXCXCXCXCXZXZXZXZXZXZXVXVXVXVXVXVXMXMXMXmXmXmXmXmXmXmXmXmXmXmXxXxXxXxXxXxXxXxXzXzXzXzXzXzXzXzXzXzXkXkXkXhXhXhXhXhXhXhXhXhXhXhXsXsXsXsXsXsXsXsXsXsXsXpXpXuXuXuXuXpXuXuXuXuXuXyXyXyXyXyXuXyXuXyX6X6X6X6X3XS.S.S.D.D.A.D.D.A.A.D.A.B.Z.Z.Z.Z.A.Z.B.f.f.f.d.d.d.p.p.p.p.d.d.p.i.#.i.i.i.i.%.i.i.i.%.i.i.a.s.L.K.}.`.`.`.`.K.K.H.G.G.G.G.G.L.K.K.K.`.].].].].[.{.{.{.{.@X@X[.{.[.@X%X%X%X%X%X%X%X%X$X$X%X%X%X%X%X%X%X%X&X%X.X.X.X.X.X X'. X X X X X XQ.Q.Q.Q.Q.Q.Q.^.|.Q.^.|.|.|.|.|.|.^.Y.Y.^.^.~.!.^.^.Y.Y.Y.Y.Y.R.P.M.M.y.y.e.y.w.w.w.w.q.7.7.<.:.:.:.L L P L P I J J J J F C C x z z M F ~ ( ( / ! / ! ! ! ! ! ! ! ! ! ! ! ! ! ! ! Q ! ! Q Q W W Q ! Q Q W W W W Q W W W W W W W W E E E E E T T T Y T T T T Y Y Y Y Y Y Y Y Y Y Y Y Y Y Y Y Y Y Y Y Y Y Y Y Y Y Y Y Y Y Y Y Y Y Y S S S S D D D S Y S S S S S S S Y Y S Y S S S S E S S S Z Z Z S D Z Z Z Z Z Z b Z Z Z Z Z Z Z Z v c l l l l l p p p p a p i i i i i i i ",
"CXCXCXCXCXCXCXCXCXCXCXCXCXCXCXCXCXCXCXCXZXZXZXZXVXZXVXVXVXVXVXVXNXNXMXmXmXmXmXmXmXmXmXmXmXmXxXxXxXxXxXxXxXzXzXzXzXzXzXzXzXzXzXzXkXkXkXhXkXhXhXhXhXhXhXhXhXhXhXcXsXsXsXsXsXsXsXsXsXpXpXuXuXuXuXpXuXuXuXuXuXyXyXyXyXyXuXyXyX6X6X6X6X6X3XS.S.S.D.D.A.S.S.A.A.D.A.B.A.Z.Z.Z.A.Z.B.f.f.f.d.d.d.p.p.p.p.d.d.p.i.#.i.i.i.i.i.i.i.i.i.i.#.a.s.L.K.}.`.`.].].K.K.H.H.G.G.G.G.H.L.L.K.].{.}.].].[.[.{.{.{.@X@X[.[.[.@X$X$X%X%X%X%X%X%X$X$X%X%X%X%X%X%X%X%X&X%X.X.X.X%X.X.X X*X&X%X%X&X*X X XoX X X X|. XoX^.^.|.oX|.|.oX(.(.^.^.^.(.^.^.^.^.~.Y.Y.Y.Y.Y.P.M.M.M.y.y.y.w.w.w.q.7.7.7.<.:.:.:.L L L P P K J J J F C C M x z z F ( ~ ~ / / W / ! ! ! ! ! ! ! ! ! ! ! ! ! ! ! Q ! ! Q Q W W Q ! Q Q W W W W Q W W W W W W W W E E E E E T T T Y T T T T Y Y Y Y Y Y Y Y Y Y Y Y Y Y Y Y Y Y Y Y Y Y Y Y Y Y Y Y Y Y Y Y Y Y Y S S S S D D S S E S S S S S S S D E E Y S S S S E S S S Z Z Z S Z Z Z Z Z Z Z b Z Z Z Z Z Z Z Z v c l l l l l p p p p p p i i i t i i a ",
"CXCXCXCXCXCXCXCXCXCXCXCXZXZXZXZXCXZXZXZXZXZXZXZXVXZXVXVXVXVXVXMXmXmXmXmXmXmXmXmXmXmXmXmXmXxXxXxXxXxXxXzXzXzXzXzXzXzXkXkXkXkXkXzXkXkXkXkXkXhXhXhXhXhXhXhXhXhXhXhXsXsXsXpXsXpXpXpXsXsXpXpXpXpXuXuXpXuXuXuXuXuXuXuXyXyXyXuXyX6X3X3XyX6X6XS.D.D.A.D.A.A.D.D.D.A.A.Z.B.B.B.Z.Z.Z.B.f.d.d.d.d.d.p.d.d.p.d.f.d.p.#.i.i.d.d.p.i.#.i.p.p.i.a.s.L.K.}.`.`.`.`.].K.K.J.H.G.G.G.G.G.H.L.K.K.`.`.].].].].[.@X@X@X@X@X@X@X%X%X%X%X%X%X%X%X$X$X X$X%X%X%X%X%X%X%X%X%X%X%X%X%X&X%X&X&X&X&X&X&XHXoX|.XXXX^.|.XX X^.^.|.(.(.^.^.~.^.^.^.^.^.^.^.^.^.~.~.Y.Y.Y.Y.P.M.M.M.y.y.w.w.w.q.8.7.7.6.2.2.6.2.L P P P I I I J F C F F x z b Z F ~ ~ W Q / _ ! ! ! ! ! ! ! ! ! ! ! ! ! ! ! ! Q Q Q Q Q Q Q Q ! Q Q Q Q W E E W W W W W W W W E E E T T Y E E T T T Y Y Y Y Y Y Y Y Y Y Y Y Y Y Y Y Y Y Y Y Y Y Y Y Y Y Y Y Y Y Y Y Y Y Y Y Y S S D D S S S S S S S S Y Y S S S S S S S S S S S S S S S S S S Z Z Z Z Z Z Z Z Z Z Z b b b b b v c l l p p p p p p p p a a i i t t t t ",
"CXCXCXCXCXCXCXCXCXCXCXCXZXZXZXZXZXZXZXCXZXZXZXZXVXZXVXVXVXVXVXMXmXmXmXmXmXmXmXmXmXmXmXmXmXmXxXxXxXxXzXzXzXzXzXzXzXzXkXkXkXkXkXzXkXkXkXkXkXhXhXhXhXhXhXhXhXhXhXhXsXsXsXpXsXpXpXpXsXpXpXpXpXpXuXuXpXuXuXuXuXuXuXuXyXyXuXuXyX6X3X3X6X6XS.S.S.S.S.S.A.A.D.D.S.A.Z.B.B.B.B.B.Z.Z.B.f.d.d.d.d.d.p.d.d.d.d.d.d.p.#.i.i.d.d.p.i.i.i.p.p.i.a.a.L.K.}.`.`.`.`.].K.K.K.H.H.H.G.G.N.N.H.J.K.K.`.`.`.`.].].#X@X@X@X@X@X@X%X%X%X%X%X%X%X%X$X$X X$X%X%X%X%X%X&X&X%X%X%X%X&X&XGX&X&X&X&X&X&X&X&XXXoXXXXX^.|.XXoX|.|.^.^.^.^.^.^.^.^.^.^.^.^.^.^.~.~.!.Y.Y.Y.P.P.M.M.M.y.y.w.w.q.q.8.7.7.6.6.:.:.L P P L P I J J J F F C x z z b ~ ~ / / Q Q ! ) ! ! ! ! ! ! ! ! ! ! ! ! ! ! ! ! Q Q Q Q Q Q Q Q ! ! Q Q W W E E W W W W W W W W E E E T T T E E T T T Y Y Y Y Y Y Y Y Y Y Y Y Y Y Y Y Y Y Y Y Y Y Y Y Y Y Y Y Y Y Y Y Y Y Y Y Y S S S D S S S S S S S S Y Y D S S S S S S S S S S S S S S S S S Z Z Z Z Z Z Z Z Z Z Z b b b b b v c l l l p p p p p p a a a i i t t t t ",
"CXCXCXCXCXCXCXCXCXCXCXCXZXZXZXZXCXCXCXCXZXZXZXZXVXZXVXVXVXVXVXNXVXVXmXmXmXmXmXmXmXmXmXmXmXmXBXBXzXxXzXzXzXzXzXzXzXzXkXkXkXkXkXkXkXkXkXkXkXhXhXhXhXhXhXhXhXhXhXhXsXsXsXsXsXpXpXpXsXsXpXpXpXpXuXuXpXuXuXuXuXuXuXuXyXyXyXuXyX6X6X3X3XS.S.S.S.S.S.S.A.D.D.D.D.A.Z.B.B.B.B.B.Z.Z.B.f.d.d.d.d.d.p.d.d.d.d.d.d.i.i.i.i.d.p.i.i.i.i.i.p.i.a.s.G.J.`.`.`.W.`.].].].W.H.H.H.H.G.t.t.N.L.K.H.K.K.K.K.`.].[.[.[.[.@X@X@X%X%X%X%X%X%X%X%X$X$X$X%X&X&X&X*X&X&X&X&XHXGXGXJXJXJXHXHX&X&X&X&X&X&X&X XXXXX^.|.XXoXoX(.(.^.^.^.^.^.^.^.^.^.^.^.^.^.~.~.!.Y.Y.Y.P.P.M.M.y.y.y.w.w.q.q.8.8.7.6.2.:.L K P P L I J G J J F C x z z z Z ( ( / / ! ! / ) ! ! ! ! ! ! ! ! ! ! ! ! ! ! ! ! Q Q Q Q Q Q Q Q Q Q Q Q W W E E W W W W W W W W E E E T T T E E T T E Y Y Y Y Y Y Y Y Y Y Y Y Y Y Y Y Y Y Y Y Y Y Y Y Y Y Y Y Y S Y S S Y S Y Y S S D D S S S S S S S S S S S S S S S S S S S S S S S S S Z S S Z Z Z Z Z Z Z Z Z Z Z b b b b b v l l l l l p p p p p p a a i i u u t t ",
"CXCXCXCXCXCXCXCXZXCXCXCXZXZXZXZXCXCXCXCXZXZXZXZXVXZXVXVXVXVXVXNXVXVXVXmXmXmXmXmXmXmXmXmXmXmXBXBXzXzXzXzXzXzXzXzXzXzXkXkXkXkXkXkXkXkXkXkXkXhXhXhXkXkXhXhXhXhXhXhXsXsXsXsXsXpXpXpXsXsXpXpXpXpXuXuXuXuXuXuXuXuXuXuXyXyXyXuXyX6X6X3X3XS.S.S.S.S.S.S.A.D.D.D.D.A.Z.B.Z.B.B.B.B.B.B.f.p.d.d.d.d.p.d.d.d.d.d.p.i.i.i.i.p.p.i.i.i.i.i.i.i.a.s.G.J.`.`.`.].W.].].].W.W.`.H.L.G.t.9.t.G.H.H.H.K.K.K.`.].].].[.[.[.@X@X%X%X%X%X%X%X%X%X$X$X%X*X&X&X&X&X&X&XHXHXHXGXJXJXHXHXHXHXHX&X&X&X&X&X&X XXXoX|.oXXXXXXXoX(.(.^.^.^.^.^.^.^.^.~.~.~.~.~.~.!.!.Y.Y.P.P.M.M.y.y.y.w.w.q.q.8.8.8.7.6.:.L K K P I J G x F F F Z z k z b W ~ ! / / ! Q ^ ) ! ! ! ! ! ! ! ! ! ! ! ! ! ! ! ! Q Q Q Q Q Q Q Q Q Q Q W W W E W E E E E E E E E E E E T T T T E T T E Y Y Y Y Y Y Y Y Y Y Y Y Y Y Y Y Y Y Y Y Y Y Y Y Y Y Y Y Y S S S Y Y Y Y Y S S S S S S S S S S S S S S S S S S S S S S S S S S S S S Z S S Z Z Z Z Z Z Z Z Z Z Z b b b b b v l l l l l p p p p p p p i i i u u u t ",
"CXCXCXCXCXCXCXCXZXZXCXCXZXZXZXZXCXCXZXZXZXZXZXZXVXZXVXVXVXVXVXNXVXVXmXmXmXmXmXmXmXmXmXmXmXxXBXBXxXxXxXzXzXzXzXzXzXzXkXkXkXkXkXzXkXkXkXhXhXhXhXhXkXkXkXhXhXhXhXhXsXsXsXsXsXpXpXpXsXpXpXpXpXpXuXuXuXuXuXuXuXuXuXuXyXyXyXuXyX6X6X3X3X3X3XS.S.S.D.D.A.A.D.D.A.A.B.B.Z.B.B.B.B.B.f.f.d.p.d.d.d.d.d.d.d.d.p.p.i.i.i.#.p.p.i.i.i.#.#.i.i.a.s.F.J.`.`.`.].W.].].].].].].K.K.J.G.t.t.N.N.G.H.H.K.K.K.`.].].[.[.[.{.@X%X%X%X%X%X%X%X%X$X$X*X*X&XHX&X&X&XHXHX&XJXJXJXJXJXHXJXHXHX&XGX&XHX&X&XoX.XXXoXXXHXXXoXXXoXoX(.(.^.^.^.^.^.^.~.~.~.~.~.~.~.~.!.Y.Y.P.P.M.y.y.y.y.r.q.8.8.7.7.7.6.2.:.K K I I G x M F C C b z k l D ( ! / / / ^ ^ ^ ^ ! ! ! ! ! ! ! ! ! ! ! ! ! ! ! ! Q Q Q Q Q Q Q Q Q W W W W W W W E E E E E E E E E E E T T T T E T T T Y Y Y Y Y Y Y Y Y Y Y Y Y Y Y Y Y Y Y Y Y Y Y Y Y Y Y Y Y Y Y Y Y Y Y Y Y S S S S S S S S S S S S S S S S S S S S S S S S S S S S S S S S Z Z Z Z Z Z Z Z Z Z Z b b b b b v l l p l l p p p p p p p i i i u u u i ",
"CXCXCXCXCXCXCXCXZXZXCXCXZXZXZXZXCXCXZXZXZXZXZXZXVXZXVXVXVXVXVXAXVXVXmXmXmXmXmXmXmXmXmXmXmXxXBXBXxXxXxXzXzXzXzXzXzXzXkXkXkXkXkXzXkXkXkXhXhXhXhXhXkXkXkXkXhXhXhXhXsXsXsXsXsXpXpXpXsXsXpXpXpXpXuXuXuXuXuXuXuXuXuXuXyXyXyXuXyX6X6X3X6X6X6X3XS.D.D.A.A.A.A.A.A.A.A.A.Z.Z.B.B.B.B.f.d.d.p.d.d.d.d.d.d.d.d.p.i.i.i.i.#.i.i.i.i.i.#.#.i.i.a.s.G.J.`.`.`.].].].].[.[.[.[.].K.K.J.G.N.t.t.N.G.H.K.K.K.K.`.].].[.[.{.@X%X%X%X%X%X%X%X%X$X$X*X*X&X&X&X&X&XHX&X&XJXGXJXJXJXJXJXHXGXGX%X%XHXHX&X XXXXXoXXXUXXXoX(.XXXXXX(.^.^.^.^.^.~.~.~.~.~.~.~.!.!.!.Y.P.P.P.y.y.y.y.t.r.q.7.7.6.6.7.6.2.2.P K J J G x M F x x z z l b ~ ] ) ) ) ) ^ ^ ^ Q ! ! ! ! ! ! ! ! ! ! ! ! ! ! ! ! Q Q Q Q Q Q Q Q W W W W W W W W E E E E E E E E E E E T T Y T E T T T Y Y Y Y Y Y Y Y Y Y Y Y Y Y Y Y Y Y Y Y Y Y Y Y Y Y Y Y Y Y Y Y Y Y Y Y Y S S S S Z Z Z S S S S S S S S S S S S S S S S S S S S S S S S S Z Z Z Z Z Z Z Z Z Z Z b b b b b v l l p l l p p p p p p p i i i u u u i ",
"CXCXCXCXCXCXCXCXZXZXCXCXZXZXZXZXCXZXZXZXZXZXZXZXVXZXVXVXVXVXVXAXVXmXmXmXmXmXmXmXmXmXmXmXmXxXxXxXxXxXxXzXzXzXzXzXzXzXkXkXkXkXkXzXkXkXkXhXhXhXhXhXkXkXkXkXkXhXhXhXsXsXsXsXsXpXpXpXpXpXpXpXpXpXuXuXuXuXuXuXuXuXuXuXyXyXyXuXyX6X6X3X3X6X3X3XS.D.D.A.A.A.A.A.A.A.A.A.Z.Z.B.B.B.B.f.d.d.d.d.d.d.p.d.d.f.d.i.#.#.i.i.#.i.i.i.i.i.i.#.i.a.i.s.z.J.K.`.`.].].].].].].[.[.}.}.}.K.L.G.N.t.9.N.G.L.L.K.K.K.].].[.[.[.@X@X%X%X%X%X%X%X%X$X$X*X*X&X&X&X&XHXHXHXHXJXJXJXJXJXJXJXLXGXGXGXGXHXHXHX.XXXHXXXHXHXoXoXoXXXXXoX(.oX(.^.^.^.^.~.~.Y.Y.Y.Y.Y.Y.Y.Y.P.P.M.y.y.y.y.r.q.7.6.6.6.6.7.6.:.L P J G G G M x M z z z z l S ~ / ) ) ) ) ^ ^ ^ Q ! ! ! ! ! ! ! ! ! ! ! ! ! ! ! ! Q Q Q Q Q Q Q Q W W W W W W W W E E E E E E E E W E E T Y Y T E T T T Y Y Y Y Y Y Y Y Y Y Y Y Y Y Y Y Y Y Y Y Y Y Y Y Y Y Y Y Y Y Y Y Y Y Y Y Y S S S S Z Z Z Z S S S S S S S S S S S S S Y S S S S S S S S S S Z Z Z Z Z Z Z Z Z Z Z b b b b b v v l l p p p p p p p p a i i i u u u i ",
"CXCXCXCXCXCXCXCXZXZXCXCXZXZXZXZXCXZXZXZXZXZXZXZXVXZXVXVXVXVXVXAXMXNXmXmXmXmXmXmXmXmXmXmXmXxXxXxXxXxXxXzXzXzXzXzXzXzXkXkXkXkXkXzXkXkXkXhXhXhXhXhXkXkXkXkXkXhXhXhXsXsXsXsXsXpXpXpXpXpXpXpXpXpXuXuXuXuXuXuXuXuXuXuXyXyXyXuXyXyX6X3X3X3X3X3XS.S.D.D.B.B.A.A.A.A.A.A.Z.Z.B.d.d.B.f.d.d.p.d.d.d.d.d.d.B.d.#.#.#.i.i.#.i.i.i.i.i.i.#.i.a.i.s.k.J.`.`.W.].].].].].].[.[.].{.].].K.H.G.N.9.t.G.H.L.L.L.L.].].].[.[.{.@X@X%X%X%X%X%X%X%X%X*X&X&X&X&X&X&XHXHXHXHXHXJXJXJXJXJXHXGXGXGXGXHXHXHXXXXXHXHXHXHXoXXXoXoXoX(.(.oXoX^.^.^.~.~.~.Y.Y.Y.Y.Y.Y.Y.Y.P.y.M.y.y.t.t.w.q.7.:.:.6.6.0.6.L J I J G J G M x x z z z z l D ! / ! Q Q ! ^ ^ ^ ! ! ! ! ! ! ! ! ! ! ! ! ! ! ! ! ! Q Q Q Q Q W Q W W W W W W W W W E T E T E T E T W W E T T T T E T T T Y Y Y Y Y Y Y Y Y Y Y Y Y Y Y Y Y Y Y Y Y Y Y Y Y Y Y Y Y Y Y Y Y Y Y Y Y S S S S S Z S S S S S S S S S S S S S S S Y S S S S S S S S S S Z Z Z Z Z Z Z Z Z Z Z b b b b b v v l l l p p p p p p a a i i i u u u i ",
"CXCXCXCXCXCXCXCXCXCXCXCXZXZXZXZXZXVXZXZXZXZXVXVXVXVXVXMXMXMXMXMXmXmXmXmXVXmXmXmXmXmXmXmXmXxXxXxXxXxXxXzXzXzXzXzXzXzXzXkXzXkXkXkXkXhXhXhXhXhXhXhXhXhXhXhXhXcXcXcXsXsXsXsXsXsXpXpXpXpXpXiXuXiXiXpXpXuXyXyXuXuXuXuXyXyXyXyXyX6X3X6X3X3X3X3XS.S.S.S.A.A.A.A.A.A.B.B.B.B.B.f.f.f.f.f.f.p.p.p.p.p.p.p.d.p.p.i.i.i.i.i.i.i.i.i.#.i.i.d.i.j.s.G.K.W.R.W.`.W.].[.[.[.[.[.[.[.[.].].`.H.N.t.t.N.G.L.K.L.L.K.K.].{.@X@X#X#X@X%X%X%X%X%X&X&X%X%X&X&XHXHXHXHXHXHXHXHXHXJXJXJXHXHXHXHXHXHXHXHX.X.XXXXXHXHXHXUX&XXXXXoXoXoXoX|.|.|.|.^.^.^.Y.Y.P.Y.Y.R.R.R.R.M.y.y.t.w.t.t.w.7.:.6.6.6.L L P J J J C x x x x x z z z z v D ! / ) ) ) ` ` ! ! ! ! ! ! ! ! ! ! ! / ! Q Q ! ! ! Q Q Q W T W T W Q W T W W W Q Q Q Y Y Y Y Y T R R T T T T T T T T Y Y Y Y Y Y Y Y Y Y Y Y Y Y Y Y Y Y Y Y Y Y Y Y Y Y Y Y Y Y Y Y Y Y Y Y Y Y Y Y Y S S m m S S S S S S S S S S S m Z S S S S m m S S S S Z Z Z S Z Z Z Z Z Z Z Z Z Z Z b b b b b v l p p p l p p p p p i a i t t p a i u ",
"CXCXCXCXCXCXCXCXCXCXCXCXZXZXZXZXZXVXVXZXZXZXZXVXVXVXVXMXMXMXMXNXmXmXMXmXVXmXmXmXmXmXmXmXBXxXxXxXxXxXxXzXzXzXzXzXzXzXzXkXkXkXkXkXkXhXhXhXhXhXhXhXhXhXhXhXhXcXcXcXsXsXsXsXsXsXpXpXpXpXpXiXuXuXuXpXpXuXuXuXuXuXuXuXyXyXyXyXyX6X6X6X3X3X3XS.S.S.S.S.A.A.A.A.A.A.B.B.B.B.B.f.f.f.f.f.f.p.p.p.p.p.p.p.d.p.i.i.i.i.i.i.i.i.i.i.#.i.i.i.i.a.a.k.J.W.W.`.`.].].[.[.[.[.[.[.[.[.'.'.].H.H.G.t.9.9.G.L.L.G.G.L.K.K.].#X#X#X@X#X%X%X%X%X&X&X%X%X%X&XHXHXHXHXHXHXHXHXHXJXJXJXJXHXHXHXHXHXHXHXXXXXXXHXHXHXHXJXHX&X&XXXXXoXoXoX|.|.|.|.^.|.Y.Y.R.Y.R.P.R.R.P.y.t.t.w.w.q.8.7.6.6.7.6.2.L P I J J J C x x x z z z z z z b W / ) ) ) ` ` ` ! ! ! ! ! ! ! ! ! ! ! / ! Q Q ! ! ! Q Q Q W T T T T Q R R T W Q Q Q Q T T Y Y T T R R T T T T R R T T Y Y Y Y Y Y Y Y Y Y Y Y Y Y Y Y Y Y Y Y Y Y Y Y Y Y Y Y Y Y Y Y Y Y Y Y Y Y S S Y S S S m S S Y S S S S S S S S m m S S S S m m S S S S Z Z Z Z Z Z Z Z Z Z Z Z Z Z Z b b b b b v l p p p l p p p p p a a i t t a a t u ",
"CXCXCXCXCXCXCXCXCXCXCXCXZXZXZXZXZXVXZXZXZXZXVXVXVXVXVXMXMXMXNXNXmXmXmXmXMXmXmXmXmXmXmXmXBXBXxXxXxXxXxXzXzXzXzXzXzXzXzXkXzXkXkXkXkXhXhXhXhXhXhXhXhXhXhXhXhXcXcXcXsXsXsXsXsXsXpXpXpXpXpXiXiXuXiXpXpXuXuXuXuXuXuXuXyXyXyXyXyX6X6X6X3X3XS.S.S.S.A.A.A.A.A.A.A.B.B.B.B.B.B.f.f.f.f.f.p.p.p.p.p.p.p.i.p.p.i.i.i.i.i.i.i.i.i.i.i.i.i.i.i.a.a.G.H.H.W.W.`.].].[.[.[.[.$X X#X[.[.[.[.].K.L.G.9.0.9.k.G.G.G.G.L.K.].].@X#X@X@X%X%X*X&X&X&X%X%X%X%X%X&XGXGX&XGXGXHXHXHXHXJXJXUXJXHXHXHXJXJXHXHXHXHXHXHXHXHXHXHX&X&XXXoXoX|.oXoX|.|.|.^.T.Y.R.R.P.P.P.R.M.y.t.t.w.q.7.7.6.<.7.6.6.' P J J G C C C x x k k k x x z z M ~ / ) ) ) ) ` ` ` ! ! ! ! ! ! ! ! ! ! / ! Q Q ! ! ! Q Q Q W T T T R Q R R T W R Q Q Q T T T T T T R R R R T R R R R R Y Y Y Y Y Y Y Y Y Y Y Y Y Y Y Y Y Y Y Y Y Y Y Y Y Y Y Y Y Y Y Y S S S S Y S S S Y S S S m S S Y S S S S S S S S m m S S S S S m S S S S Z Z Z Z Z Z Z Z Z Z Z Z Z Z Z b b b b b v l p p p l p p p p p a a i i t i i t u ",
"CXCXCXCXCXCXCXCXCXCXCXCXZXZXZXZXZXVXZXZXZXZXVXVXVXVXVXMXMXMXNXNXmXmXMXMXMXmXmXmXmXmXmXBXBXxXxXxXxXxXxXzXzXzXzXzXzXzXzXzXzXkXkXkXkXhXhXhXhXhXhXhXhXhXhXhXhXcXcXcXhXsXsXsXsXsXpXpXpXpXiXiXiXiXiXpXpXuXuXuXuXuXuXuXyXyXyXyXyX6X6X6X3X3XS.S.S.S.S.A.A.A.A.A.A.B.B.f.B.B.B.f.f.f.f.f.p.p.p.p.d.p.p.i.i.i.i.i.i.i.i.i.i.i.i.i.i.i.i.i.d.a.a.G.H.H.W.W.'.].].[.[.[.[.$X$X$X#X[.[.#X{.].K.L.t.9.0.9.s.G.L.L.L.K.K.].].#X@X@X%X%X%X&X*X&X.X%X%X%X%X%X%X%X%X%X&XGXHXHXHXJXUXUXJXJXJXJXUXUXJXJXJXJXJXJXHXHXUXUXHX&X&X.XoX|.oXoX|.|.|.^.T.Y.Y.P.P.y.P.P.y.t.w.t.w.7.7.<.6.6.6.6.2.L I G G C x x x x k j k z M x z z S ~ / ) ) / ` ! ! ` ! ! ! ! ! ! ! ! ! ! / ! Q Q ! ! ! Q Q Q W T T T T W R R T W R Q Q Q T T T T T T R R T T T T T T T T Y Y Y Y Y Y Y Y Y Y Y Y Y Y Y Y Y Y Y Y Y Y Y Y Y Y Y Y Y Y Y Y S S S Y Y Y S S Y S S S m S S Y S S S S S S S S S S S S S S S S S S S S Z Z Z m Z Z Z Z Z Z Z Z Z Z Z b b b b b v l p p p l p p p p p a a a i i t t u u ",
"CXCXCXZXZXZXZXZXZXZXZXZXZXZXZXZXZXZXZXZXZXZXZXZXVXVXVXMXMXMXNXNXmXmXmXVXmXmXmXmXmXmXmXxXBXxXxXxXxXxXzXzXzXzXzXzXzXzXzXkXkXkXkXkXkXhXhXhXhXhXhXhXhXhXhXhXhXhXhXhXhXsXsXsXpXpXpXsXpXpXiXiXiXuXiXpXpXuXuXuXuXuXuXuXyXyXyXyXyX6X6X3X3X3X3X3XS.S.S.S.A.A.A.A.A.B.B.f.B.B.B.f.f.f.f.f.p.p.p.p.p.p.i.i.i.i.i.i.i.i.i.i.i.i.#.i.p.p.i.#.@.| 0.L.H.H.W.W.`.].].{.[.[.$X$X$X$X#X[.[.[.{.].K.K.L.t.0.0.9.G.G.G.L.L.K.K.`.].#X#X#X#X$X$X$X*X X.X.X%X%X%X%X%X%X&X&XGXHXHXJXJXUXUXJXJXJXJXJXJXJXJXJXJXJXJXJXJXUXUXHXHX&X.XoXoXoXoX X|.|.^.T.Y.R.R.y.y.M.M.y.w.q.7.7.6.>.>.<.2.2.2.L K J G x M x x z k h k z x x z z z S ! / / ) / ` ! ! ! ! ! ! ! ! ! ! ! ! ! / ! Q Q ! ! ! Q Q Q R T T T R W T T T R R Q Q Q T T T T T T T R T T T T T T T T Y Y Y Y Y Y Y Y Y Y Y Y Y Y Y Y Y Y Y Y Y Y Y Y Y Y Y Y Y Y Y Y Y Y Y Y Y Y Y Y Y S S m m S S Y S S S S S S S S S S S S S S S S S S S S Z m m b Z Z Z Z Z Z Z Z Z Z Z b Z b b b v l p p p p p p p p p p p i i i t t u u ",
"CXCXCXZXZXZXZXZXZXZXZXZXZXZXZXZXZXZXZXZXZXZXZXZXVXVXVXMXMXMXNXNXmXmXmXVXNXmXmXmXmXmXmXxXBXxXxXxXzXzXzXzXzXzXzXzXzXzXzXkXkXkXkXkXkXhXhXhXhXhXhXhXhXhXhXhXhXhXhXhXhXsXsXsXpXpXsXsXpXpXiXiXiXiXiXpXpXuXuXuXuXuXuXuXyXyXyXyXyX6X6X3X3X3X3X3X3XS.S.S.A.A.A.A.A.B.B.B.B.B.B.f.f.f.f.f.p.p.p.p.p.p.p.i.i.i.i.i.i.i.i.i.i.#.#.i.i.i.o.| b z ' G.H.H.W.`.'.].].{.[.[.%X$X$X%X%X[.[.[.{.].].}.}.L.9.0.0.9.9.s.k.G.G.L.K.].{.#X#X#X#X$X$X$X.X.X.X%X%X%X%X%X%X&X&XHXHXJXJXJXJXJXJXJXJXJXJXJXJXJXJXJXJXJXJXJXUXUXHXHX&XXXoXoX|.|.|.|.^.^.Y.Y.R.R.y.y.y.y.t.w.7.7.6.:.:.:.:.:.P P I J G x x M z k h h k x M M x z z z S ! / ! / / ` ! ! ` ! ! ! ! ! ! ! ! ! ! / ! Q Q ! ! ! Q Q Q R T T T R Q T T T R R Q Q Q R T T T T T T T T T T T Y Y T T Y Y Y Y Y Y Y Y Y Y Y Y Y Y Y Y Y Y Y Y Y Y Y Y Y Y Y Y Y Y Y Y Y Y Y Y S Y Y Y Y Y S m S S S Y S S S S S S S S S S S S S S S S S S S S m m m m Z Z Z Z Z Z Z Z Z Z Z b Z b b b v l p p p p p p p p p p p i i i i i t t ",
"CXCXCXZXZXZXCXCXCXCXZXCXZXZXZXZXVXZXZXZXZXZXZXZXVXVXVXMXMXMXMXMXmXmXmXVXNXmXmXmXmXmXmXxXBXxXxXxXxXxXzXzXzXzXzXzXzXzXzXkXkXkXkXkXkXhXhXhXhXhXhXhXhXhXhXhXhXcXhXcXhXhXsXpXpXpXpXsXpXpXiXiXiXuXiXpXpXuXuXuXuXuXuXuXyXyXyXyXyXyX6X6X3X3X3X3XS.S.S.S.A.A.A.A.A.A.B.B.B.B.B.f.f.f.f.f.p.p.i.i.p.p.p.i.d.d.i.i.i.i.i.i.i.#.i.i.i.o.~ l 0 0 ' G.H.H.W.W.'.'.[.{.{.#X%X$X#X%X%X#X[.#X@X].{.@X@XK.G.9.0.0.8.8.9.9.k.H.H.`.[.[.[.[.#X#X#X$X@X@X%X%X%X%X%XGXGXGXGXJXJXJXKXKXJXJXJXHXHXHXHXJXJXJXJXJXJXJXJXJXHXHXHXHX&X%X XoX|.|.^.^.Q.T.Y.R.R.P.M.y.y.t.t.w.6.<.:.:.:.:.:.L I J J J M x x x z k h k x M M M x z z v F ( ) ! / ^ ` ! ! ` ! ! ! ! ! ! ! ! ! ! / ! Q Q ! ! ! Q Q Q W T T R R Q T T T R Q Q Q Q R T T Y T T T T T T T T Y Y Y T Y Y Y Y Y Y Y Y Y Y Y Y Y Y Y Y Y Y Y Y Y Y Y Y Y Y Y Y Y Y Y Y Y Y Y S S S Y Y Y S S m S Y Y Y S S S S S S S S S S m m S S S S S S S S m m b b Z Z Z Z Z Z Z Z Z Z Z b b b b b v l p p p l p p p p p p a p a a a a i t ",
"CXCXCXZXZXZXCXCXCXCXCXCXZXZXZXZXVXZXZXZXZXZXZXZXVXVXVXMXMXMXMXMXmXmXmXVXNXNXNXmXmXmXmXxXBXxXxXxXxXxXzXzXzXzXzXzXzXzXzXkXkXkXkXkXkXhXhXhXhXhXhXhXhXhXhXhXhXcXcXcXhXhXsXpXpXpXsXsXpXpXiXiXuXuXiXpXpXuXuXuXuXuXuXuXyXyXyXyXyXyX6X6X3X3X3XS.S.S.A.A.A.A.A.A.A.A.B.B.B.B.B.f.f.f.f.f.d.p.i.i.i.p.p.i.d.d.p.i.i.i.i.i.i.#.i.p.i.[ l 5 0 0 ' L.H.N.W.R.'.].[.{.@X#X%X%X[.%X%X%X@X%X@X@X@X@X@X}.L.t.7.6.0.0.0.9.t.G.H.J.].].[.[.#X#X#X#X@X@X%X%X%X%XGXGXGXGXGXJXJXKXKXKXJXJXHXHXHXHXHXHXHXHXHXJXJXJXJXJX&XHXHXHX&X.X XoXQ.|.^.Q.Q.!.Y.Y.M.M.y.t.w.t.t.q.6.6.:.:.2.6.2.L J J G J M x z x z k k x M J F M M x z v F ( / ! ^ ^ ! ! ! ` ` ! ! ! ! ! ! ! ! ! ) ! ! ! ! ! ! Q Q Q W T T T R Q T T T R R Q Q Q R R T Y T T T T T T T T Y Y Y Y Y Y Y Y Y Y Y Y Y Y Y Y Y Y Y Y Y Y Y Y Y Y Y Y Y Y Y Y Y Y Y Y Y Y Y S S S Y Y Y S S m S Y Y Y S S S S S S S S m m m m S S S S S S S m m m b v Z Z Z Z Z Z Z Z Z Z Z b b b b b v l p p p l p p p p p p p a a a a a i t ",
"AXAXAXZXZXZXZXZXZXZXZXZXZXZXZXZXVXVXZXZXZXZXZXVXVXVXVXMXMXNXMXMXmXmXmXmXmXmXmXmXmXmXmXBXBXxXxXxXxXxXzXzXzXzXzXzXzXzXzXzXzXzXzXzXkXhXhXhXhXhXhXhXhXhXhXhXhXcXcXcXsXsXsXpXpXsXsXsXpXpXpXpXpXpXpXpXuXuXuXuXuXuXuXyXyXyXyXyXyX6X6X6X3X3X3X3XS.S.S.A.A.A.Z.B.B.B.B.B.B.f.p.f.B.B.B.f.p.p.p.p.d.f.f.p.i.i.i.i.i.i.i.i.#.o.i.f.[ l t 0 0 0 0.G.G.H.M.[.W.].[.@X@X%X%X%X%X%X%X@X@X@X@X@X@X@X{.{.].H.t.8.2.2.0.8.0.7.t.K.K.].].].].[.[.].@X{.{.{.{.%X%X%X{.{.%XGXJXJXJXJXJXJXHXHXGXHXHXHXJXJXJXJXJXHXHXHXHXHXHX&X%X.X.X X'.'.Q.Q.Q.Q.Y.M.H.M.M.y.t.7.7.8.6.6.2.L L L P J B B M M x k k k k z x M M M M M x z z b ~ ~ / / ! ! ! ! ! ) ) ) ! ! ! ! ! ! Q Q ! ! ! Q Q Q Q Q Q Q Q W W T T T T T T T T T W Q R R R T T T R R T T T T T Y Y Y Y Y Y Y Y Y Y Y Y Y Y Y Y Y Y Y Y Y Y Y Y Y Y Y Y Y Y Y Y Y Y Y Y Y Y Y Y Y Y Y S S S S S S S S S S S S S S S S S S S S S S S S S S S S Z m m m Z Z Z Z Z Z Z Z Z Z Z b b b v v l l p p i p p l p p p p p i i i i i i t ",
"AXAXAXZXZXZXZXZXZXZXZXZXZXZXZXZXVXVXZXZXZXZXVXVXVXVXVXMXMXNXMXNXmXmXmXmXmXmXmXmXmXmXmXBXxXxXxXxXxXxXzXzXzXzXzXzXzXzXzXzXzXzXzXzXkXhXhXhXhXhXhXhXhXhXhXhXhXcXcXcXsXsXsXsXsXsXsXsXpXpXpXpXpXpXpXpXuXuXuXuXuXuXuXyXyXyXyXyXyX6X6X6X3X3X3X3XS.S.S.A.A.A.Z.B.B.B.B.B.B.f.p.f.B.B.B.f.f.p.p.p.p.p.p.p.i.i.i.i.i.i.i.i.i.#.i.o.D t r t 0 z s.L.H.W.M.W.W.W.].@X@X%X%X%X%X%X%X%X@X@X@X@XGX@X{.@X{.].H.G.9.0.6.0.9.9.9.t.J.`.].`.`.].#X#X{.{.{.{.{.{.%X%X{.{.%XGXJXJXJXJXHXHXHXHXGXGXHXHXJXJXHXHXHXHXHXHXHX&X&X&X%X.X X X'.'.Q.!.!.T.R.M.M.N.t.t.w.7.7.7.6.2.:.P L L I G M M x x j h h h z z x M F F M M x z z Z ~ ~ ! / ! ! ! ! ! ` ` ) ! ! ! ! ! ! Q Q ! ! Q Q Q Q Q Q Q Q Q W W T T T T T T T T T W W R R R T T T T T T T T T T T T Y Y Y Y Y Y Y Y Y Y Y Y Y Y Y Y Y Y Y Y Y Y Y Y Y Y Y Y Y Y Y Y Y Y Y Y Y Y Y Y Y S S S Y S S S S S S S S S S S S S S S S S S S S S S S Z Z m m m Z Z Z Z Z Z Z Z Z Z Z b b b v v l l p p i p p p p p p p a i i i i i i t ",
"AXAXAXAXZXZXZXZXZXZXZXZXZXZXZXZXVXZXZXZXZXZXVXVXVXVXVXMXMXNXNXNXmXmXmXmXmXmXmXmXmXmXmXxXxXxXxXxXxXxXxXzXzXzXzXzXzXzXzXzXzXzXzXzXkXhXhXhXhXhXhXhXhXhXhXhXhXcXcXcXsXsXsXsXsXsXpXpXpXpXpXpXpXpXpXpXuXuXuXuXuXuXuXyXyXyXyXyXyX6X6X6X3X3X3X3XS.S.S.A.A.A.A.B.B.B.B.B.B.f.f.f.B.B.f.f.f.p.p.p.p.p.i.i.i.i.i.i.i.i.i.i.#.d.@.~ p 0 r l 0 M j.G.G.W.M.W.W.W.].[.[.$X%X%X%X%X%X%X@X@X@X@XGX%X@X@X@X@X{.}.H.9.6.6.0.8.0.7.H.K.K.K.K.K.].#X].{.{.{.{.{.{.@X{.{.@XGXLXLXLXJXHXHXGXGXGXGXGXGXHXHXGXGXGXGXGXGXHX&X%X%X%X.X X X[.[.Q.!.R.R.M.y.y.t.t.t.8.7.6.6.2.2.L P I I J x x x x h h h h h z x M F F M M M x z z S ~ ~ ! ! ^ ! ` ` ! ` ` ` ! ! ! ! ! ! Q Q ! Q Q Q Q Q Q Q Q Q Q W W T R T T T T T T T T T R R R T T T T T T T T T T T T T Y Y Y Y Y Y Y Y Y Y Y Y Y Y Y Y Y Y Y Y Y Y Y Y Y Y Y Y Y Y Y Y Y Y Y Y Y S S S S S Y Y S S S S S S S S S S S S S S S S S S S S S S S Z Z m m m Z Z Z Z Z Z Z Z Z Z Z b b b v v l l l p i p p p p p p p a i i i i i i t ",
"AXAXAXZXZXZXZXZXZXZXZXZXZXZXZXZXVXVXZXZXZXZXZXVXVXVXVXMXMXNXNXNXmXmXmXmXmXmXmXmXmXmXmXxXxXxXxXxXxXxXxXzXzXzXzXzXzXzXzXzXzXzXzXzXkXhXhXhXhXhXhXhXhXhXhXhXhXcXcXcXsXsXsXsXsXsXpXpXpXpXpXiXiXpXiXiXuXuXuXuXuXuXuXyXyXyXyXyXyX6X3X6X3X3X3X3XS.S.S.A.A.A.A.A.B.B.B.B.B.f.f.f.f.B.f.f.p.p.p.i.i.i.i.i.i.i.#.i.i.i.i.i.o.p.X.l r r r p r b 0.G.N.H.H.`.W.W.].[.[.#X%X%X%X%X%X%X%X%X%X@XGXGX@X@X@X@X{.{.`.H.t.0.6.6.6.7.G.H.J.H.H.K.`.].].].`.].].{.{.{.{.{.@XGXGXGXGXGXGXGXGX%X%X%XGXGXGXGXGXGXGXGXGXGX%X%X%X%X.X X[.[.[.[.Q.R.R.R.M.y.t.t.t.t.9.7.6.6.2.L P I I J G x x x k h h h k z x x M F F M M x x z z F ( ~ ! ! ^ ! ` ! ! ` ! ! ! ! ! ! ! ! Q Q Q Q Q Q Q Q Q W Q Q Q Q W T R R T T T T T T T T W R R R T T T T T T T T T T T T Y Y Y Y Y Y Y Y Y Y Y Y Y Y Y Y Y Y Y Y Y Y Y Y Y Y Y Y Y Y Y Y S S S S S S S S S S Y Y Y S S S S S S S S S S S S S S S S S S S S S S Z Z m m m Z Z Z Z Z Z Z Z Z Z Z b b b v v v l l p p p p p p p p p a i i i i i i t ",
"AXAXAXAXAXZXZXZXVXZXZXZXZXZXZXVXVXZXZXZXZXZXZXVXVXVXVXMXMXMXNXNXmXmXmXmXmXmXmXxXmXmXmXxXBXxXxXxXxXxXxXzXzXzXzXzXzXzXzXzXzXzXzXzXkXhXhXhXhXhXhXhXhXhXhXhXhXhXcXcXsXsXsXsXsXpXpXpXpXpXiXiXpXiXiXiXuXuXuXuXuXuXuXyXyXyXyXyXyX6X6X6X3X3X3X3XS.S.S.A.A.A.A.A.B.B.B.B.B.f.f.f.f.f.f.d.p.i.i.i.i.i.i.i.#.#.#.#.#.i.i.i.#.i.( r 0 t t t t k ' G.G.M.M.W.W.W.].].[.#X%X%X%X@X@X@X%X%X%X%X%X@X@X@X%X%X{.{.{.].K.G.8.6.6.6.0.9.G.G.L.K.K.].].`.`.`.`.}.}.{.{.{.@X@X@X@X@X{.%X%X%XGX%X%X%X%XGXGXGXGXGXGXGXGX%X%X%X.X[.[.[.[.[.[.!.R.R.R.M.y.t.t.t.t.9.7.6.6.2.' P I J G x x z k j h h k x C x M C C F M x x x z b F ( ~ ! ! ! ! ` ! ! ! ! ! ! ! Q Q ! ! Q Q Q Q Q Q Q Q Q W Q Q Q R T T R R T T T T T T T T R R R R T T T T R T T T T T T T Y Y Y Y Y Y Y Y Y Y Y Y Y Y Y Y Y Y Y Y Y Y Y Y Y Y Y Y Y Y Y Y S Y Y S Y S S S S S S Y Y Y Y S S S S S S S S S S S S S S S S S S S S S Z m m m Z Z Z Z Z Z Z Z Z Z Z b b b b b v l l p p p p p p p p a a a i i i i i t ",
"AXAXAXAXAXZXZXZXVXZXZXZXZXZXZXVXVXZXZXZXZXZXZXVXVXVXVXMXMXMXNXNXmXmXmXmXmXmXmXxXmXmXmXxXBXxXxXxXxXxXxXzXzXzXzXzXzXzXzXzXzXzXzXzXkXhXhXhXhXhXhXhXhXhXhXhXhXhXcXcXsXsXsXsXsXsXpXpXiXiXiXiXiXiXiXuXuXiXuXuXiXuXuXyXyXyXyXyXyX6X6X6X3X3X3X3XS.S.S.A.A.A.A.A.B.B.B.f.f.f.f.f.f.f.d.d.p.i.i.i.i.i.i.i.i.i.i.i.i.i.i.i.d.o.Z 9 9 t t t t t J k.H.M.M.H.W.W.].].[.#X%X%X%X@X@X@X%X%X%X%X@X@X%X%X%X%X%X@X[.].].K.H.8.6.P :.0.8.t.G.J.K.].].`.`.`.`.].{.{.{.{.{.{.{.{.{.{.{..X%X%X%X%X%X.XGXGXGXGX%X%X%X%X%X%X.X[.[.].[.'.Q.Q.!.H.H.H.M.y.N.t.t.t.8.6.:.L ' P I J G x z z h h h h h z x F x C C C C M x x z z M F ( ( ! ! ! ! ` ! ! ! ! ! ! ! Q Q ! ! Q Q Q Q Q Q Q Q Q W Q Q Q R T T R R T T T T T T T R W R R R T T T T T T T Y T Y Y Y Y Y Y Y Y Y Y Y Y Y Y Y Y Y Y Y Y Y Y Y Y Y Y Y Y Y Y Y Y Y Y Y m S m m S m m m S S Y Y S S Y Y S S S S S S S S S S S S S S S S S S S S Z m m m Z Z Z Z Z Z Z Z Z Z Z b b b v v v v l p p p p p p p p a p a i i i i i t ",
"AXAXAXAXAXZXZXZXVXVXZXZXZXZXZXVXVXVXZXZXZXZXZXVXVXVXVXMXMXNXNXNXmXmXmXmXmXmXmXxXmXmXmXBXBXxXxXxXxXxXzXzXzXzXzXzXzXzXzXzXzXzXzXzXkXhXhXhXhXhXhXhXhXhXhXhXhXcXcXcXsXsXsXsXsXsXsXsXiXiXiXiXiXiXuXuXuXuXuXuXiXuXuXuXyXyXyXyXyX6X6X6X3X3X3X3XS.S.D.A.A.A.A.A.B.B.f.f.f.f.f.f.f.p.p.p.p.p.i.i.i.i.i.#.i.i.#.#.#.@.@.@.#.~ t 9 9 0 t t t 0 x 0.G.H.H.M.W.W.`.].[.%X%X%X%X@X@X%X%X%X%X%X%X%X&X%X%X%X%X@X].].`.].K.H.9.6.2.6.0.0.t.L.K.K.].`.`.`.`.`.}.{.{.{.{.{.{.{.{.{.{.{..X%X%X%X.X.X%X%X%X.X.X.X.X.X%X{.{.[.].'.'.Q.Q.W.R.M.M.M.M.y.t.9.8.7.7.:.L P K J G G x z h h h h j k z z x C C C F C C C x x z z M ~ ( ( ! ! ! ! ! ! ! ! Q ! ! ! Q Q ! ! Q Q Q Q Q Q Q Q W W Q Q Q R T T T T T T T T T T W W W R R T T T T T T T Y Y Y Y Y Y Y Y Y Y Y Y Y Y Y Y Y Y Y Y Y Y Y Y Y Y Y Y Y Y Y Y Y Y Y Y Y Y S S S S S S m m S S Y Y S S S S S S S S S S S S S S S S S S S S S S S S Z m m m Z Z Z Z Z Z Z Z Z Z Z b b b v b b v l p p p p p p p p a p i i i i i i t ",
"AXAXAXAXAXZXZXZXVXZXZXZXZXZXVXVXVXZXZXZXZXVXVXVXVXVXVXMXMXMXMXMXmXmXmXmXmXmXmXxXmXmXmXBXBXxXxXxXxXxXxXzXzXzXzXzXzXzXzXzXzXzXzXzXkXhXhXhXhXhXhXhXhXhXhXhXhXcXcXcXsXsXsXsXsXsXsXsXpXiXiXiXiXuXuXuXuXuXuXuXiXuXuXuXyXyXyXyXyX6X6X6X3X3X3X3XS.S.D.A.S.A.A.A.B.B.f.f.f.f.f.f.f.d.p.p.f.p.p.i.i.i.#.#.@.@.o.X.X.| | [ | t 5 0 9 9 r 0 r 0 h I 9.H.'.H.W.W.`.].[.%X%X$X%X@X@X%X%X%X%XGXGXGX%X%X[.[.#X@X#X#X].].{.].L.G.6.6.6.6.9.G.L.H.}.}.`.`.`.`.}.{.}.}.}.{.{.{.DXGX{.{..X.X%X.X.X.X.X.X{.{.{.[.[.[.{.{.[.[.].'.Q.Q.Q.!.H.M.M.M.M.t.w.0.7.6.6.L K J G N x x x j h h h k z x x x x C C C F J J F M M z z F ~ ( ( ! / ! ! ! Q ! ! Q Q ! ! Q Q ! ! Q Q Q Q Q Q Q W W W Q Q Q Q T T T T T T T T T T W Q W R R T T T Y Y Y Y Y Y Y Y Y Y Y Y Y Y Y Y Y Y Y Y Y Y Y Y Y Y Y Y Y Y Y Y Y Y Y Y Y Y Y Y Y Y S S S S S S m m S S S S S S S S S S S S S S S S S S S S S S S S S S S S Z m m m Z Z Z Z Z Z Z Z Z Z Z b b b b b v v l p p p p p p p p p p i i i i i i t ",
"AXAXAXZXZXZXZXAXZXZXZXZXZXZXZXZXZXZXZXVXVXVXVXVXVXZXZXZXVXVXMXMXmXVXVXVXmXmXmXmXmXmXmXxXxXxXxXxXBXxXzXzXzXzXzXzXzXzXzXkXzXkXkXkXkXkXkXkXkXhXhXhXhXkXkXkXhXsXsXhXiXsXhXhXhXiXsXiXsXsXpXiXiXuXuXuXuXuXuXuXuXyXyXyXyXyXyXyX6X3X3XS.3X3X3X3X3XS.S.A.A.A.A.A.B.B.f.f.B.B.B.B.d.p.d.d.p.p.d.#.o.( W ~ ! Q E S n v c c u y e 8 8 8 e e t t 0 k ' G.K.H.`.W.!.Q. X*X&X*X%X%X%X%X%X%XGXGXGXGX%X%X%X%X#X#X#X#X[.[.].].].`.t.7.:.:.6.9.G.G.L.K.K.K.K.`.}.}.{.}.`.}.{.DX{.{.{.{.{.{.{.{.{.{.{.[.[.[.[.[.'.'.[.[.'.'.'.`.'.'.W.W.H.H.M.t.t.N.8.0.0.6.L P K J G C x j h h j k k k z x x x x x C C C F F M M x k v F ~ ! / ! ! ! ! ` ! ! ! Q Q / ! ! ! ! ! ! Q ! ! Q Q Q Q Q Q Q Q Q Q Q R T T T T T T T R R R W W R R R R T T Y Y Y Y Y Y T T Y Y Y Y Y Y Y Y Y Y Y Y Y Y Y Y Y Y Y Y Y Y Y Y S S Y Y Y S S S S S Y Y Y Y S S S Y Y Y S S S S S S S D S S S S S S S S S Z m n m m m m m m m m m m m b m b b b Z Z Z b b b b b v v l p p p p l p p p p p a a i a i i i ",
"AXAXAXZXZXZXZXAXAXZXZXZXZXZXZXZXZXZXZXVXZXVXVXVXVXZXZXZXVXVXMXMXmXVXVXVXmXmXmXmXmXmXmXxXxXxXxXxXxXxXzXzXzXzXzXzXzXzXzXkXzXkXkXkXkXkXkXkXkXhXhXhXhXhXkXkXhXsXsXhXiXcXcXcXhXiXiXiXsXsXpXiXiXuXuXuXuXuXuXuXyXyXyXyXyXyXyXyX6X3X3XS.3X3X3X3X3XS.S.A.A.A.A.A.B.B.f.f.B.B.B.B.B.d.d.d.C.i.o.( b r 0 r e w 8 5 4 4 4 4 r e w 5 8 8 w e r 8 0 0 F 0.G.H.`.W.[. X/.Q./.*X*X$X%X%X%X%XGXGXGXGXGX%X%X%X#X#X$X$X#X[.[.[.W.].K.N.8.<.:.7.9.t.G.L.L.H.H.K.K.K.`.`.`.}.}.{.{.{.{.{.{.{.{.{.{.].'.'.'.'.`.W.W.W.'.'.].W.W.W.W.W.W.W.W.H.M.t.t.9.0.0.6.L P J G G G x j j h h h j z z x x x x x x G G F F F M M x t v D ~ ~ ! ! ! ! ! ` ! ! ! Q Q ! ! ! ! ! ! ! ! ! ! Q Q Q Q Q Q Q Q Q Q R R T T T T T T T T R R W W R R R R T T T Y Y Y Y Y T T T T T Y Y Y Y Y Y Y Y Y Y Y Y Y Y Y Y Y Y Y Y Y S S Y Y Y Y S S S S Y Y S S S S S Y S Y Y Y S S S S S D S S S S S S S S S Z m n m m m m m m m m m m m m m m m b m Z Z b b b b b b v l p p p p l p p p p p a a i t t r r ",
"AXAXAXZXZXZXAXAXVXZXZXZXZXZXZXZXZXZXZXZXZXVXVXVXVXZXZXZXVXVXMXNXmXNXMXMXmXmXmXmXmXmXmXxXBXxXxXxXxXxXzXzXzXzXzXzXzXzXzXkXzXkXkXkXkXkXkXkXkXhXhXhXhXhXkXhXhXhXhXcXiXcXcXcXsXiXiXiXsXsXpXiXiXuXuXuXuXuXuXuXyXyXyXyXyXyXyXyX6X6X3XS.3X3X3XS.S.S.S.A.A.A.A.A.B.B.f.f.d.B.B.B.d.d.d.d.f.o.D t 9 2 3 3 3 3 3 3 3 3 5 5 4 4 5 5 5 w w e r 0 9 0 j J 9.J.K.W.!. X/.Q./.&X*X*X*X*X%XGXGXJXGXGXGX%X%X@X@X%X$X$X#X#X[.[.[.].@X`.H.9.6.6.0.9.9.k.G.G.G.L.L.L.J.K.}.}.}.}.}.}.`.`.`.`.`.`.`.W.Q.W.Q.W.W.W.W.W.].].`.`.W.H.H.H.H.H.H.M.N.N.w.7.6.6.L P J G x x x j j h h j z z z z x x x C G G G G G J J F M x t b ~ ( ~ Q / / ! ! ! ! ! Q Q Q ! ! ! ! ! ! ! ! ! ! Q Q Q Q Q Q Q Q Q Q Q T T T T T T T R R R R W W R R R R T T T T T Y Y Y T T T T T T T Y Y Y Y Y Y Y Y Y Y Y Y Y Y Y Y Y Y Y Y Y Y Y Y Y S S S S S S S S S S S S S S Y Y Y Y S S D D S S S S S S S S S Z n n m m m m m m m m m m m m m m m b m b Z b b b b b v v l p p p p p p p p p p a i i r r r r ",
"AXAXAXZXZXZXZXAXVXZXZXZXZXZXZXZXZXZXZXZXZXVXVXVXVXZXZXZXZXVXMXNXmXMXNXNXNXmXmXmXmXmXmXxXBXxXxXxXxXxXzXzXzXzXzXzXzXzXzXkXzXkXkXkXkXkXkXkXkXhXhXhXhXhXhXhXhXhXcXcXiXcXcXcXsXiXiXiXsXsXpXiXiXuXuXuXyXuXyXyXyXyXyXyXyXyXyXyXyX6X3XS.3X3XS.S.S.S.A.A.A.A.A.A.B.B.B.f.f.B.B.d.p.p.p.#.X.W r 3 3 5 5 9 3 3 2 2 2 2 2 3 3 3 3 5 5 8 8 8 e w 8 0 0 j P 9.K.W.W.!.Q.*X&X*X*X*X*X*X&X&XJXJXGXGXGX%X%X%X%X@X%X$X$X#X#X#X#X#X].].].H.N.9.7.7.0.9.9.G.G.G.G.G.H.L.J.K.K.K.K.K.).).W.W.H.H.H.H.R.H.H.R.R.W.!.W.H.J.J.H.H.H.N.t.t.N.N.t.t.N.9.<.L L P J G G x x j j h h k z x x z z x x C C G G G G G J J F x z t Z  .) ~ Q ! ) ! ! ! ! ! Q Q Q Q Q Q ! ! ! ! ! ! Q Q Q Q Q Q Q Q Q Q Q Q T T T T T T T T T T T R R R R R R R R T T T Y Y Y Y T T T Y Y Y Y Y Y Y Y Y Y Y Y Y Y Y S S S Y Y Y Y Y Y Y Y Y Y Y S S S S S S S S S m m m m S S S S S S S S S S S S S S S S S Z Z Z m m m m m m m m m m m m m m m b m b Z b b b b b v v l p p p p p p p p p p a i t i t t r ",
"AXAXAXZXZXZXZXAXZXZXZXZXZXZXZXZXZXZXZXZXZXVXVXVXVXZXZXZXZXVXMXNXmXmXVXVXVXmXmXmXmXmXmXBXBXxXxXxXxXxXzXzXzXzXzXzXzXzXzXkXkXkXkXkXhXkXkXkXkXkXhXhXkXkXhXhXhXhXsXcXcXcXcXcXsXiXiXiXpXpXpXiXpXiXuXuXyXyXuXuXyXyXyXyXyXyXyX6X6X3X3XS.3X3XS.S.S.S.A.A.A.A.A.A.B.B.B.f.d.B.d.p.d.d.p.@.D a 5 2 3 3 2 2 2 ; - - - - - - 3 3 4 4 4 8 8 5 5 5 8 0 0 q j J G.`.{.`.Q.$X*X^.*X*X%X*X&X&XJXJXGXGXGX%X%X%X%X@X%X%X%X$X@X#X@X#X`.].].].`.H.t.9.0.6.0.9.9.9.k.G.G.G.G.G.L.K.J.H.H.H.H.H.H.M.M.M.t.t.t.M.N.M.H.H.G.G.G.G.N.t.8.0.0.8.8.7.8.9.7.:.I I J G G x x j j j k z x x M x z x x x C C G G G G J J J F x z k Z ( ) ~ Q ! / ! ! ` ! ! Q Q Q Q Q Q Q ! ! ! ! ! Q Q Q Q Q Q Q Q Q Q W T R T T T T T T T T T T R R R R R R R R R R T T Y Y Y T Y Y Y Y Y Y Y Y Y Y Y Y Y Y Y Y Y Y Y Y Y Y S Y Y Y Y Y Y Y Y Y Y Y S S S S Y Y m m S S S S S S S S S S S S S S S S S S S S Z Z m m m m m m m m m m m m m m m b m Z Z b b b b b v v l l p p p p p p p p a i i t i i t u ",
"AXAXAXZXZXZXZXAXZXZXZXZXZXZXZXZXZXZXZXZXZXVXVXVXVXVXZXZXZXVXMXNXmXmXVXVXmXmXmXmXmXmXmXBXBXxXxXxXBXxXzXzXzXzXzXzXzXzXzXkXkXkXkXkXhXkXkXkXkXkXhXhXkXkXhXhXhXhXhXhXcXcXcXcXhXiXiXiXpXpXpXiXpXiXuXuXyXyXyXyXyXyXyXyXyXyXyX6X6X3X3XS.3XS.S.S.S.A.A.A.A.A.A.A.B.B.B.B.d.d.p.p.B.B.#.X.u 8 2 3 8 3 2 & 3 3 3 3 3 3 3 4 3 3 3 4 4 4 4 4 4 5 w t 0 q q j K 9.].[.'.$X$X/.*X*X*X*X*X&X&XJXGXGXGXGXGX@XGX%X%X*X%X%X@X@X@X@X{.[.].].{.].H.G.9.0.6.6.6.0.9.9.t.9.9.t.G.H.G.t.G.H.H.N.t.t.t.t.t.t.w.w.t.t.N.H.G.G.G.G.t.9.9.0.0.0.6.6.6.6.:.K K J G x x j j h x x x M M x x z x x x x C G G J G G J J J M x z k M ( ( ~ Q ! ! ! ! ` ! ! Q Q Q Q Q Q Q ! ! ! ! Q Q Q Q W W Q W W Q Q W R T T T T T T T T T T T R R R R R R R R R R T T Y Y Y T Y Y Y Y Y Y A A Y Y Y Y Y Y Y Y m m m m Y Y m m Y Y Y Y Y Y Y Y Y Y S S S S S Y m m m m m m m m S S S S S S Z Z S S S S S S S S m m m m m m m m m m m m m m m b m Z Z b b b b b v v l l p p p p p p p p a i t t u u r r ",
"AXAXAXZXZXZXZXAXZXZXZXZXZXZXZXZXZXZXZXZXZXVXVXVXVXZXZXZXZXVXMXNXmXMXMXVXmXmXmXmXmXmXmXBXmXxXxXxXBXxXzXzXzXzXzXzXzXzXzXkXkXkXkXkXhXkXkXkXkXkXhXhXzXkXhXhXhXhXhXhXcXcXhXcXcXiXiXiXsXsXpXpXpXiXuXuXyXyXyXyXyXyXyX6XyXyXyX6X6X3X3XD.3X3XS.S.A.A.A.A.A.A.A.A.B.B.B.B.d.d.d.d.B.p.| v 8 3 3 8 8 8 3 3 ; ; - - - - ; ; 3 3 3 3 4 4 4 7 7 w w r r 0 0 h h G 0.H.[.[.$X*X*X*X*X$X*X&X%X%XGXGXGXGXGXGXGXGX%X%X%X%X%X@X@X@X%X@X].].].].`.K.L.N.9.0.6.6.6.0.0.6.6.0.9.t.9.9.r.t.t.9.7.7.7.7.7.7.6.7.6.7.8.8.9.9.9.9.9.8.0.0.6.2.L L L L K J G G C x j j j j C F C C C x z z x x x x G J J K J J J F F x z z 0 z F ~ ~ / ! ! ! ! ` ! ! Q Q Q ! ! Q Q Q Q Q Q Q Q Q Q W W Q W W Q W W T T T T T T T T T T T T R R R R R R R R R R R T T Y Y Y Y Y Y Y Y Y A A Y Y Y Y Y Y Y Y m m m m Y Y Y m Y Y Y Y S S Y Y S Y S S S S Y Y m m m m m m m m S S S S S S S S S S S S S S S S m m m m m m m m m m m m m m m b m Z Z b b b b b v v l l l p p p p p p a a i t t u r r r ",
"AXAXAXZXZXZXZXAXZXZXZXZXZXZXZXZXZXZXZXZXZXVXVXVXVXZXZXZXVXVXMXNXmXmXVXVXmXmXmXmXmXmXmXmXmXxXxXxXBXxXzXzXzXzXzXzXzXzXzXkXkXkXkXkXhXkXkXkXkXkXhXhXzXkXhXsXhXhXhXiXiXcXcXcXhXiXiXiXsXsXpXpXpXiXuXuXyXyXyXyXyXyXyX6XyXyXyX6X6X3X3XD.3X3XS.S.A.A.A.A.A.A.A.A.B.B.B.B.B.B.d.p.d.@.D 3 9 9 3 5 3 2 2 3 3 3 3 - - - - ; ; ; ; 3 3 4 4 7 4 g w 8 8 0 0 0 h h G 9.].].].#X$X*X*X*X%X%X&X%XGXGXGXGXGXGXGXGX%X%X%X%X%X@X@X@X@X@X#X[.[.[.].`.}.K.G.G.9.7.6.:.6.2.2.6.0.8.8.8.0.0.0.0.2.L 2.2.2.L L L L L :.2.6.6.6.6.6.6.6.6.6.L I I I J G J G G x x x x x x F F F C x z z x x x x G G J K I J J J F M x x z 9 k Z W ~ / ! Q ` ! ! ! ! Q Q Q ! ! ! Q Q Q Q Q Q Q Q W W W W W Q Q W T T T T T T T T T T T T T R R R R R R R R R R R T T Y Y Y Y Y Y Y Y Y Y Y Y Y Y Y Y Y Y Y m m m m Y Y Y m Y Y Y S S m m Y S S S S S S Y S m m m m m m m m S S S S S S S S S S S S S S S S m m m m m m m m m m m m m m m b m Z Z b b b b b v v l l l p p p p p a a i i t t u u r r ",
"AXAXAXAXAXZXZXZXZXZXZXZXZXZXZXZXVXVXVXZXZXZXVXVXMXMXMXMXMXMXMXMXMXMXMXmXmXmXmXmXmXmXmXxXxXxXxXxXxXxXxXzXzXzXzXzXzXzXzXkXkXkXkXkXzXzXzXkXkXkXkXkXhXhXhXcXhXhXhXhXcXcXcXiXcXiXiXiXsXsXpXiXuXuXuXuXuXuXuXyXyXyXyXyX6X6X6X6X3XS.S.D.S.S.S.S.A.A.A.A.B.B.B.B.B.B.B.B.S.p.p.B.@.D 8 3 8 8 8 4 3 3 3 3 - - - - - % - - - ; 4 4 4 4 4 ; 4 g w w 8 9 9 q q h j N 0.#XGX`.%X&X$XW.[.JXJX[.%X%XGXGXGXLXLXLX%X%X%X%X%X%X@X@X@X@X@X#X[.{.[.{.{.@X{.}.K.G.9.0.9.7.6.6.6.6.6.2.' ' 6.' ' L L ' P I I I P ' ' ' ' ' I ' ' L I ' L I I J G G G G G G G G J J I I J J F C M z z z x x N G J K I K J J G M M x x k 0 < 5 D [ Q E _ Q ` ) ` ! W Q ! Q Q Q ! ! ! ! Q Q Q Q Q Q W W W Q Q Q R Q T T T T T T T T T T T R R R R R T T R R R R R R R T T Y Y T Y Y Y Y A Y Y Y Y Y Y Y Y Y Y Y Y m m Y Y S m Y Y Y Y Y Y S S Y Y Y S S S S m m m S S S S Z S S Z n n Z S Z S S S S S Z m m m m m m m m m m m m m m m m m Z Z Z Z b b v v v c p p p p l p i p p p p i i t r r r u ",
"AXAXAXAXAXZXZXZXZXZXZXZXZXZXZXZXVXVXZXZXZXZXVXVXMXMXMXMXMXMXMXMXMXMXMXmXmXmXmXmXmXmXmXxXxXxXxXxXxXxXxXzXzXzXzXzXzXzXzXkXzXkXkXkXzXzXkXkXkXkXkXkXhXhXhXcXhXhXhXhXcXcXcXiXcXiXiXiXsXsXpXiXuXuXuXuXuXuXuXyXyXyXyXyX6X6X6X6X3XS.S.D.S.S.S.S.A.A.A.A.B.B.B.B.B.B.B.B.d.B.B.#.[ p 8 9 8 8 7 4 3 3 3 2 - - - - - % - - - ; ; 4 4 4 4 3 4 4 4 7 8 8 9 9 0 q h j K 9.K.@X`.[.*XJX%X[.#XJX%X%X%XGXGXGXLXLX%X%X%X%X%X%X@X@X%X@X@X@X[.[.[.{.].{.#X{.].J.H.G.G.t.7.6.:.2.L ' ' ' ' ' I I I I I I I I I I ' ' I I J I P J G I I J J G G G J G J J K I I I I I J J J C M x z z x x N G J I I K J J G C x x z k 0 < < t W / ! / Q ` ) ` ! Q Q ! Q Q Q Q ! ! Q Q Q Q Q Q Q W W W Q Q Q R Q R T T T T T T T T T T R R R R R T R R R R R R R R T T Y Y T Y Y Y Y A Y Y Y Y Y Y Y Y Y Y Y Y S S Y Y S S Y Y Y Y m Y S S Y Y S S S S S m m m S S S S Z S S Z n n Z S Z Z Z Z S S Z Z m m m m m m m m m m m m m m m m m Z Z Z b b v v v c l p p p p p i p p p a i i t r r u u ",
"AXAXAXAXAXZXZXZXZXZXZXZXZXZXZXZXVXVXZXZXZXZXZXZXMXMXMXMXMXMXMXMXNXmXMXmXmXmXmXmXmXmXmXxXBXxXxXxXxXxXzXzXzXzXzXzXzXzXzXkXzXkXkXkXkXkXkXkXkXkXkXkXhXhXhXcXhXhXsXhXcXcXcXiXcXiXiXiXsXsXpXiXuXuXuXuXuXuXuXyXyXyXyXyX6X6X6X3X3XS.S.D.S.S.S.S.A.A.A.A.B.B.B.B.B.B.B.B.#.B.h.X.c 8 7 7 7 4 4 3 3 3 2 2 - - - - - % - - ; ; - - ; ; 4 4 4 4 4 4 7 8 9 0 9 0 q h j J 9.K.@X[.#X&X&X@X#X%X%X%X&X%X&XGXGXGX%X%X%X%X%X%X@X@X%X%X%X%X$X$X X[.].].@X@X@X{.].K.].L.G.t.8.0.0.0.0.0.6.' ' ' ' I I I ' I J J I ' P I J I L K J P K I I I K P L L L L ' ' L L P I J J J C C x x x x N G J J I K K I J G C x x z h 6 < $ < p Q ) Q Q Q ` ` Q Q Q Q Q Q Q Q ! ! Q Q Q Q Q Q Q W W W W Q Q R Q R R R T T T T T T T T W R R R T T T T T T T T R R R R Y Y T Y Y Y Y A Y Y Y Y Y Y Y Y Y Y Y Y S S Y Y S Y Y Y Y Y S S S S S S S S S S S S S S S S S m Z S S Z n n Z S Z Z Z m S S S Z m m m m m m m m m m m m m m m m m Z Z Z b b v v v v l p p p p p i p a a a a i t t t u u ",
"AXAXAXAXAXZXAXAXZXZXZXZXZXZXZXZXZXZXZXZXZXZXZXZXMXMXMXMXMXMXMXMXmXNXMXmXmXmXmXmXmXmXmXxXBXxXxXxXxXzXzXzXzXzXzXzXzXzXzXzXzXkXkXkXkXkXkXkXkXkXhXhXhXhXhXcXsXsXsXhXcXcXcXiXcXiXiXiXsXsXpXiXuXuXuXuXuXuXuXyXyXyXyXyX6X6X6X3X3XS.S.D.S.S.S.S.A.A.A.A.B.B.B.B.B.B.f.f.p.C.@.D 8 3 7 4 4 3 4 3 3 ; - - - - - - & % - - - - - - - - 3 4 4 4 4 4 7 7 8 9 9 9 0 0 q h G 6.J.{.@X].[.&X&X#X%X%X%X&X&X&X&X%X%X%X%X%X%X%X%X%X*X*X%X%X%X%X$X$X[.[.[.[.[.].].].].].K.K.K.L.G.G.G.F.s.s.9.9.0.0.' ' ' ' ' ' ' ' 0.6.2.6.0.6.2.0.6.6.2.6.6.6.6.6.6.6.6.6.6.' P I I J J C C x x x x G J J J I K K J J G x x x k h 5 1 $ $ 5 c Q / Q Q ` ` ! Q Q Q W Q Q Q Q Q Q Q Q Q Q Q Q W W W W Q Q R Q R W R T T T T T T T T R R R R T T T T T T T T R R R R Y Y T Y Y Y Y A Y Y Y Y Y Y Y Y m Y Y Y Y S Y Y S S Y Y Y S S S S S S S S S S S S S m S S S S m Z S S Z n n S S Z Z Z m S S S Z m m m m m m m m m m m m m m m m m Z Z Z Z b b v b v l p p l p p i p a a a a i t i t t u ",
"AXAXAXAXAXAXAXAXZXZXZXZXZXZXZXZXZXZXZXZXZXZXZXZXMXMXMXMXMXMXMXMXmXMXmXmXmXmXmXmXmXmXmXBXBXxXxXxXxXxXxXzXzXzXzXzXzXzXzXkXzXkXkXkXkXkXkXkXkXhXhXhXhXhXhXhXhXhXsXhXcXcXcXiXiXiXiXiXsXsXpXiXuXuXuXuXyXyXyXyXyXyXyXyXyXyXyX6X3XS.S.D.S.S.S.S.A.A.A.A.B.B.B.B.B.B.f.f.B.%.) r - 7 7 - 4 4 3 ; ; - - - - - - - & % & - - - % % - - ; 4 4 4 3 4 4 7 7 8 8 9 9 0 0 q h x P t.@X@X].[.%X$X%X$X$X*X*X&X&X&X%X%X%X%X%X%X%X%X*X*X*X%X$X$X$X$X$X$X#X[.[.[.].].`.`.].}.{.}.K.K.K.K.L.L.L.L.G.G.9.9.8.8.9.9.9.9.9.t.9.8.9.9.9.9.9.9.9.9.9.9.8.8.0.7.0.6.:.L L P I J G G C C x x x G J J K P P K G J G x x x z h 6 < $ * & 4 v [ Q Q Q ! ! Q Q Q W Q Q Q Q Q Q Q Q Q Q Q Q W W W W Q Q R R T T R T T T T T T T T R R R T T T T T T T R R R R T R Y Y T Y Y Y Y A Y Y Y Y Y Y Y Y S S S Y Y Y Y Y Y Y Y Y Y Y Y Y Y Y S S S S S Y S S S S S S S m Z S S Z n n S S S Z Z m Z Z Z Z m m m m m m m m m m m m m m m m m b Z Z Z b b v b v l p p p p p i p a a a a i t i i i u ",
"AXAXAXAXAXAXAXAXZXZXZXZXZXZXZXZXZXZXZXZXZXZXZXZXMXMXMXMXMXMXMXMXmXmXmXmXmXmXmXmXmXmXmXBXBXxXxXxXxXxXxXzXzXzXzXzXzXzXzXkXzXkXkXkXhXhXkXkXhXkXhXhXhXhXhXhXhXhXhXhXcXcXcXaXiXiXiXiXsXsXpXiXuXuXuXuXyXyXyXyXyXyXyXyXyXyXyX6X3XS.S.D.S.S.S.S.A.B.B.A.B.B.B.B.B.f.f.d.d.X.v 7 3 8 7 & 4 3 3 ; ; ; - - - - - - - % - - % % % % % - ; 3 4 4 4 4 4 4 7 7 8 9 5 0 0 0 0 h j G 9.{.JX@X#X%X$X$X$X*X*X*X*X&X%X%X%X%X%X%X*X%X*X*X%X$X$X$X$X$X$X$X$X[.[.[.[.[.[.[.].`.`.`.`.K.].K.K.K.K.K.H.L.H.G.t.t.G.G.k.k.k.k.t.9.k.t.9.t.k.t.t.9.9.9.9.0.8.0.7.6.:.L P P J G G G C C x x G J J J H P P K G G G x x x k 0 1 * $ & # # u _ ! Q Q Q ! Q Q E W W Q Q Q Q Q Q Q Q Q Q Q W W W W Q Q R R T T T T T T T T T T T R R R R T T T T T T R R T T T T Y Y T Y Y Y Y A Y Y Y Y Y Y Y Y S S Y Y Y S Y Y Y Y Y Y Y Y Y Y Y Y S S S S S Y S S S S S S S S Z S S Z n n Z S S S m m Z Z Z Z m m m m m m m m m m m m m m m m b b b Z Z b b b b v l p p p p p i p a a a a i t i i u u ",
"AXAXAXAXAXAXCXCXZXZXZXZXZXZXZXZXVXZXVXVXZXZXZXZXMXMXMXMXMXMXVXVXVXVXmXmXmXmXmXmXmXmXmXBXmXxXxXxXxXxXxXzXzXzXzXzXzXzXzXkXzXkXkXkXhXhXhXhXhXhXhXhXhXhXhXhXhXhXhXhXcXcXcXaXiXiXiXiXsXsXpXiXuXuXyXuXyXyXyXyXyXyXyXyXyXyXyX6X3XS.S.D.S.S.S.S.A.B.B.A.B.B.B.B.B.f.f.d.o.D 8 4 7 7 4 3 4 3 3 ; ; ; ; ; - - - - - % - - % % % % % - ; - 2 2 4 4 4 4 4 4 8 7 3 9 0 0 0 0 h j U 7.J.@X%X#X$X$X$X*X*X*X*X*X%X%X%X%X%X%X%X%X%X%X%X$X$X X X X$X$X$X$X$X$X[.[.%X@X{.].`.].].].W.W.W.W.`.`.W.K.J.H.H.G.H.H.H.G.k.H.k.t.k.k.t.t.k.t.t.t.t.9.9.8.8.0.7.6.:.L P K J G G G x C C G G J J K K P P K J J G x x z h 0 6 $ $ # + + 4 m ! Q W Q ! ! Q E W W Q Q Q Q Q Q Q Q Q Q Q W W W Q Q Q R R T T T T T T T T T T T R R R T T T T T T R R R T T T T Y Y T Y Y Y Y A Y Y Y Y Y Y Y Y Y Y Y Y S S Y Y Y Y S Y m m Y Y Y Y S S S S Y Y S m S S S S S S Z S S Z n n Z S S S S S Z Z Z Z m m m m m m m m m m m m m m m m b b b Z Z b b b b v l p p p p p i p p p a i i t r r u u ",
"AXAXAXAXAXCXCXZXZXZXZXZXZXZXZXZXVXVXVXVXVXZXZXZXMXMXMXMXVXVXVXVXMXVXMXmXmXmXmXmXmXmXmXmXmXxXxXxXxXxXxXzXzXzXzXzXzXzXzXkXzXkXkXkXhXhXhXhXhXhXhXhXhXhXhXhXhXhXsXhXhXcXcXaXiXiXiXiXsXsXpXiXuXuXuXuXuXyXyXyXyXyXyXyXyXyXyX6X3XS.S.D.D.D.S.A.A.B.B.A.B.B.B.B.B.f.f.d.( p 4 7 8 4 - 7 4 3 3 ; ; ; ; ; - - - - - % - - % % % % % - - ; 2 2 4 4 4 4 4 4 : 4 8 9 9 0 0 0 h h h j P G.@X@X@X#X$X*X*X$X*X*X%X%X%X%X%X%X%X%X%X%X$X$X$X$X X X$X$X$X$X$X[.[.[.W.].[.[.{.{.].].'.'.'.'.'.].`.`.`.`.W.H.H.H.H.J.H.H.H.G.H.G.k.G.t.t.t.t.t.t.r.9.7.7.7.6.:.L P K G G G x x x G G G J K H K P P K K K J x x j h 0 9 * X $ + + - w ! Q W Q ! ! Q E E W Q Q Q Q Q Q Q Q Q Q Q W W W Q Q Q R R T T T T T T T T T T T R R R T T T T T R R R R T T T T Y Y T Y Y Y Y A Y Y Y Y Y Y Y Y Y Y Y Y S S m Y Y Y S S S S Y Y S S S S S S Y Y S m m m S S S S S S S Z n n Z S S S S S S S Z S m m m m m m m m m m m m m m m m b b b Z Z Z b b b v l p p p p p i p p p a i i i r r u u ",
"NXAXVXZXVXVXVXVXVXVXVXZXZXZXVXVXVXVXVXVXVXVXVXVXVXVXVXMXMXNXNXNXmXmXNXmXmXBXBXmXxXmXxXxXxXzXzXxXxXxXxXxXxXzXzXzXkXkXzXkXkXhXhXhXkXkXkXhXhXhXhXhXhXhXhXhXhXsXsXiXaXsXsXsXsXsXsXiXiXiXiXiXiXiXyXyXuXuXuXyXyXuXuXuXyX3X3X3XyXuX3XS.D.D.S.S.D.A.B.f.f.A.C.d.f.C.#.X.a e 7 7 4 3 ; 4 3 : 3 ; ; ; ; ; ; ; ; - - - - - % % % % % - - - - ; ; ; ; : 3 3 3 3 3 5 5 w w 0 0 0 0 h j G 8.K.@XGX%X[.Q./.*X*X%X%X%X$X$X#X@X%X%X%X$X$X$X$X$X#X#X#X#X#X#X#X#X#X[.[.#X#X#X[.].W.].].'.'.].`.W.W.W.W.W.W.W.W.W.H.H.H.H.H.M.N.t.N.N.t.t.t.t.t.r.8.7.7.7.6.:.L P I G G G C C G G G G G J K P P K K K G G x x j h 0 9 & $ $ + + # 3 n Q ) Q E Q ! Q Q Q Q Q Q Q Q Q Q Q W W Q Q Q W W T T T T T T T T T T T T T T T R R R R T T T T T T T T T T T T Y Y Y Y Y Y Y Y A A A Y Y Y A A S S S S Y S S S m S Y Y Y S S m S S S S S S S S m S S Y Y S S m Z m Z Z Z Z Z Z m m Z Z Z Z S S S S Z Z S S S S m m m m m m m b m b b b b b b b l l p p p p p p p p i t t i i p r r r r ",
"NXMXVXZXZXVXZXVXVXVXVXVXZXZXZXZXVXVXVXVXVXVXVXVXVXVXVXMXMXNXNXNXNXNXNXNXmXBXBXBXxXmXxXxXxXzXzXxXxXxXxXxXzXzXzXzXkXkXzXkXkXhXhXhXkXkXkXhXhXhXhXhXhXhXhXhXhXsXsXiXsXsXsXsXsXsXsXiXiXiXiXiXiXiXyXyXuXuXyXyXyXuXuXuXyX3X3X3XuXuX3XS.D.D.D.D.D.B.B.f.B.f.d.d.C.B.o.W w 7 4 7 w 4 3 4 3 3 ; ; ; ; ; ; ; ; - - - - - - % % % % % - - - ; ; ; ; 3 3 3 3 3 3 4 5 g w w w r 8 0 0 0 h J 6.DX}.{.%X&X&X$X/.$X$X$X$X%X@X%X%X%X%X$X$X$X$X$X#X#X#X#X#X#X#X#X#X#X#X#X#X#X[.[.].[.[.].].'.'.].].W.W.W.W.!.W.W.H.R.H.H.H.M.M.N.N.N.t.t.t.t.t.r.w.7.7.7.6.:.L I I J G G G C G G G G J K P P P P K K G G x x k 0 0 9 & X + + + # - v Y Q W Q ) / W Q Q Q Q Q Q Q Q Q Q W W Q Q Q W W T T T T T T T T T T T T T T T R R R R T T T T T T T T T T T T Y Y Y Y Y Y Y Y A A A Y Y Y Y Y S S S S S S S S m S Y Y Y S S m S S S S S S S S m S S Y Y S S m m m Z Z Z Z S S m Z Z Z Z Z S S S S Z Z Z S S S m m m m m m m b m b b b b b b b l l l p p p p p p p i i i i i i u u u u ",
"NXMXVXZXZXZXZXVXZXZXZXZXZXZXZXZXVXVXVXVXVXVXVXVXVXVXVXMXMXMXNXNXNXMXNXmXmXBXBXBXmXmXxXxXxXzXxXxXxXxXxXxXzXzXzXzXkXkXkXkXkXhXhXhXkXkXkXhXhXhXsXhXhXhXhXhXhXhXiXiXsXsXsXsXsXsXsXiXiXiXiXiXiXiXuXyXuXyXyXyXuXuXuXuX6X3X3X6XyXyX3XD.D.D.D.D.D.B.B.f.B.p.p.B.A.i.( u 4 4 7 w w 4 3 3 3 : ; ; ; ; ; ; ; - - - - - - - % % % % % % % - - - ; ; 3 ; 3 3 3 3 3 5 5 w w w 8 5 0 0 0 q k C 8.L.@X[.'.*X&X$X$X$X$X$X$X$X%X*X%X%X%X$X$X$X$X#X#X#X#X#X#X#X#X#X#X@X@X@X@X#X#X#X[.[.[.[.].[.'.'.`.W.W.W.W.!.W.W.W.H.H.H.H.M.M.N.N.N.t.t.t.t.w.w.7.7.7.6.:.P I J J J G G G G G G K K P P P P P K J G C x x h 0 q 5 # . X + + + & u n Q Q Q Q Q E Q Q Q Q Q Q Q Q Q W W W Q Q Q W W T T T T T T T T T T T T T T T T T R R T T R R T T T T T T T T Y Y Y Y Y Y Y Y Y Y Y Y Y Y Y Y Y S S S S S Y S m S Y Y S S m m S S m m S m m S m m S Y Y S S m m m m Z S S S S Z Z S S S S S S S S Z Z Z Z S S m m m m m m m b m b b b b b b b v l l p p a p p i a a a a a i t u u u t ",
"NXMXVXZXZXZXZXVXZXZXZXZXZXZXZXZXVXVXVXVXVXVXVXVXVXVXVXMXMXMXNXNXNXNXNXmXmXBXBXBXBXmXxXxXxXzXzXxXxXxXxXxXzXzXkXkXkXkXkXkXkXhXhXhXkXkXkXhXhXhXsXsXhXhXhXhXhXhXiXiXsXsXsXsXsXsXsXiXpXiXiXiXiXiXuXiXyXyXyXuXuXuXuXyX6X3X3X6XyX3XS.A.D.D.D.D.D.A.B.B.B.d.d.C.f.X.l 3 3 4 7 7 4 ; ; ; : ; : ; ; ; ; ; - - - - - - - - - - % % % % % % - - - ; ; ; 3 3 3 3 3 4 5 5 w 5 5 5 0 r t 0 h j x L t.H.`.#X$X$X$X$X$X$X$X$X%X%X%X%X%X%X$X$X$X#X#X#X#X#X#X#X#X#X@X@X@X@X@X#X#X#X@X{.{.[.[.[.[.'.].`.`.W.W.W.W.W.W.W.W.H.H.H.M.M.M.N.t.t.t.t.w.w.7.7.7.<.:.P P K J J G G G G G G P P P P P P K K J G C x x h 0 9 5 # . X # # + + 3 c / ) E Y E Q W W W W W W W W Q W W W Q Q W W W T T T T T T T T T T T T T Y Y T T T T T T T T T T T T T T T T Y Y Y Y Y Y Y Y Y Y Y Y Y Y Y Y S S S S Y Y Y S m S S S S S m m m m m m S m m m m m m Y Y S S m m m m Z S S S S S S S S S S Z S S S Z Z Z Z S S m m m m m m m m m b b b b b b b v v l p p a p p i i a p p a t t r r r r ",
"NXMXVXZXZXZXZXVXZXZXZXZXZXZXZXZXVXVXVXVXVXVXVXVXVXVXVXMXMXMXMXMXNXNXNXNXmXmXmXmXBXBXxXxXxXzXxXxXxXxXzXzXzXzXkXkXzXzXzXkXkXhXkXkXkXkXkXhXhXhXhXsXhXsXhXsXhXhXcXiXsXsXsXsXsXsXsXpXpXpXiXiXiXiXiXiXuXuXuXuXuXyXyXyXyXyXyX3X6X3XS.D.D.S.S.S.D.A.A.A.B.B.C.d.o.Z 8 2 3 4 7 4 ; ; ; ; : : ; ; ; ; ; ; - - - - - - - - - - - % % % % % - - - - ; 2 2 3 3 3 3 4 5 5 5 5 8 8 8 0 r 0 0 q h q V 9.{.{.`.[.$X$X*X*X$X$X$X$X%X%X%X$X%X@X@X@X#X#X#X#X#X#X#X#X#X#X#X#X#X#X#X#X@X@X@X{.{.[.[.[.'.'.'.`.W.W.W.W.W.W.W.W.H.H.H.H.H.M.N.t.t.t.r.8.7.7.7.6.:.L P I J J G G G G H J P P P P P K K H K G C x j h 0 6 1 # . X # & + + + w n E E E Q ! W W W W W W W W Q W E W Q Q W W W T T T T T T T T T T T T Y Y Y T T T T T T T T T T T T T T T T Y Y Y Y Y A A A Y Y Y Y Y Y Y Y S S S Y Y Y S S m m S Y S S m m S S S S S S S S m m S Y Y S m m S S S S S Z Z Z S S S S S S S S S S S Z Z Z Z S m m m m m m m m m b b b b b b b v v c p p p p p i a a p p a t u r r r r ",
"NXMXVXZXZXZXZXVXZXVXZXZXZXZXZXZXVXVXVXVXVXVXVXVXVXVXVXMXMXMXMXMXNXNXNXNXmXmXmXmXmXxXxXxXxXzXxXxXzXzXzXzXzXkXkXkXzXzXkXkXkXhXkXkXkXkXkXhXhXhXhXsXhXhXhXsXhXhXsXsXsXsXsXsXsXsXsXpXpXpXiXiXiXiXiXiXuXuXuXuXyXyXyX6XyXyX6X3X3X3XS.S.D.D.D.D.D.A.A.A.B.B.p.X.D r 3 3 ; 4 4 ; ; 3 4 4 ; ; ; ; ; ; ; ; - - - - - - - - - - % % % % % % % % - - ; ; 2 3 3 3 3 3 4 3 4 4 4 4 4 5 0 0 0 0 q q h x L G.K.@X[.[. X$X$X$X#X#X$X$X#X#X@X#X#X#X#X#X#X#X#X#X#X#X#X#X#X#X#X#X#X#X@X@X@X@X@X{.[.[.].].'.'.'.'.W.W.W.W.W.W.W.H.H.H.M.M.N.t.t.t.r.8.7.7.7.6.:.L P I J J G G G H K P P P P P P K K H J G x x j h 0 6 < # X X + # + + . + ; y m Q ! ! W W W W E E E E Q W E W W Q W W W W T T T T T T T T T T Y Y Y Y T T T T T T T T T T T T T T T T Y Y Y Y Y A A A Y Y Y Y Y Y Y Y S S S S S S S S m m S S S S m m S S S S m S S S m m S Y S S m m S S S S S S Z Z S Z S S Z S S S S S m Z Z Z Z S m m m m m m m m m b b b b b b b v v c p p p p p a a a a a a i t u u u u ",
"NXMXVXZXVXVXZXVXVXVXVXVXZXZXZXZXVXVXVXVXVXVXVXVXVXVXVXMXMXNXMXMXNXNXNXNXmXBXmXmXmXmXxXxXxXxXxXxXxXxXzXzXzXkXkXkXzXzXkXkXkXhXkXkXkXkXkXhXhXhXhXhXhXsXhXsXhXhXhXhXsXsXsXsXsXsXsXiXaXaXiXiXiXiXyXyXuXuXuXyXyXyX6X6XyXyX3X3X3XS.3X3XA.A.A.A.A.A.C.C.B.p.X.Z 0 9 9 3 ; 4 3 ; ; 4 4 ; ; ; ; ; ; ; ; ; - - - - - - - - - - % % % % % % % % - - ; ; 3 3 3 3 3 3 4 3 3 3 4 4 3 4 8 0 0 0 6 k k 6 6 J s.L.W.W.`.[.#X#X#X[.#X#X#X#X#X#X#X#X#X#X#X#X#X#X#X#X#X#X#X#X#X#X#X#X@X@X@X@X@X[.[.[.[.[.].'.'.'.`.W.W.W.W.W.W.H.H.H.H.M.N.t.t.t.w.7.7.7.6.<.:.L P K G G G G J K P P P P P P P K K K J G x x k 0 q 6 & # X . X + + + + . . # w c Y Q W W W W W W E W W W E E W W W W W W T T T T T T T T T Y Y Y Y Y Y T T T T T Y Y T T T T T T T T Y Y Y Y Y Y A Y A A A A Y Y Y Y S S Y S S S S S m m m S S m m m S S S S m m S S m S S Y S m m m S Z S S Z Z Z Z Z Z Z m Z Z S S Z Z m m Z Z Z Z m m m m m m m b m b b b Z Z Z Z v v c l p p p p p a i i i i i i t u u u ",
"NXMXVXZXZXVXVXVXVXVXVXZXZXZXVXVXVXVXVXVXVXVXVXVXVXVXVXMXMXNXNXMXNXNXNXNXmXBXmXmXmXmXxXxXxXzXxXxXxXxXzXzXzXkXkXkXzXzXzXkXkXhXhXhXkXkXkXhXhXhXhXhXhXsXhXsXhXhXhXhXsXsXsXsXsXsXsXaXaXaXiXiXiXiXyXyXuXuXuXyXyX6X6X6XyX6X3X3XS.S.3X3XA.A.A.A.A.B.C.C.B.@.~ 8 & 3 8 3 4 7 4 ; ; 4 ; % ; ; ; ; ; ; ; ; - - - - - - - - - % % % % % % - % % % - ; ; 3 3 3 3 3 3 4 4 4 3 g 4 4 4 5 8 9 5 0 1 6 k h q x 0.L.H.W.].[.[.#X#X#X#X#X#X#X#X[.[.#X#X#X#X#X#X#X#X#X#X#X#X#X#X@X@X@X@X@X@X@X[.[.[.[.[.[.].'.'.'.W.W.W.W.W.W.H.H.H.H.M.N.t.t.t.8.7.7.7.6.:.:.L P K J G G J H P P L L L L P P P P K J G x x k 0 9 5 & + X . . X + X # + + . X - y E W W W W W W W W W W E E W W W W W W T T T T T T T T T Y Y Y Y Y Y T T T T Y Y Y T T T T T T T T Y Y Y Y Y Y Y Y A A A Y Y Y Y A S Y S S S S Y S m m m S S m m m S S S S m m S S m m S Y S m m m m Z S S Z Z Z Z Z Z Z m Z Z S S Z Z m m Z Z Z Z m m m m m m m b b b b b Z Z Z Z v v c l p p p p p p i t t i i p r r r r ",
"MXMXMXVXVXVXVXZXZXZXZXZXZXVXVXVXVXVXVXVXVXVXVXVXMXMXMXNXNXNXNXmXNXNXNXmXmXBXBXmXBXBXxXxXxXxXxXxXzXzXzXzXzXzXzXkXzXkXkXhXhXhXhXkXkXkXkXhXhXsXsXsXhXhXhXiXiXiXiXiXsXsXsXsXsXpXiXiXiXiXiXiXiXiXyXyXyXuXyXyXyXuXuXuX3X3X3X3XS.S.S.S.B.B.S.S.C.C.A.B.B.( 0 3 8 8 3 3 4 4 4 4 4 4 3 3 ; ; ; ; ; - - - - - - ; ; - - - % - - - - - % % % % % % - ; 3 3 3 3 3 3 3 4 3 3 4 4 4 4 4 4 5 5 8 0 0 0 0 0 0 h G 0.K.{.W.H.].@X].[.#X#X#X[.[.[.#X#X#X#X#X#X#X#X#X#X#X@X@X@X@X@X@X@X@X@X{.{.[.[.[.[.].].].`.W.W.W.W.W.W.W.W.H.H.H.M.N.t.t.w.7.7.<.<.:.:.L P K H J J H K K P L L :.:.:.L P K K K J G x x k 0 9 5 < + . . X X X + + X X + X . # w ) Q W ! / Q E Q W W W E W E E W W T T T T T T T T T T T T Y Y Y Y Y T T T T T T T T T T T T T T T Y Y Y A A A Y Y Y Y Y Y A A A m m m m S S S S S S S m m m m S S S S S S S S S S S S m m m m m m m Z Z m m m Z Z Z Z S Z Z S Z Z Z S S S S Z Z m m m m m m m b m b b b b b b b v c l p p p p a p p i i t u t t t u r r ",
"MXMXMXVXVXVXVXVXZXZXZXZXZXZXVXVXVXVXVXVXVXVXVXVXMXMXMXNXNXNXmXmXNXNXNXmXmXBXBXBXBXBXxXxXxXxXxXxXzXzXzXzXzXzXzXkXzXkXkXhXhXhXhXkXkXkXhXhXhXsXsXsXhXhXhXiXsXiXiXiXsXsXsXsXpXpXiXiXiXiXiXiXiXiXyXyXuXuXuXyXyXyXyXyX3X3X3X3XS.A.A.S.B.B.A.B.d.C.C.p./ l 9 3 8 7 3 3 4 3 3 3 ; ; ; ; ; ; ; ; - - - - ; - - ; ; - - - % - - - - - % % % % % % - ; 3 3 3 3 3 3 4 3 3 3 : : 4 4 4 4 5 5 8 9 0 0 0 0 0 0 h U L 9.H.].].K.@X[.W.`.[.#X@X#X#X#X#X#X#X#X#X#X#X#X#X#X#X#X@X@X@X@X@X@X@X{.[.[.[.[.'.].].`.W.W.W.W.W.W.W.H.H.H.M.N.t.t.t.w.7.7.<.:.:.L L P K H K K K K P P L L :.:.:.L P H K K J G x x k 0 9 1 2 + . . + + + + X . X + X   X - y Y ! E S E Q T W W W E W E E W W T T T T T T T T T Y Y Y Y Y Y T Y T T T T T T T T T T T T T T T Y Y Y A A A Y Y Y Y Y Y Y A A S m m S S S S m S S S S m m S S S S S S S S S S S S S m m m m m m m Z Z Z Z Z Z Z Z S S Z Z S Z Z Z S S S S Z Z m m m m m m m b m b b b b b b b v c l p l p p a p p p i i i i i t r r r ",
"MXMXMXVXVXVXZXZXVXZXZXZXZXZXZXZXVXVXVXVXVXVXVXVXMXMXMXNXMXmXmXmXNXNXNXNXmXBXBXBXBXBXxXxXxXxXxXxXzXzXzXzXzXzXzXzXzXkXkXhXhXhXkXkXkXkXkXhXhXhXsXsXhXhXhXsXsXiXiXiXsXsXsXsXsXiXiXiXiXiXiXiXiXuXuXuXuXyXyXyXyXyX6X6X3X3X3X3XS.A.A.S.C.C.C.B.d.C.B.o.r 9 2 7 7 4 - 4 3 3 ; ; ; ; ; ; ; ; ; ; - - - - ; - % - ; - - - % % - - - - % % % % % % - - 2 3 2 2 3 3 3 3 4 3 3 4 4 4 4 4 4 4 8 5 8 8 0 0 0 0 q q h G 9.K.#X`.K.].@X%X#X[.#X%X[.[.[.[.[.#X#X#X[.[.#X#X#X#X#X#X@X@X@X@X@X@X[.[.[.[.[.].].].W.W.W.W.W.W.W.H.H.H.M.N.t.t.w.7.7.7.<.<.:.L L P K K I I P P P L :.:.:.:.:.:.P H K K G G x z k 0 9 5 3 # X X + + + + X . X + X .   X + y Q W Y T Q E W W W W W E E W W T T T T T T T T T Y Y Y Y Y Y Y Y T T Y Y Y Y T T T T T T T T T Y Y Y Y A Y Y A Y Y Y Y Y Y Y S S S S S S m m S S S S S S S S S S m m S m m S S S S m m m m m S S Z Z S Z S S S S S S Z Z m m Z Z Z S Z Z Z Z m m m m m m m b m b b b b b b b v c l l l p p a p p p p a a a a u u u u ",
"MXMXMXVXVXZXZXZXVXZXZXZXZXZXZXZXVXVXVXVXVXVXVXVXMXMXMXNXMXmXmXmXNXNXNXmXmXBXBXBXmXBXxXxXxXxXzXzXzXzXzXzXzXzXkXkXzXkXkXhXhXhXhXkXkXkXkXhXlXhXhXsXsXsXhXsXsXiXiXiXiXsXsXsXsXiXiXiXiXiXiXiXiXuXyXyX6XyXyXyXyX6X6X3X3X3X3X3XS.A.A.S.A.C.C.A.C.S.#.W 3 2 4 8 8 4 - 3 3 ; ; ; ; ; ; ; ; ; ; ; - - - - - % % - ; - - - - % - - - - % % % % % % % - - 2 ; 2 3 3 3 3 3 2 3 : 4 4 4 4 4 4 4 5 g w w w r r h 0 q h G 0.L.@XK.K.].#X[.[.[.$X[.[.[.[.[.[.#X#X[.#X#X#X#X#X#X#X@X@X@X@X@X@X@X[.[.[.[.].].].W.W.W.W.W.W.W.H.H.H.N.t.t.t.w.7.7.7.6.<.:.L L P P K K K P P L :.:.:.:.:.:.:.P H K K G G x j h 0 9 5 2 + X X + + + + + X X + + X . . + 3 s Q ! E T Q W W W W W E E W W T T T T T T T T T T T T T T T T T T T T T T T T T T T T T T T T Y Y Y Y A Y Y A Y Y Y Y Y Y Y S S S S S S m m S S S S S S S S S m m m m m m m S S S m m m m m Z Z Z Z S S S S S S S Z Z Z Z m m m m m n n n n m m m m m m m b m b b b b b b b v v l l l l p a p p p i i i i i t u u u ",
"MXMXMXVXVXZXZXZXVXVXZXZXZXZXZXZXVXVXVXVXVXVXVXVXMXMXMXMXMXmXNXNXNXNXNXNXmXmXmXmXmXxXxXxXxXxXxXzXzXzXzXzXzXkXkXkXzXzXkXhXhXhXhXkXkXkXkXhXlXhXhXhXsXsXsXsXsXsXsXiXiXiXsXsXiXiXiXiXiXiXiXiXuXuXyXyX6X6XyXyXyX6X3X3X3X3X6X3XS.S.S.S.C.C.A.S.C.d.] 0 8 3 3 9 7 7 4 4 ; ; ; ; ; ; ; ; ; ; ; - - - - - - % % - ; - - - - - - - % % % % - % % % # - - ; ; 2 3 3 3 3 3 ; 3 : 3 3 4 4 3 3 3 4 5 g w w w w r t 0 q q x L t.].K.M.M.W.[.[.[.[.[.[.[.#X#X#X#X#X#X#X#X#X#X#X@X@X@X@X@X@X@X@X@X[.[.].].].`.W.W.W.W.W.W.W.H.H.H.N.t.t.w.w.7.7.7.6.<.:.L L P P P K K P L :.:.:.<.:.:.:.:.:.P K K G C x k h 0 9 5 < + . X + + + + + X X X + X X X X X 3 c Q ! E Y W W W W W E E W W T T T T T T T T T T T T T T T T T T T T T T T T T T T T T T T T Y Y Y Y A Y Y A A Y Y Y Y Y Y S S S S S S S S m S S S S S S m S S S S m S S S S S S m m m m m Z S Z Z Z m S S S S Z S S S m m m m m m n m m m m m m m m m m m m b b b b b b b v c l l l p p a p a i i t t t t t t u r ",
"MXMXMXVXVXZXZXZXVXVXZXZXZXZXZXZXVXVXVXVXVXVXVXVXMXMXMXMXMXmXNXNXNXNXNXNXmXmXmXmXmXxXxXxXxXxXzXzXzXzXzXzXzXkXkXkXzXzXkXhXhXhXhXkXkXkXkXhXlXhXhXhXsXsXsXsXsXsXsXsXiXiXiXiXaXiXiXiXiXiXiXiXuXyXyXyX6XyXuXuXuXyX3X3X3X3X3X3XS.A.A.S.B.f.C.B.@.] l & 8 3 - - 4 4 4 4 3 ; ; ; ; ; ; ; ; ; ; - - - - % - % % - ; - - - - - - - % % % % - % % @ @ % - - ; 2 2 3 3 3 3 2 3 3 3 3 3 3 3 3 3 3 3 5 g g w w 5 8 r 0 0 q j U 7.N.K.#XW.W.`.#X[.[.[.[.#X#X#X#X#X#X#X#X#X#X@X@X@X@X@X@X@X@X@X@X[.[.].].].`.W.W.W.W.W.H.H.H.H.M.N.t.t.w.7.7.7.6.6.<.:.L L L P P K P L :.:.<.7.7.<.:.<.:.:.P K K G x x h 0 0 9 5 < + . X + + X X + X . . X X X X   X # 3 s ) ) S W W W W W E E W W T T T T T T T T T T T Y Y Y T T T T T T T R R T T T T T T T T T Y Y Y Y A Y Y A A Y Y Y Y Y Y S S S S S S S S m S S S S S m m S S S S m S S S S S m m m m m m S S Z Z Z m S S Z Z Z Z S S Z Z n m m n n n n n m m m m m m m m m b b b b b b b v v c l l l p a p a i t t t u t t u r r ",
"MXMXMXVXVXZXZXZXVXZXZXZXVXVXVXVXVXVXVXVXVXVXVXVXMXMXMXMXMXmXNXNXNXNXNXNXmXBXmXmXxXxXxXxXxXxXxXxXzXzXzXzXzXkXkXkXzXkXkXhXhXhXhXkXkXkXkXhXhXsXhXhXsXsXsXsXsXsXsXsXiXaXpXpXiXiXiXiXiXiXiXiXyXyXyXyX6XyXuXyXuXuX6X3X3X3X3X3XA.A.A.A.C.d.B.#.( i 8 2 3 3 3 - - - 4 3 ; ; ; ; - - ; - ; ; - - - - - % - % % - ; ; - ; - - - - % % % % - % % @ # # % - 2 2 2 2 2 3 3 3 3 ; ; ; 3 3 3 3 3 3 3 4 g g g g 5 5 w t 0 q q h V P t.H.W.H.W.[.].].].].[.[.[.[.[.[.#X#X#X#X#X#X@X@X@X@X@X@X[.[.].].].].].`.W.W.W.W.H.H.H.M.M.N.t.t.w.7.7.7.7.7.7.<.:.:.L L L P P P :.:.6.7.7.7.6.<.<.:.:.P K K G x j h 0 0 5 5 < + X + + + + + X X X X . X . X   + # + 2 c W E W W W W W E E W W T T T T T T T T T T T T T T T T R T T R R R R T T T T T T T T T Y Y Y Y A Y Y Y Y Y Y A A A Y m m S S S S S S m m S S S S m m S S S S m m S S S S m m m m m m S S S S Z Z Z S Z Z Z Z S S S S n n n n n n n n m m m m m m m m m b b b b b b b v v c l l l p p p p p i i t t t r r r 0 ",
"MXMXMXVXVXZXZXZXZXZXZXZXVXVXVXVXVXVXVXVXVXVXVXVXMXMXMXMXMXmXmXNXNXNXNXNXmXBXmXBXBXxXxXxXxXxXxXxXzXzXzXzXzXkXkXkXzXzXkXhXhXhXhXkXkXkXkXhXhXsXsXsXsXsXcXsXsXsXsXsXiXaXpXpXpXiXiXiXiXiXiXuXuXyXyXyXyXyXyXuXyXuX6X6X3X3X3XS.A.B.B.A.A.B.h.o.p & 2 8 3 9 7 4 - & & - ; ; - - - - - - ; ; - - - - - - - % % - ; ; - ; - - - % % % % - - % % @ @ % % % 2 ; ; ; 2 2 3 3 3 ; 3 3 3 3 3 3 3 3 3 3 3 4 g g g g g w 8 6 q h q h V P N.K.K.H.].].W.].[.[.[.[.[.[.[.#X[.#X#X#X#X#X@X@X#X#X#X{.].].].].`.`.W.W.W.W.H.H.H.N.t.t.t.t.w.7.7.7.7.7.6.6.:.:.:.:.L L L :.:.<.7.7.7.7.<.<.<.:.:.P K K G x j h 0 0 9 5 < # X $ # # + + X + + + X . . . . . X X . @ y ! W W W W W W E W T T T T T T T T T T T T T T T R R R T T T R R R T T T T T T T T T Y Y Y Y A Y Y Y Y Y Y A A A A m m m S S S S S m m S S S S S S S S S S m m S S S S S m m m m m S S S S Z Z Z S Z Z Z Z S S S S n n n n n n n n m m m m m m m m m b b b b b b b v v c l l l p p p p p p a i a a r r r 0 ",
"NXNXNXMXMXVXVXVXVXVXVXVXVXVXVXVXZXZXZXZXZXZXZXZXMXMXMXNXNXNXmXmXMXMXMXNXmXmXmXmXBXxXxXzXzXzXzXxXzXzXzXkXzXkXkXkXzXzXhXhXkXkXkXhXhXhXhXsXhXsXsXsXsXsXsXsXsXaXaXaXiXiXpXiXiXiXiXiXiXiXiXiXyXyX6X6X6X6XyXyXiXyX6XS.3X6XS.B.B.C.C.d.C.@.W y 9 4 4 4 4 : - - : : - - ; ; ; ; ; - - - - - - - - - - - - - - - - % % % % % % - % - - - % % % % @ @ @ @ - ; ; 3 4 3 ; ; 2 3 2 2 2 2 3 3 2 3 3 3 3 3 4 4 4 4 w 8 8 9 9 9 0 q q 0 G 9.L.K.H.W.W.W.!./././././.[.].#X#X@X@X[.[.[.].].].#X#X#X#X].].`.`.W.W.H.H.H.H.H.N.t.t.t.w.w.8.7.7.7.7.6.<.<.:.:.:.:.:.:.<.6.7.7.7.7.7.7.7.<.<.:.L P H C x j h 0 6 1 1 < & $ $ + + + + # @ @ + . . .     . . .   X 3 e W A m T W Y T Q T T T T T T T T T T T T T T T T T T T T T T T T E T E T T T T T Y Y Y Y A A Y Y Y Y Y Y A A A A S S S S S m m m Y S S m m m S Y S S S S S S S S S S S S S S S S S S S S Z Z Z S S Z m n n n m m n n n n m n n n m m m m m m m b Z Z Z Z Z Z Z Z v v c c l p p p p p p p a a i i r r r r ",
"NXNXNXMXMXVXVXVXVXVXVXVXVXVXVXVXZXZXZXZXZXZXZXZXMXMXMXNXNXNXmXmXMXMXNXNXmXmXmXmXBXxXxXzXzXzXzXxXzXzXzXkXzXkXkXkXzXkXhXhXkXkXkXhXhXhXhXsXhXsXsXsXsXsXsXsXsXaXaXaXaXaXpXiXiXiXiXiXiXiXiXyXyXyX6X6X6X6XyXyXuXyX6X6X2X6X2XC.C.Z.Z.Z...Y e ; 4 7 ; % 4 ; - - ; : ; - ; ; ; ; ; - - - - - - - - - - - - - - - - % % % % % % - % - - - % % % % % @ @ @ = - - ; ; ; ; ; 2 2 2 2 2 2 3 3 2 3 3 3 3 3 3 3 3 4 4 8 8 8 9 9 9 0 0 6 1 k ' F.J.W.W.W.Q./.!.M././.[.].#X#X#X#X[.[.[.].].].{.}.}.{.].].`.W.W.W.H.H.H.H.H.G.t.t.t.t.r.w.8.7.7.7.7.7.<.:.:.:.:.:.<.6.7.7.7.7.7.7.7.7.<.<.:.L P J C x j h 0 6 1 1 < * $ $ + $ + + @ @ + + . . . .   . . .   . @ - a n T T T T R Q T T T T T T T T T T T T T T T T T T T T T T T Y Y Y Y Y Y Y Y Y Y Y Y Y A Y Y Y Y Y Y Y A A A Y S S S S S S m m Y S S m m m S Y S S S S S S S S S S S S S S S S S S S S Z Z Z S S Z m n n n n m n n n n m m n n m m m m m m m b Z Z Z Z Z Z Z Z v v c c l p p p p p p p a a i i r r r r ",
"NXMXNXMXMXVXVXVXVXVXVXVXVXVXVXVXZXZXZXZXZXZXZXZXMXMXMXNXMXmXmXmXMXNXNXNXmXmXmXmXBXxXxXzXzXzXzXxXzXzXzXkXzXkXkXkXzXkXhXhXkXkXhXhXhXhXhXsXhXsXsXsXsXsXsXsXsXaXaXaXaXaXaXiXiXiXiXiXiXiXiXyXyX6X6X6X6X6XyXyXyXyX6X6X6X6XS.S.2XZ.#.X.y e 7 : - ; : : 4 ; - - ; ; ; - ; ; ; ; - - - - - - - - - - - - - - - - - % % % % % % - % - - - % % % % % @ % @ % % - - ; ; ; ; ; 2 2 2 2 3 3 3 3 3 3 3 3 3 3 3 4 4 7 7 8 8 9 9 9 9 0 9 6 6 k C 0.N.W.W.H.H.W.!.Q.`.].].].].].].[.[.[.[.].].].].}.}.].`.`.W.W.W.W.H.H.H.H.H.N.t.t.t.t.t.w.w.q.7.7.7.7.<.:.:.:.:.7.7.7.7.8.8.8.8.7.7.<.<.:.L K H C x j h 0 6 1 1 < * $ $ $ + + + @ + + . . . .     . . X . . . . - a T T Y T Q T T T T T T T T T T T T T T T T T T T T T T Y T T Y Y Y Y Y Y Y Y Y Y Y Y Y Y Y Y A A Y Y Y Y Y Y S S S S S S S S S S m m m m S S S S m m S m m S m m S m S S S S S S Z S Z Z S S S Z m n n n m m m m n n m m n n m m m m m m m b Z Z Z Z Z Z Z Z v v c c l l p p p p p a a i i i r r r r ",
"MXMXNXMXMXVXVXVXVXVXVXVXVXVXVXVXVXVXVXVXVXVXVXVXMXMXMXNXMXmXmXmXNXNXNXNXmXmXBXBXmXxXxXzXzXzXzXxXzXzXzXzXzXkXkXkXzXkXhXhXkXkXhXhXhXhXhXsXhXsXsXsXsXsXsXsXsXaXaXaXaXaXaXiXiXiXiXiXiXiXiXyXyX6X6X6X6X6XyXyX6X6X6X6X3XZ.C.2X3XB.) p 4 7 8 7 - - 4 7 : ; - - ; ; ; - ; ; ; - - - - - - - - - - - = = - - - - - % % % % % % % % - - - % % % % % % % @ @ % % - - - ; ; ; ; ; 2 2 2 3 3 2 3 3 3 3 3 3 3 4 4 4 7 8 8 8 8 0 5 5 0 z 0 6 6 j P t.J.J.H.K.].W.W.W.W.].].].].[.[.'.[.].`.`.K.].].].`.`.W.W.W.W.W.H.H.H.H.H.N.t.t.t.t.t.t.w.w.7.7.7.<.:.:.:.<.7.7.8.8.w.w.8.8.7.7.7.<.:.L K J C x j 0 0 6 1 1 * # $ $ + + + + + + + . . . .     . . X @ X . . . 4 f Y T Q T Y T T T T T T T T T T T T T T T T Y Y Y Y Y Y Y Y Y Y Y Y Y Y Y Y Y Y Y Y Y Y Y Y A A Y Y Y Y Y Y S S S S S S S S S S m m m m S S S m m m m m S S m m m m m m m m S S Z Z Z Z S S S Z m n n n n m m m m m m n n n n n n n n n n v m b b b b b b b v v c c l p p p p p a a a i t t u r r r ",
"MXMXMXMXMXVXVXVXVXVXVXVXVXVXVXVXVXVXVXVXVXVXVXVXMXMXMXMXMXNXNXNXNXNXNXNXmXmXmXmXmXxXzXzXzXzXzXxXzXzXzXkXkXkXkXkXzXhXhXhXhXkXhXhXhXhXhXhXhXsXsXsXsXsXsXsXsXsXsXsXpXpXpXiXiXiXiXiXiXiXiXyXyX6X6X3X6X6XyXyX6X6X6X6XS.C.S.Z.d.| l 9 8 4 - - 7 7 4 - : ; ; ; ; : - - ; ; - - - - - - - - - = = = = = - - - % - % % % % % % - % - - - % % % % % % % % @ % % = - - ; ; - - - ; ; 3 3 3 ; 3 3 3 3 3 3 3 4 4 4 4 4 7 4 4 0 9 9 0 9 5 9 0 6 j J 9.L.K.H.N.K.W.W.W.W.W.W.W.`.`.'.'.].`.`.`.].].`.`.W.W.W.W.W.W.H.H.H.H.H.M.N.t.t.t.t.t.t.w.8.7.7.7.<.<.<.7.7.8.8.w.t.w.8.8.7.7.7.<.:.L K G G x j 0 q 6 1 1 * # $ $ + + + + + X X . . . .   . . . X + + X . X @ 4 d Q ! T Y T T T T T T T T T T T T T T T T Y Y Y Y Y Y T T Y Y Y Y Y Y Y Y Y Y Y Y Y Y Y Y S Y Y Y Y Y Y Y m m S S S S S S S m m m m m m m S S S m S S S S m m m m m m m m Z m m m S S S S S Z m n n n n m n n n n m m n n n n n m n n n v Z Z Z Z b b b b v v v l l l p p p p a i i i i t u r r r ",
"MXMXMXMXMXVXVXVXVXVXVXVXVXVXVXVXMXMXMXMXMXMXMXMXMXMXMXMXMXmXNXNXNXNXNXNXmXmXmXBXBXxXxXzXzXzXzXxXzXzXzXkXkXkXkXkXzXhXhXhXhXhXhXhXhXhXhXhXhXsXsXsXsXsXsXsXsXsXsXsXpXpXiXiXiXiXiXiXiXiXiXyXyX6X3X3X6X6X6X6X6X6X6X2X2X2XS.#.( r 3 3 7 4 ; - ; : : ; : ; ; ; ; ; - - - - - - - - - - - - - - % = = % - - - % - % % % % % % - % - - - % % % % % % % % @ % % % - - - - - - - - ; ; 2 3 ; ; 2 3 3 3 3 3 4 4 4 4 4 4 3 4 8 8 8 9 5 5 8 t q 6 h x ' 9.G.K.H.H.K.W.W.`.`.W.W.`.`.'.].`.`.`.`.`.`.W.W.W.W.W.W.W.H.H.H.H.H.H.M.N.t.t.t.t.t.t.w.8.7.7.7.7.7.7.8.w.t.t.t.t.w.8.7.7.7.<.:.P K G C x j 0 q 6 1 < * # $ $ + + + + X . X . . . .   . . . . . . . . % . @ e Y T T T T T T T T T T T Y Y Y Y Y Y Y Y Y Y Y Y Y Y Y Y Y Y Y Y Y Y Y Y Y Y Y Y Y S Y Y S Y Y Y Y Y Y Y m m S S S S S S m m m m m m m m S S S m m S S S m m m m m m m m Z m Z m S Z S S S Z m n n n n m n n n n m m n n v n n n n n n v b b b v v v v v v v v l l l p p p p p i i i i u u u r r ",
"NXNXMXMXMXVXVXVXVXVXVXVXVXVXVXVXMXMXMXMXMXMXMXMXMXMXMXMXMXmXNXNXNXNXNXmXmXmXBXBXBXxXxXzXzXzXzXxXzXzXzXkXkXkXkXkXkXhXhXhXhXhXhXhXhXhXhXsXhXsXsXsXsXsXsXsXsXaXsXaXpXpXiXiXiXiXiXiXiXiXiXyXyX6X3X3X6X6X3X6X6X6X2XC.d.#.X.T r & & 4 ; 7 7 4 - % ; 7 : ; - ; ; ; - - - - - - - - - - - - - = = = % % - - - % - % % % % % % - % - - - % % % % % % % % @ @ @ % % % = - - - - - ; ; 3 3 ; ; 2 3 3 3 3 2 4 4 4 4 4 3 3 3 4 8 8 8 r r w 5 9 9 9 6 q x 0.J.L.L.H.K.W.W.W.W.W.W.`.'.`.`.W.W.W.`.`.W.W.!.W.W.H.H.H.H.W.H.H.H.H.M.N.N.N.t.t.t.t.w.q.7.7.7.q.w.w.t.t.t.t.t.w.w.8.7.7.<.:.P H G C x h 0 q 1 1 1 & * # + + + + + . . . . . . .   . . . . . . . . @ . . - e d Y T T T T T T T T T Y Y Y Y Y Y Y Y Y Y Y Y Y Y Y Y Y Y Y Y Y Y Y Y Y Y Y Y S S S Y Y Y Y Y Y Y Y Y m S S S S m m S m m m m n m m m S S S S m m S S m m m m m m m m Z Z Z Z Z Z Z Z S Z m n n n n m n n n n m n n n v v n n n n n v b b b b v v v v v v v l l p p p a a i i i t u u t u r r ",
"NXNXMXMXMXVXVXVXVXVXVXVXVXVXVXVXMXMXMXMXMXMXMXMXMXMXMXMXMXmXmXNXNXNXNXmXmXBXBXBXBXxXxXzXzXzXzXxXzXzXzXkXkXkXkXkXkXhXhXhXkXkXhXhXhXhXhXhXhXsXsXsXsXsXsXsXsXaXaXaXpXpXiXiXiXiXiXiXiXiXiXyX6X6X3X3X6X3XS.6XyX6X2XC.] Z r 7 7 7 7 7 w 4 & - 4 7 ; % : ; - - ; ; - - - - - - - - - - - - - = = % % % - - - % - % % % % % % - % - - - % % % % % % % % @ @ @ @ @ @ % % % - - - ; ; 3 3 ; ; 2 3 3 3 3 ; 4 4 4 4 4 3 3 3 ; 8 w 5 4 g w 5 e 9 9 9 6 q x I G.G.L.H.H.W.W.W.W.W.`.].].`.W.W.W.W.W.W.W.!.W.W.H.H.H.H.W.H.H.H.H.H.M.N.N.N.N.t.t.w.q.w.7.w.w.t.t.t.t.t.t.t.t.t.8.7.7.<.:.P H G C x h 0 q 1 1 < < & # $ + + + X . . . . . . .     . . X . . . X   . .   @ e A T T T T T T T T T Y Y Y Y Y Y Y Y Y Y Y Y Y Y Y Y Y Y Y Y Y Y Y Y Y Y Y Y S S S Y Y Y Y Y Y Y Y Y m S S S S m m m m m m n n m m m S S S S S S S S m m m m m m m m Z Z Z Z Z Z Z Z S Z m n n n n m n n n n n n n n n n n n n n n v v b b v v v b b v v v l l p p p a a i i i t u u t u r r ",
"mXNXVXVXVXVXNXmXZXZXZXZXZXZXVXZXMXMXMXMXMXMXMXMXNXMXMXMXMXMXmXmXNXNXNXNXBXBXBXBXmXxXxXzXkXkXzXzXzXzXzXkXkXkXkXkXkXkXhXhXkXkXhXhXhXhXhXhXhXsXsXsXhXsXsXaXaXiXiXiXiXiXiXpXpXpXaXaXsXyX6X6XyX6X6X6XuX2XA.6XaX2X| c - 2 3 4 7 4 4 4 4 4 4 : ; ; ; - ; ; - - ; ; - - - - - - - - - - % % % = = - - - - - - % % % % % % % % - - - - - % = = = = % % % % @ o X X @ @ % - - - - - - ; ; ; ; ; ; ; ; ; 3 ; ; ; 3 3 3 4 4 4 4 4 g g g g w 8 8 8 9 9 9 q q C 0.G.H.H.H.K.W.H.W.].].W.W.W.W.W.W.W.W.W.W.W.W.W.H.H.H.H.H.H.H.H.M.M.M.M.N.N.t.w.w.w.w.w.w.t.t.t.N.N.N.N.t.w.w.8.7.7.:.:.P K G x j h 0 q 1 1 < * * * * # + + + . . . . . . .   . . . . . . . . X X X X . @ w d W Y m Y Y m Y T Y Y Y Y Y Y Y Y Y Y Y m m m Y Y Y Y Y Y Y Y Y Y Y Y Y Y Y Y Y Y S S S S S S S S S m m S S S S m S m m m m m m S m m m m m S S S m m m m m m m m m m m m m m m m Z m n n n n n n m n n n n m m m n n v v v n n v v v v v v v b b v v v v l l p p p i t t i a i t u u u r ",
"NXNXMXVXVXMXNXNXZXZXZXZXZXZXVXVXMXMXMXMXMXMXMXMXNXMXMXMXMXMXNXmXNXNXNXNXBXBXBXBXmXxXxXzXkXkXzXzXzXzXzXkXkXkXkXkXkXhXhXhXhXkXhXhXhXhXhXhXhXsXsXsXhXsXsXaXaXiXiXiXiXiXiXiXpXpXaXaXyXyXyXyX6X3X3X3X2X6X3Xf.| Z r 8 2 4 4 4 4 4 4 4 : : : : : ; ; - ; ; - - ; ; - - - - - - - - - - % % % = % - - - - - - % % % % % % % % - - - - - % - = = = % % % = % @ @ @ @ % = % % % - - - - - - - - ; ; ; ; ; ; ; ; 3 3 3 4 4 4 4 4 g g g g g w w 8 8 8 9 9 q * x ' 0.N.G.H.H.`.H.H.`.`.W.W.W.!.!.W.W.W.W.W.W.W.W.W.H.H.H.H.H.H.H.M.H.M.M.N.N.t.t.w.w.w.t.N.N.N.M.M.M.M.y.t.w.w.7.7.:.:.P K G x j h 0 q 1 < < * & & * # + + + . . . . . . .   . . . . . . . . . . . . . X - w m E Q Y m Y Y S Y Y Y Y Y Y Y Y Y Y Y S m m Y Y Y Y Y Y Y Y Y Y Y Y Y Y Y Y Y Y S S S S S S S S S m m S S S S m m m m m m m m m m m m m m S S S m m m m m m m m m m m m m m m m Z m n n n n n n m n n n n m m m n n n n v n n v v v v v v v b b v v v v l p p a p p t t i i i t u u r r ",
"NXMXMXMXMXMXNXNXZXZXZXZXZXVXVXVXMXMXMXMXMXMXMXMXNXMXMXMXMXNXNXmXNXNXmXBXBXxXxXBXmXxXxXzXkXkXzXzXzXzXzXkXkXkXkXkXkXhXhXhXhXhXhXhXhXhXhXhXsXsXsXsXsXsXaXaXiXiXiXiXiXiXiXiXiXiXiXiX6XiXiX6X6XyXyX3X6XC.X.Z e 2 - 3 4 4 4 4 4 4 4 4 : : : : : : ; - ; ; - - ; ; - - - - - - - - = = % % % = = - - - - - - % - % % % % % % - - - - - % = = = = % % % % % @ @ @ @ % % % % % % % - - - - - - ; ; ; ; ; 3 3 3 3 3 3 3 4 3 4 4 4 g g g g w 7 w w 8 8 9 9 0 q q x 0.L.L.H.H.H.H.K.H.M.H.`.!.!.!.W.W.W.`.W.W.W.W.W.H.H.H.H.H.H.H.H.H.H.M.M.M.N.y.y.y.y.M.M.M.M.M.M.M.y.t.w.w.7.7.<.:.P K G x j h q 6 1 < < < & & * & + + + . . . . . . .   . . . . . . . .     . . . . X % w m Q Y m Y T m Y Y Y Y Y Y Y Y Y Y Y m m m m Y Y Y Y Y Y Y Y Y Y Y Y Y Y Y Y Y S S S S S S S S S S S S S S m m m m m m n n m m m m m m m m S S m m m m m m m m m n n m m m m m Z m n n n n n n m m n n n n m m n n n n n n n v b b b b v b b b v v v l l p p a p i t t i a i t u r r r ",
"MXMXMXMXMXMXMXMXVXVXVXVXVXVXVXVXMXMXMXMXMXMXMXMXNXMXMXMXMXNXNXmXmXmXmXBXBXxXxXBXmXxXzXzXkXkXzXzXzXzXzXkXzXkXkXkXkXkXhXhXhXhXhXhXhXhXhXsXsXsXsXsXsXsXaXaXiXiXiXaXiXiXiXiXiXiXiXiX6XyX6X3X6XiX6XB.#.( r & 2 8 8 7 7 7 4 4 4 : 4 4 : : : : : : ; - ; ; - - ; ; - - - - - = = % % % % % % % % - - - - - - % - % % % % % % - - - - - % = = = = % % % @ @ o X X X @ @ @ @ % % % - - - % % - ; ; ; - - 3 3 3 3 3 3 3 3 3 3 3 4 g 4 g g g 7 w w w 8 8 9 9 9 6 q h C 6.L.G.H.H.H.H.K.W.W.W.!.!.!.`.W.`.W.W.W.W.W.W.H.H.H.W.H.H.H.H.H.H.M.M.M.M.N.M.M.M.M.M.M.M.M.M.y.t.w.w.7.7.<.:.P K G x j h q 6 1 1 < < & & * & + + X . . . . . . .     . . . . . . . . . . X X X X + + w n m Y E E m Y Y Y Y Y Y Y Y Y Y Y m m m m Y Y Y Y Y Y Y Y Y Y Y Y Y S Y m m S S S S S S S S S S S S S S m m m m m n n n n m m m m m m m m m m m m m m m m m m n n n m m m m Z m n n n n n n n n n n n n n n n n n n n n n v b b b b b b b b v v v l l p p a p i t r t t u u r r r r ",
"MXMXMXmXmXMXMXMXVXVXVXVXVXVXVXVXMXMXMXMXMXMXMXMXNXMXMXMXMXMXmXmXNXNXNXBXmXBXBXBXmXxXxXzXkXkXkXzXzXzXzXzXzXkXkXkXkXhXhXhXhXhXhXhXhXhXsXsXhXsXsXsXaXaXiXiXiXiXiXaXiXiXiXiXiXiXiXiX6X6X3X3XyX3X#.( 8 8 4 4 7 8 4 4 7 7 4 ; ; ; : 4 : : : : : : ; - : ; - - ; ; - - - - = = % % % % % % % = % - - = - - - - - % % % % % % - % - - - % = = = = % % % @ @ X X X X X X @ @ % % = - - - % % - - ; - - - 3 3 3 3 3 3 3 3 3 3 4 4 4 4 4 4 4 4 8 w w 8 8 8 2 9 0 9 6 6 j P G.L.G.N.K.@X[.M.W.W.W.W.W.W.`.W.W.W.W.W.W.H.H.H.H.H.H.H.H.H.H.M.M.M.M.N.M.M.M.M.M.M.M.M.M.N.t.w.w.8.7.<.:.P H G x j h q 6 1 * < < & & & # + X X . . . . . . .     . . . . . .   . . X X X + @ X . # r n W W E S S S Y Y Y Y Y Y Y Y Y m m m m S Y Y Y Y Y Y Y Y Y Y S S m m m m S S S S S S S S S S S S S S S m m m n n n m n m m m m m m m m m m m m m m m m m m m m m m m m m S Z m n v v n n n n n n n n n n n n n n n n n v v b b b b b b b v v v l l p p i i u r r u u u r r r 0 0 ",
"MXMXmXmXmXmXMXMXMXMXMXMXMXMXMXMXMXMXMXMXMXMXMXMXNXMXMXMXMXNXmXmXNXNXNXBXmXBXBXBXmXxXxXzXkXkXkXkXzXzXzXzXzXkXkXkXkXhXhXhXhXhXhXsXsXsXsXsXsXsXsXaXaXaXiXiXiXiXaXaXiXiXiXiXiXiXiXiXyX6X6XyX6Xi.D 0 & 3 8 8 7 3 ; ; 7 4 4 ; ; ; : : ; ; : : : : ; - : : - - ; ; - - - - - = - % % % % % % = % - = = - - - - - % % % % % % - % - - - % = = = = % % % @ @ @ o o X o o @ @ % % = - - - % = - - - - - - : 3 3 3 3 3 : : 3 3 3 4 4 4 4 4 4 5 5 8 7 7 7 7 r 8 2 5 0 0 q h L 9.L.G.H.H.W.H.H.H.W.W.W.W.W.W.W.W.W.W.H.H.H.H.H.H.H.H.H.H.H.M.M.M.M.M.M.M.M.M.M.M.M.M.M.N.t.t.w.8.7.<.:.P J G x j h q 1 1 * < * & & * # $ X X . . . . . . .                   . . . . . X @ X X X 2 p Y E Y S Y Y Y Y Y Y Y Y Y Y Y m m m m Y Y Y Y Y Y Y Y Y S S S Y m m m m S S S S S S S S S S S S S S S S m m m m n n m m S S m m m m m m m m m m m m m m m m m m m m m m S Z n n v n n m n n n n n n n n n n n n n n n v v v b b b b b b v v v c l p p p i u r r r u r r r r r 0 ",
"MXMXmXmXmXNXMXNXMXMXMXMXMXMXMXMXMXMXMXMXMXMXMXMXNXMXMXMXMXMXmXmXNXNXNXmXmXBXBXBXBXxXxXzXkXkXkXkXzXzXzXzXkXkXkXkXhXhXhXhXhXhXhXsXsXsXsXsXsXsXaXaXaXiXiXiXiXiXaXaXyXyXuXuXuXuXyXyXuXyXyX3X#.D 0 3 r 8 3 3 3 3 3 ; 4 4 ; ; : ; : : - ; ; : : : : - : ; - - : : - - - - - - = = = = % % % - % - - - - - - - - % % % % % % % % - - - % - = - = % % % % @ @ @ @ @ @ @ @ @ @ % % = - - = - - - - - - - : : 3 3 3 3 : : ; 3 : : 4 4 4 4 4 4 5 8 7 w 7 7 ; 8 8 3 1 1 1 0 h G 7.N.N.N.M.W.H.H.H.H.W.H.K.K.W.W.W.H.H.H.H.H.H.H.H.H.H.H.M.M.M.M.M.M.M.M.M.M.M.M.M.M.M.M.N.y.w.w.7.<.:.P J G x j h q 1 1 * < * * # # + $ X X . . . . . . .                     . X .   . . . X X + 3 u m Y m Y Y Y Y Y Y Y Y Y Y Y Y m m m Y S Y Y Y Y Y Y Y S S Y S S m m m S S S S S S S S m m S S S S S S m m m m m m m m S S S m m m m m m m m m m m m m m m m m m m m m Z m n n v v n m m n n n n n n m n n n n n n n v v v v v b b b v v v v v l p p a a t r r u t u r r r r 0 ",
"MXMXmXBXBXmXNXMXMXMXMXMXMXMXMXMXMXMXMXMXMXMXMXMXNXMXMXMXMXMXmXmXNXNXNXmXmXBXBXBXxXxXzXzXkXkXkXkXzXzXzXkXkXkXkXkXhXhXhXhXhXhXhXsXsXsXsXsXsXsXsXaXiXiXiXiXiXiXaXaXyXyXyXuXuXuXuXuX6X3X2Xp.~ 3 & 5 3 4 8 4 ; - ; 4 ; ; ; ; ; ; ; : - - ; : : : : : : ; - - : : - - - - - - - - = - % % % - % - - - - - - - - % % % % % % % - - - - % - - - = % % % % @ @ @ @ @ o o X o @ @ % % = = - - - - - - - ; : : : : 3 : : : ; ; : : : : : 4 4 4 4 8 7 7 7 7 4 w 7 8 r 0 9 1 6 6 j 6.L.H.N.N.H.H.H.H.H.H.W.H.H.H.H.H.H.H.H.H.H.H.H.H.H.H.M.M.M.M.M.M.M.M.M.M.P.!.!.P.M.M.M.y.w.w.7.<.:.P J G x j h 6 1 < * < # # # # + + + X . . . . . . .                     X @ .   . . .   X . . 2 c Y m Y Y Y Y Y Y Y Y Y Y Y Y Y Y m S S Y Y Y Y Y Y Y S S Y S S m m m S S S S S S S S m m m m S S S S S m m m m m m S S S S m m m m m m m m m m m m m m m m m m m m m Z m n n v v n m m n n n n n n m n v v v v v v v v v v v v v b v v v v v l l p p p a t t i i i t r r r r ",
"mXmXmXmXmXmXmXVXVXVXVXVXVXVXVXVXVXVXVXVXVXVXVXVXmXmXmXmXmXmXmXmXBXBXNXBXBXxXxXxXxXxXxXzXzXkXkXkXxXxXxXkXkXkXkXkXlXlXlXhXhXhXhXhXhXhXhXsXsXsXsXsXaXuXuXuXuXaXaXuX6XiXiX6X6X9XuX9X4XsXp.c 8 w 5 2 3 4 4 4 4 : ; - ; ; ; ; ; ; ; ; - ; ; ; ; ; - - ; ; - - - - - - % = = = = = = = = = % % % % % % = = = = = = - = % % % % % % % % % - = - - = = % @ @ @ @ @ @ o o o o o @ @ % = - = - - - - ; ; ; ; ; ; ; ; : 3 3 3 : : ; ; ; ; : 4 4 4 4 7 7 7 7 7 7 7 7 7 7 8 8 0 6 1 h I 8.G.t.N.H.H.H.M.R.!.!.H.H.H.H.H.H.H.M.H.H.H.M.M.M.M.M.M.M.M.M.M.M.M.M.!.!.M.M.M.M.M.N.w.w.7.<.:.L J G x h q 6 1 * * & & * + + + + X X . . . . .                       . . . . . . . . . . . . X ; f T T Y Y Y A A Y Y A S Y Y Y Y Y Y m m m m m m S S m m m m m m m S S m m m S S m m m m m m m m m m m m m m m m m m m m m m m m m m m m m m m m m m n n n n n n n n Z Z Z m m n n n n n m n v v v v v v v v v v v v b b b b b b b v v v v v c l p p a a t t a a t t t u r r ",
"mXmXmXmXmXmXmXVXVXVXVXVXVXVXVXVXVXVXVXVXVXVXVXVXmXmXmXmXmXmXmXmXBXBXNXBXBXxXxXxXxXxXxXzXzXkXkXkXxXxXkXkXkXkXkXkXlXlXhXhXhXhXhXhXhXhXhXhXsXsXaXaXkXhXsXsXaXaXuX6X3X9XiXiXaXaXuX8X7Xh.Q e 3 4 3 3 3 4 3 4 4 ; ; - ; ; ; ; ; ; ; ; ; ; ; ; ; ; - - - - - = % % = = - - - - = = % % - = = = % % % % % % % % % % % % % % % % % % % % % % % = = % % % % % % @ @ @ @ @ @ o o o @ @ % % = = - - - - ; ; ; ; ; ; ; ; 3 3 : : : ; ; : ; : 4 4 4 4 7 7 7 7 7 7 7 7 7 7 7 7 5 w 0 9 6 j P 9.G.H.H.M.M.M.P.M.H.H.H.H.H.H.H.M.M.M.M.M.M.M.M.M.M.M.M.M.M.M.M.M.!.!.P.P.M.M.M.y.w.w.7.<.:.L J G x h q 6 1 * * & % % + o o o X . . . . . . . . .                 . . . . . . . . X X X . . % 7 y n T Q A n Y Y A A A S Y Y Y Y Y Y Y S S S S S S m m m m m m m S S m m m S S m m m m m m m m m m m m m m m m m m m m m m m m m m m m m m m m m m n n n n n n n m Z Z Z m m m n n n n n n v v v v v v v v v v v v b b b b b b v v v v v v c l p p p i t t i a t u r u r r ",
"mXmXmXmXmXmXNXVXVXVXVXVXVXVXVXVXVXVXVXVXVXVXVXVXNXNXmXmXmXmXmXmXNXBXNXBXBXxXxXxXxXxXxXzXzXkXkXkXkXkXkXkXkXkXkXkXlXhXhXhXhXhXhXhXsXsXsXaXaXaXaXaXaXaXuXuXuXuX6X6XiXiXiX9X6XuXuX9XaX] e 3 3 3 3 4 : 4 4 : : ; ; - ; ; ; ; ; ; ; ; ; ; ; ; ; - - - = = = = = % % % - - - - - = % % - - - - = = = % % % % % % % % % % % % % % % % % % % % % % % % % % % % % @ @ @ @ @ @ o X o @ @ @ % % = - - - ; ; ; ; ; ; ; ; ; 3 : : : ; ; : ; 3 4 4 4 4 7 7 7 7 7 7 7 7 7 7 7 7 3 8 8 5 1 6 j C 6.9.N.H.M.M.H.H.M.M.M.H.M.H.M.M.M.M.M.M.M.M.M.M.M.M.M.M.M.M.M.M.!.!.!.P.R.M.M.y.w.w.<.<.:.P G C j h q 6 1 * # & % % + o o X X . . . . . . . . .                 . . . .   . . . . X . . . X @ % y Y Q A d Y T n A A A A Y Y Y Y Y Y S S S S S S S m m m m m m S S m m m S S m m m m m m m m m m m m m m m m m m m m m m m m m m m m m m m m m m m m m n n n m m S Z Z m m m n n n n n n v v v v v v v v v v v v v v b v b b b b v v v v l l p p p i t t i a t t r u u u ",
"mXmXmXmXmXmXmXVXVXVXVXVXVXVXVXVXVXVXVXVXVXVXVXVXVXNXNXmXmXmXmXmXNXNXNXBXBXxXBXBXxXxXxXzXzXkXkXkXkXkXkXkXkXkXkXkXhXhXhXhXhXhXhXhXaXaXaXaXaXaXaXaXsXaXuXuXuXiXuXuX6X6X6X6X9XaXsXsXV.v - 3 3 2 4 3 3 : : : ; ; ; - - - - - - - - - ; ; ; ; - - - - = - - - - - % % - - - - - - - - - - - - - - = = % % % % % % % % % % % % % % % % % % % % % % % % % % % % @ @ @ @ @ @ o X X X o @ % % % - - - ; ; ; ; ; ; ; ; ; ; : : : ; ; : ; : : 4 4 4 4 7 7 7 7 7 7 7 7 7 7 7 4 3 5 9 0 0 6 6 j H 7.t.N.N.N.M.N.N.N.M.M.M.M.M.M.M.M.M.M.M.M.M.M.M.M.M.P.!.!.M.!.!.!.!.P.M.M.N.w.7.<.:.:.P G C j h q 1 1 * # * % % + X X X X . . . . . . . . .                 . . .       . . .     . . . X . : f T Y A Y Y n A A Y A S Y Y Y Y Y Y Y Y Y Y Y S m m m m m m S S m m m S S m m m m m m m m m m m m m m m m m m m m m m m m m m m m m m m m m m m m m n n n m m S Z Z m m n n n v n n v v v v v v v v v v v v v v v v v b b b b v v v v l p p p p i t t i i t t r r u i ",
"mXmXmXmXmXmXMXVXVXVXVXVXVXVXVXVXVXVXVXVXVXVXVXVXVXVXmXmXmXmXmXmXmXmXmXBXBXBXBXBXxXxXxXzXzXkXzXzXkXkXkXkXkXkXkXkXlXlXhXhXhXhXhXhXaXaXaXaXiXiXiXiXaXuX6X6X6X9X9X9XuX6X3XS.B.#.o.| W 8 - 3 ; - 3 - 3 : : ; ; - - - - - - - - - - - ; ; - - - - - - = - - - - - % % - - - - - - - - - - - - - - = = = = = = - - - - % % % % % % % % % % = - - = % % % % % @ @ @ @ @ @ @ o X X X X X @ % % = - - - ; ; ; ; ; ; ; ; ; : ; ; ; ; ; ; : : 4 4 4 4 4 4 4 7 7 7 7 7 7 7 7 w e e 8 5 1 6 q 6 h G L 7.9.t.t.t.N.N.N.M.M.M.M.M.M.M.M.M.M.M.M.M.M.M.R.Y.Y.!.!.!.!.!.M.M.M.M.y.w.7.<.:.:.K G x j 0 6 1 < * # * % + o X X X X . . . .                           . .         . . .       . X X X @ 4 f Y T A A Y A A A A A A Y Y Y Y Y Y Y Y Y Y S m m m m m m S S m m m S S m m m m m m m m m m m m m m m m m m m m m m m m m m m m m m m m m m n n n n n n n n S S Z n n n n n n n v v v v v v v v v v v v v v v v b b b b v v v v v v l p p p p a t t i i t u r r u t ",
"mXmXmXmXmXmXMXVXVXVXVXVXVXVXVXVXVXVXVXVXVXVXVXVXVXVXmXmXmXmXmXmXmXmXmXBXBXBXBXBXxXxXxXzXzXzXzXzXkXkXkXkXkXkXkXlXhXhXhXhXhXhXhXsXaXaXaXaXaXiXiXiXuX6X6X6XuXuXuXuXaXC.o.( v r 7 3 8 - ; 3 2 3 3 ; 3 ; ; - - - - - - - - - - - - - ; ; - - - - - - = = = = = % % % % % = - - - - - - - - - = = = % = = = = = - - - % % % % % % % % % = - - - - = % % % % @ @ @ @ @ @ @ @ X X X X X @ @ % % - - - ; - ; ; ; ; ; ; ; : ; ; ; ; ; ; 3 : : 4 4 4 4 4 4 4 7 7 7 4 4 4 4 w w w 7 < < 5 q 6 6 6 j P 9.G.t.w.w.w.N.N.M.M.M.M.M.M.M.M.M.M.M.M.H.P.!.!.!.!.!.Y.!.!.M.M.M.M.y.w.7.<.:.L K G x j q 6 1 < # # & % + o X X X . .                                 . .         . . X . . . . X X X . o 7 d T A n Y A A A A A A S S Y Y Y Y S S S Y S m m m m m m S S m m m S S m m m m m m m m m m m m m m m m m m m m m m m m m m m m m m m m m m n n n n n n n n S S Z n m n n n v v v v v v v v v v v v v v v v v v b b v b v v v v v v l p p p a a t t i a t u r r r r ",
"mXmXmXmXmXmXMXVXVXVXVXVXVXVXVXVXVXVXVXVXVXVXVXVXVXVXMXmXmXmXmXmXNXNXmXBXBXBXBXBXxXxXxXzXzXkXkXzXkXkXkXkXkXkXlXlXhXhXhXhXhXhXsXsXcXaXaXaXiXaXaXaXhXcXaXaXuX6XZ.B.) Z 0 2 & & 4 e 3 4 3 3 4 4 3 4 3 : ; - - - - - - - - - - - - - ; ; - - - - - - - - - = % % = = % % = = - - - - - = = = % % % % % % % % % % % % % % % % % % % % % % = = = = % % % % % % @ @ @ @ @ @ @ X X X o o @ @ @ % = - - ; - - ; ; ; ; ; ; : ; ; ; ; ; ; 3 ; : 4 4 4 4 4 4 4 7 4 4 4 4 7 4 w w 4 7 8 9 1 < 6 1 1 6 j ' 0.9.7.w.w.w.t.N.N.N.N.N.M.M.M.M.M.M.M.R.P.!.!.!.!.!.!.!.!.M.M.M.M.y.q.7.<.:.P K G x h 0 6 1 * # + & % + o X X X . . . .                             .             . . . . . . . X X . . % e d Y Y A A A A A A A A A Y Y Y Y Y Y Y Y S m m m m m m S S m m m S S m m m m m m m m m m m m m m m m m m m m m m m m m m m m m m m m m m n n n m n m n n Z S Z n m n n n v v v v v v c c v v v v v v v v v b b b v v v v v v v v c p p p a a t t i i t u r r r r ",
"mXmXmXmXmXmXMXVXVXVXVXVXVXVXVXVXVXVXVXVXVXVXVXVXVXVXMXmXmXmXmXmXNXNXmXBXBXBXBXBXxXxXxXzXzXkXkXkXkXkXkXkXkXlXlXlXhXhXhXsXsXsXsXsXcXcXcXaXaXaXaXaXuX9X6XC.#.[ Z p 8 3 2 4 8 9 4 4 8 w - % 4 3 % 4 : ; - - - - - - - - - - - - - - ; ; - - - - - - ; ; - - - - - - = = = = = = = % = = % % % % % % % % % % % % % % % % % % % % % % % % % % % % % % = = % % % % @ @ @ @ @ o X o @ @ @ @ @ % = - - - - - - ; ; ; ; ; : ; ; ; ; ; ; 3 ; : 4 4 4 4 4 4 4 4 7 4 4 4 7 7 w w 7 7 7 4 9 9 3 9 6 1 1 0 F ' 7.7.7.w.w.w.w.t.N.N.M.M.M.M.M.M.P.R.R.!.!.!.!.!.!.Y.!.!.M.M.M.y.q.7.<.:.L K G x h q 1 1 & # + % % + o X X X . . . . . . .                       .             .   . . X . . . X . X o - y Y T n A A A A A A A A S S m m m m S S S m m m m m m S S m m m S m m m m m m m m m m m m m m m m m m m m m m m m m m m m m m m m m m m n n n m m m n n Z Z Z n m n n n n v v v v v c c v v v v v v v v v b b b v v v v v v v v c l p p a a t t a i t u r r 0 0 ",
"mXmXmXmXmXmXmXmXmXmXVXVXVXVXVXVXVXVXVXNXNXmXmXmXMXVXVXVXVXVXmXmXBXBXBXBXBXxXxXxXxXxXxXzXzXkXkXkXkXkXkXkXlXhXhXsXlXsXaXaXaXaXaXsXlXlXaX9XaXlXlXhX9Xd.( p 9 3 9 8 9 4 4 4 4 4 4 4 4 3 ; ; ; ; ; ; ; ; ; - - - - - - - - - - - - - - - - - - - - = - - - - - - - - - = % % % % % % % % % % % % % % % % % % % % % % % % % % % % % % % % % % % % % % = % % % % % % % % % @ @ @ o X X X o @ % % - - - - - ; ; ; ; ; ; ; ; ; ; ; ; ; ; : : 4 4 4 4 4 4 4 4 4 4 4 7 7 7 w w w 7 7 7 7 8 9 9 9 6 6 6 9 q K :.7.7.8.w.t.t.w.N.M.M.N.M.M.M.M.H.!.W.Y.Y.!.!.!.!.!.!.M.M.M.N.w.7.<.:.P G C x k 0 1 * & & & & % + o X X X . . . . .                                           . . . . . . . . @ .   . - y n T n Y Y Y Y A A A n n n m m S S Y m m m m m m m m m m m m m m m m n n n m m m n n m m m n n n n m m m m m m m m m m m m m m m m m n n n n n n n n Z Z Z m m n n n n n n v v v v v v v v b Z Z Z v v v v v b b b b v v l l l l p p a a i i i i u r r r 0 9 ",
"mXmXmXmXmXmXmXmXmXmXNXNXVXVXVXVXVXVXVXNXmXmXmXmXVXmXVXVXNXVXmXmXBXBXBXBXBXxXxXxXxXxXxXzXkXkXkXkXkXkXkXkXlXhXhXsXsXhXkXkXlXaXaXaX8XaXlXlXaX2X#.X.D p r 8 9 3 3 3 4 4 4 4 4 4 4 4 4 3 ; ; ; ; ; ; ; ; ; - - - - - - - - - - - - - - - - - - - = = - - = = = % % % - = % % % % % % % % % % % % % % % % % % % % % % % % % % % % % % % % % % % % % % = % % % % % % % @ @ @ @ @ o X X X X @ @ % = - - - - - ; ; ; ; ; ; ; ; ; ; ; ; ; : : : 4 4 4 4 4 4 4 4 4 4 4 7 7 7 w w w 7 7 7 7 9 9 9 9 3 9 9 6 q x L 0.0.9.9.t.t.w.t.N.M.M.M.M.H.!.!.!.Y.Y.!.!.!.!.!.P.M.M.M.y.w.7.:.L P G C x h 6 1 * * & * * % + X X X . . . . . .                                           . . . . . . . . X . . . @ 4 y d Y T Y Y A A A Y A A m A S Y Y Y m m m m m m m m m m m m m m m m n n m m m m n n m m n n n n m m m m m m m m m m m m m m m m m m n n n n n n n m Z Z m m m n n n n n v v v v v v v v v Z Z Z Z v b v v v b b b b v v l l l l p p a a i i i i u r u r r 8 ",
"mXmXmXmXmXmXmXmXmXmXmXNXmXmXMXMXVXVXVXmXmXmXmXmXVXNXVXVXmXmXmXmXBXBXBXBXBXxXxXxXxXxXxXzXkXkXkXkXkXkXkXlXlXlXhXsXhXlXkXlXaXaXuXaXlXsX8XB.@.( v 0 3 & 2 3 3 3 2 4 4 4 4 4 3 3 4 4 3 ; ; ; ; ; ; ; : ; ; - - - - - - - - - - - - - - - - - - - - % - = = = % % % % - = % % % % % % % % % % % % % % % % % % % % % % % % % % % % % % % % % % % % % % % % % % % % % % @ @ @ @ @ @ X X X X @ @ % = - - - - - ; ; ; ; - ; ; ; ; ; ; ; ; ; ; : : : 4 4 4 4 4 4 4 4 4 4 4 7 7 7 7 w w 7 7 7 4 4 3 3 3 9 5 1 6 j G 6.9.9.9.N.w.w.N.M.M.M.M.H.W.W.!.!.!.!.!.!.!.M.M.M.M.M.t.7.7.:.P K G x j q 6 * * * & % % % + o X X X . . . . .                                                 . . . . . . X X . . o ; e d A A A A A n A A A A A A Y Y Y m m m m m m m m m m m m m m m m n n n n m n n n m n n n n n n m m m m m m m m m m m m m m m m m m n m n n m m m Z m m m n n n n n v v v v v v v v v v Z v Z v v b b v v b v b b v v c l c l p p a a i i i i t r u u r r ",
"mXmXmXmXmXmXmXmXmXmXmXNXmXmXMXMXVXVXVXmXmXmXmXmXmXNXMXmXmXmXmXmXBXBXBXBXBXxXxXxXxXxXzXzXkXkXkXkXkXkXkXlXlXlXhXsXsXhXaXaXaXhXhXsXeXV.X.S y 8 4 3 8 8 7 7 4 - - 4 4 4 ; ; ; ; ; ; ; ; ; ; ; ; ; ; : ; ; - - - = = - - - - - - - - - - = - - - - % - - - - - - = = - = % % % % % % % % % % % % % % % % % % % % % % % % % % % % % % % % % % % % % % % % % % @ @ % % @ @ @ @ @ @ o X X X o @ @ % - - - - - - - - - - - - ; ; ; ; ; ; ; ; ; ; : : : : 4 4 4 4 4 4 4 4 7 4 4 4 4 4 g g 4 4 4 4 4 4 4 3 6 1 1 6 x ' 0.9.N.t.t.N.M.N.M.M.R.W.W.!.!.!.!.!.!.!.!.!.M.M.M.y.8.6.:.P H G x j 6 1 < * & & * % + o X . X X . . . . .                                               . . . . . .   . X .     @ - w y f Y Y Y A n A A A n m S Y Y m m m m m m m m n n n n n n n n n n n n m m n n m n m n n n n m n n n n n n n n n n n n n n n n m m m n n n m m m m m n n n n n n v v v v v v v v v v Z v v v v v v v v v v v v v v c c c l p p a i t i i i r r u r r r ",
"mXmXmXmXmXmXmXmXmXmXNXNXmXmXmXmXVXVXVXmXVXmXmXmXmXmXmXmXmXmXmXmXBXBXmXBXBXxXxXxXxXxXzXkXkXkXkXkXkXkXkXkXlXlXhXsXuXaXhXhXkXkX6XC.) T f w 4 4 4 7 7 4 ; - - % - 4 4 : : ; ; ; ; ; ; ; ; - - - - - ; ; - - = - = = - - - - - - - - - - = = - - = % - - - - - = = = - = % % % % % % % % % % % % % % % % % % % % % % % % % % % % % % % % % % % % % @ % % % @ @ @ @ % @ @ @ @ @ @ o X X X X o @ % % - - - - - - - - - - - - ; ; ; ; ; ; ; ; ; ; ; ; : 4 4 4 4 4 4 4 4 7 4 4 4 5 g g g g g 4 4 7 7 4 4 2 5 9 1 1 0 J 6.0.t.N.N.t.M.M.M.R.R.!.!.!.!.!.!.!.!.!.!.M.M.M.t.w.7.:.K G G j h 1 1 * * & & % + + X . . . . . . . .                                             . . . . . . . . . . . . . . X @ = : y f A A Y Y A A A A Y Y Y Y m m m m m m m m n n n n n n n n m m m n n n n n m n n n n n n m n n n n n n n n n n n n n n n n n n n n n n n n m m n n n n n n n v v v v v v v v v v v Z Z v v v v v v v v v v v v l l c l p a a i t t i u u r r r r r ",
"mXmXmXmXmXmXmXmXmXmXmXVXmXmXmXmXVXVXVXmXVXmXmXmXmXmXmXmXmXmXmXmXBXBXmXBXBXxXxXxXxXxXzXkXkXkXkXkXkXkXkXkXlXlXhXhXuXhXkXhX6XB.| v y w 4 4 4 4 7 7 ; - - ; ; ; ; 3 4 : : ; ; ; ; ; ; ; - - - - - - ; - - - = - - - - - - - - - = = - = = = - - = % % % % % % % % % - = % % % % % % % % % % % % % % % % % % % % % % % % % % % % % % % % % % % % @ @ % % % @ @ @ @ @ @ @ @ @ @ @ @ o o o X X @ @ % % = - - - - - - - - - - - ; ; ; ; ; ; ; ; ; ; ; ; : : : 4 4 4 4 4 4 3 5 4 5 4 g g g g w 4 7 7 4 4 2 3 8 5 < 1 q j J 6.t.t.t.M.M.M.H.R.!.!.!.!.!.!.!.Y.!.P.M.M.y.t.w.6.L K G C j q 1 < * * * % + o o X . . . . . .                                                 . . . . . . . . . . . . X X . . X o = ; w y f n A A Y Y Y Y Y T m m m m m m m m n n n n n n n n m m m n n n n n m n n n n n n m v v v v v n v v n v n n v v v v n n n n m n n n n n n n n n n n n v v v v v v v v v v v Z Z Z v v v v v v v v v v v c l c l p a a i t t i y u r 0 0 0 r ",
"mXmXmXmXmXmXmXmXmXmXVXVXVXVXmXVXVXVXVXVXVXmXmXmXmXmXmXmXmXmXmXmXBXBXBXBXBXxXxXxXxXxXkXkXkXkXkXkXkXkXkXkXlXlXhXhXhXhX6Xd.X.D 0 & r 4 : : 3 3 3 4 4 : ; 3 4 3 : : 4 4 : : ; ; ; ; ; ; - - - - - - - - - - - - - - - - - - - - = % - - % = - - = % % % % % % % % % - = % % % % % % % % % % % % % % % % % % % % % % % % % % % % % % % % % % % @ @ @ % % @ @ @ @ @ @ @ @ @ @ @ @ @ o @ @ o X X @ @ @ % = - - - - - - - - - - - ; ; ; - ; ; ; ; ; ; ; ; ; : : : 4 4 4 5 5 5 5 5 5 g g g g w w 7 4 : : 4 : ; 4 9 5 1 1 h G :.8.t.M.M.M.M.H.!.Y.!.!.!.!.!.!.P.M.M.M.t.w.7.<.L P K x h 6 < * * * * * % o X X . . . . . .                                                 . . . . . . . . . . . . . . . .       . o = 7 e d d m Y Y Y Y Y m m m m m m m m n n n n n n n n m m n n n n m m m m n n n n n m n n n n n n n n n n n n n n n n n n n m m m n n n n n n n n v v n n n v v v v v v v v Z Z Z Z v v v v v v v v v v v l l l l p a i i u t y t r r 8 0 0 0 ",
"mXmXmXmXmXmXmXmXmXmXVXVXVXVXVXVXVXVXVXVXVXmXmXmXmXmXmXmXmXmXmXmXBXBXBXBXBXxXxXxXxXxXkXkXkXkXkXkXkXkXkXkXlXlXhXhXsX6Xd.( y 9 9 8 7 3 : g w 4 ; ; 3 - @ = ; : : : 4 4 : : : ; ; ; ; - - - - - - - - - - - - - - - - - - - - = % % - - % % - - % % - - - = = = % % - = % % % % % % % % % % % % % % % % % % % % % % % % % % % % % % % % % % @ @ @ @ % % @ @ @ @ @ @ @ @ @ @ @ @ @ @ @ @ o X X o @ @ % = - - - - - - - - - - - ; ; ; - - ; ; ; ; ; ; ; ; ; : : : 4 4 5 5 5 5 5 5 g g g g g g 4 4 : ; 4 : 4 4 4 3 1 6 1 q G 7.t.t.M.M.M.M.P.!.!.!.!.!.M.M.M.M.M.M.t.w.7.<.L L K x q * 1 * & & & % % % o . . . . . . .                                                       . . . . .   . . . .     . X O X X X @ - ; a f d n A A n n S m m m m m m m n n n n n n n n m m m n n n m n m m n n n n n m n n n n n n n n n n n n n n n n n n n m m m n n n n n n n n v v n n v v v v v v v v v v Z Z Z v v v v v v v v v v v l l l l p a i t u u t t u r e 0 r r ",
"xXxXxXxXxXmXmXVXmXmXmXmXmXmXmXmXmXmXmXmXmXmXmXmXmXmXmXmXmXxXxXxXmXxXxXxXxXxXxXBXkXzXxXBXzXkXkXkXlXkXkXlXkXkXlX9X4XX.p 8 e 8 7 4 7 4 ; ; ; ; ; ; ; - - - - - ; ; : : : ; ; ; - - ; - - - - - - - - - = = = = = - = = - - - - - = = = = = = = = = - - - = = % % % = = = = = = = = = = = = = = = = = = = = = = = = = = = = = = = = = = = = = % % % = = = @ @ @ @ @ @ @ @ @ @ % % % @ @ @ @ @ o o o = = = - - - - - - - - - - : : : - - - ; : : : : : : : : : 4 4 4 4 4 4 4 4 4 4 4 4 g w w 4 : : 4 4 4 : 4 7 7 7 3 1 $ 1 x 8.H.N.y.M.M.M.P.M.M.M.P.M.M.M.M.M.M.w.7.7.:.L P G h 6 * + % & & - & & % X . . X o o .                                                   . . . . . . . . . . . . . . . X .     . X @ @ X % - : e f A Y Y Y Y S n v v m m f v v n m m m m m n n m m m n v m m m m m n n n m m m m m m m m m m m m m m m m n n n v v n n n v n n n n n v v v v v v v v v v v v v v v v v v v v v v v v v v v v v v c l p i p a u t u u u u u u u r ",
"xXxXxXxXxXmXmXVXmXmXmXmXmXmXmXmXmXmXmXmXmXmXmXmXmXmXmXmXxXxXxXxXxXxXxXzXxXxXxXBXxXzXkXkXlXlXlXlXkXkXlXlXkXlX8XC.W a 9 7 8 8 7 7 7 4 ; ; ; ; ; ; - - - - - - ; ; ; ; ; ; ; - - - ; - - - - - - - - - - - = = - - = - - - - - - = = = = = = = = = - - - = = % % % = = = = = = = = = = = = = = = = = = = = = = = = = = = = = = = = = = = = = % % % = = = @ @ @ @ @ @ @ @ @ @ @ % % @ @ @ @ @ o o o @ % = - - - - - - - - - - - : : - - - ; ; : : : : : : : : : 4 4 4 4 4 4 4 4 4 4 4 4 w w 4 : : : 4 4 7 7 7 : ; - + < 1 q N 0.N.N.M.M.M.M.!.!.U.P.M.M.M.M.M.N.w.7.7.L P I j q 1 & % % % % * % & & @ o X . . . . .                                                 . . . . . . .   . . . . . . . . .   . . X X X X @ @ @ = 4 e f n W W T Y m n n m S m m m m m n m n n n n m m m n m m m m m n n n m m m m m m m m m m m m m m m m n n n n v v n n v v n n n n v v v v v v v v v v v v v v v Z v v v v v v v v v v v v v v l l p p p a u u u u u y u u r r ",
"xXxXxXxXxXmXmXVXmXmXmXmXmXmXmXmXmXmXmXmXmXmXmXmXmXmXmXxXxXxXxXxXxXxXxXxXxXxXxXxXzXkXkXkXzXBXkXkXsXkXkXsX4X%._ Z 8 4 9 8 8 7 4 7 7 4 ; ; ; ; ; - - = = = - - ; ; ; ; ; ; ; - - - - - - - - - - - - - - - - - - - - - - - - - - - = = = = - - = = - - = % % % % % = = = = = = = = = = = = = = = = = = = = = = = = = = = = = = = = = = = = = = @ % = = = @ @ @ @ @ @ @ @ @ @ @ @ @ = @ @ @ o o o o o @ = - - - - - - - - - - - - : - - - - ; ; : : : : : : : : : 4 4 4 4 4 4 4 4 4 4 4 w 4 4 : : 4 4 7 w 7 4 ; % # + < 1 * 6 x 6.t.N.M.M.N.M.P.M.M.M.M.M.M.N.w.w.7.6.L P J h 1 < & % @ o X X + * % % @ o .       .                                                 . . .   . . .   . . . . . . . . . . . . . . X X X X X . . % 4 e a f f f v m Y T S S m m m m A Y n n v n n m m m m m m m m m n n m m m m m m m m m m m m m m m m n n n n n n n n v v v v n v v v v v v v v v v v v v v v v v v v v v v v v v v v v v v v l l p p p a u u u u u u r r r r ",
"xXxXxXxXxXmXmXVXmXmXmXmXmXmXmXmXmXmXmXmXmXmXmXmXmXmXmXxXxXxXxXxXxXxXxXxXxXxXxXxXkXzXBXBXBXBXzXsXlXkXaXh._ d 8 8 r 8 8 8 7 ; ; 7 4 3 ; : : ; - - = = % = - - ; ; ; ; ; ; ; ; - - - - - - - - - - - - = = - - - - - - - - - - - - = = = = = - - = - = = % % % % % = = = = = = = = = = = = = = = = = = = = = = = = = = = = = = = = = = = = = = @ @ = = = @ @ @ @ @ @ @ @ @ @ @ @ @ = = @ @ o o X . X o @ = - - - - - - - - - - - - - - - - - ; : : : : : : : : : : 4 4 4 4 4 4 4 : 4 4 4 4 4 : 4 4 3 4 7 4 : = % % - & 1 1 1 6 j H t.N.H.M.M.M.M.M.M.M.N.e.w.w.7.7.6.P I C 0 1 $ + X .       . X X % = % o .     .                                                 . . .   . . . . . . . . . .     . X X X . . . X X o X X . X @ % @ % ; 4 w y v m n n n m m m m m m n n n n m m m m m m m m m m m m m m m m m m m m m m m m m m m n n n n n n n n v v v v v v v v v v v v v v v v v v v v v v v v v v v v v v v v v v v v l l p p p a u a u u u u r r r r ",
"xXxXxXxXxXxXmXmXmXmXmXmXmXmXmXmXmXmXmXmXmXmXmXmXmXmXmXxXmXxXxXxXxXxXxXxXxXxXxXBXkXBXBXkXlXkXkXsXsX4X@.Y r 4 8 y e 8 7 7 4 : 4 7 : ; ; ; : ; - % = = % = - - ; : - ; ; ; ; ; ; ; - - - - - - - - - - - - - - = = - - - - - - = = = = - - = = % % - - - % = % % % = = = = = = = = = = = = = = = = = = = = = = = = = = = = = = = = = = = = = = % @ = = % @ @ @ @ @ % % @ @ @ @ @ @ = % @ @ o o X . . o @ = - - - - - - - - - - - - - - - - - - : : : : : : : : : : 4 4 4 4 : 4 : : 4 4 4 4 : : 4 4 4 4 4 ; = @ % % - & < 5 6 1 6 h G <.t.M.N.N.N.N.N.N.e.w.w.7.7.7.6.J x j 6 $ X                   @ = = % o .   .                                                 . . .   . . . . . . . . . . .   . X X X . . . X @ X X X @ @ X . . . @ @ - ; 4 4 a f f d v v v v m m m m n n n n m m n m n n n m n n n m n n n n n n n n n n n n n v v n n v v v n n v v v v v v v v v v v v v v v v v v v v v v v v v v v v v v v v v v c l p p a a u a t t u u r r r r ",
"mXxXxXxXxXxXmXAXmXmXmXmXmXmXmXmXmXmXmXmXmXmXmXmXmXmXmXxXmXxXxXxXxXxXxXxXxXxXxXxXkXxXkXsXlXBXBXkXg.X.n r r e w w 8 7 4 7 7 7 4 - : ; ; ; ; ; - % = % % % = - - ; - - - ; ; ; ; ; - - - - = = - - = - - - - - = = - - - - - = % % = = = - = = % % - - - = = % % % = = = = = = = = = = = = = = = = = = = = = = = = = = = = = = = = = = = = = = @ @ % % @ @ @ @ @ @ % % @ @ @ @ @ @ % @ @ @ o o o X X o @ @ = = - - - - - - - - - - - - - - - - - - ; : : : : : : : : : : 3 : : : : : 4 4 4 : : 4 4 8 7 ; % o o o @ @ - 2 < 1 9 6 1 6 V :.N.N.w.w.N.N.e.w.w.q.7.<.6.6.x q 6 * $ + .       .         X @ = = @ o . .                                                 . . . . . . .   . . . . . . . . . X X X . . . . @ X   . X @ @ o X X @ @ X X X @ % - 4 w a d n A n m m m n n n n n n n n n n m m n n n m n n n n n m n n n n n n n v v n n n n n n n v v v v v v v v v v v v v v v v v v v v v v v v v v v v v v v v v v c l p p a a u a t t u u r r r r ",
"mXxXxXxXxXmXmXAXmXmXmXmXmXmXmXmXmXmXmXmXmXmXmXmXmXmXmXmXmXxXxXxXBXxXxXxXxXxXxXxXlXkXkXlXkXBXaX2XW v y y y e 4 & 7 7 7 7 7 7 ; - : ; ; ; ; - - % % % % @ % % = - % = - - - - - - - - - - = = - - = = - - - - = = - - - - = % % % = % - - = = % % - - - - = % % % = = = = = = = = = = = = = = = = = = = = = = = = = = = = = = = = = = = = = = = = % % @ @ @ @ @ @ % @ @ @ @ % % @ @ @ @ @ @ o o o o o o @ @ = - - - - - - - - - - - - - - - - - - ; ; : : : : : : : : : : : : : : : 4 4 : : : 4 7 8 3 % o o o o o o - - & < 9 9 1 6 q G 9.G.N.w.M.w.w.w.w.w.7.<.:.K j 6 * $ $ $ +                 . . o @ = @ o .                                                 . . . . . . .   . . . . . X X X X . . . . X . . X . . . . X o @ . X @ @ X X X @   . X - 4 e a d s v n m n n n n n n n n n m m m n n m m n n n n m m m m n n n n n n n n n n n n n n n v v v n v v v v v v v v v c v v v v v v v v v v v v v v v Z v v v c l l p a a u u t t u u r r r r ",
"mXxXxXxXxXmXmXVXmXmXmXmXmXmXmXmXmXmXmXmXmXmXmXmXmXmXmXmXmXxXxXxXBXxXxXxXxXxXzXxXkXxXkXkXBXaX#.W a a y y e 4 7 e 4 4 - - ; 4 4 : : ; - - - - - = % @ @ @ @ @ % % @ % % = = - - - - - - = = = = - = = - - - - = = = - - = % % @ @ % % - - - % % % - - - - - % % % = = = = = = = = = = = = = = = = = = = = = = = = = = = = = = = = = = = = = = = % % @ @ @ @ @ @ @ % @ @ @ @ % % % @ @ @ @ @ o o o o o o o @ % = - - - - - - - - - - - - - - - - - ; ; ; : : : : : : : : : : : : : : 4 4 : : : 4 7 3 & @ X o o , = = % % 4 3 & - 9 9 1 q I 0.0.7.w.w.q.7.7.7.7.:.P j 6 * $ $ X .   .                   . o @ @ o .                                                 . . . . . . . . . . . X X X X X X . . . X X . . . X @ o . . . . . X @ @ X X X o @ o X X @ % ; 4 y s n n n n n n n n n n n m m m n n m m n n n n m m m m m n n n n n n n n n n n n n n v v v n n v v v v v v v v c v v v v v v v v v v v v v v v b v v v l l l l a a u u t t u u r r r r ",
"xXxXxXxXxXxXxXxXmXmXmXmXmXmXmXmXVXmXmXxXxXmXmXVXxXxXxXxXxXxXxXxXmXmXxXxXkXkXxXxXZXlXjXvX9XX.v r r r y e e w 7 4 : : ; ; ; ; - - ; - - - = % % % % = - % @ @ @ @ % % - - - = % @ % % = = = - - - - - - - - - - - % = = - - = = % % % % = = - - - % % % % % % % % % = = - - = = % = = = = = = = = = = = = = = = = - = = % % = = - = = = % % = = = @ @ @ @ @ @ @ @ o o @ @ @ @ @ @ @ @ @ @ @ @ o o o o o o o @ - : = - - : - - - - - - - - - - - - - ; : : : : : : : : : : : : : : 4 : : 3 4 4 w 7 3 % @ @ @ % % o = = ; 4 4 7 7 4 9 1 6 h I 0.9.7.7.7.<.<.7.6.H j 1 1 * $ X . .                           o = @ .         . . .                                   . . .       . .   . . . . X X X . . . . . . . . X X . X X o X X . X X X X X X X @ X . . X o o X % % r S m f f n v v n n m m n n n n n n n n n n n n n n n n n n n n n n n n n n v v v v n n n n n v v n v c c v v v v v v v v v v v v v v v v v v v v v c l l l a i i i i t r r r r r 0 ",
"xXxXxXxXxXxXxXxXmXmXmXmXmXmXmXmXVXmXmXxXxXmXmXVXxXxXxXxXxXxXxXxXmXxXxXxXkXkXxXBXaXBXvXh.( v a r e e e w 8 7 4 : ; ; ; ; ; ; ; - - - - - = % % % % % % % @ @ o @ @ @ % = - = % % % % % % = = - - = = - - - - - = % = = - - = = % % % % % % % = = % % % % % % % % = = = = = = = = = = = = = = = = = = = = = = = = = = = = = = = = = = = % % = = = @ @ @ @ @ @ @ @ @ @ @ @ @ @ @ @ @ @ @ @ @ @ o o o o o o o @ = - = - - - - - - - - - - - - - - - - : : : : : : : : : : : : : : : 4 : 3 4 4 4 4 : - % + + @ % % o , = - : 4 4 4 4 - 9 5 1 j P 0.6.7.7.6.6.6.P V 6 * $ $ $ X .                             . @ @ o .       . . .                                   . . . . . . . .   . . . . X X . . . . . . . . . X X . X X o X X . . X X X X X X o X . . X X X X @ + 4 v n v v n n n n n n n n n n n n n n n n n n n n n n n n n n n n n n n n n v v v v v v n n n v v n v c c v v v v v v v v v v v v v v v v v v v v v c l l l a i i i i t r r r r r r ",
"xXxXxXxXmXmXxXxXmXmXmXmXmXmXmXmXmXmXxXxXmXmXmXmXmXxXxXxXxXxXxXxXxXBXxXxXkXkXkXbXkXjXV.W y y a e w w w 7 4 4 ; ; ; : ; ; ; ; ; > - - - - = % % % @ % % % @ o o o X o @ % % = = = % % % % % % = = = = = = = = = = % % = = = = % % % % % % % % % % = = = = = - = = = = = = = = = = = = = = = = = = = = = = = = = = = = = = = = = = = = = % % = = = @ @ @ @ @ @ % @ @ @ @ @ @ @ @ @ @ @ @ @ @ @ o o o o o o X o @ = = - - - - - - - - - - - - - - - - - : : : : : : 3 3 : : : : : : 4 : 3 4 4 4 - % # @ X X @ % % % = > ; : : : : : ; 8 9 1 6 x L 0.:.:.6.6.L j 6 * $ $ . . . .                             . o @ o . .       . .                                   . . . . . . . .   . . . . . . . . . . . . . . . X . . X X o X X X X X X X X X X X X   X X X X . X   - f n v n n S m n n n v v n n n n n n n n n m n n n n n n n n n n n n n n n v v v v v v v v n v v n v c c v v v v v v v v v v v v v v v v v v v v v c l l l a a i i i t r r u r r r ",
"xXxXxXxXxXxXxXxXmXmXmXmXmXmXmXmXmXmXxXxXxXmXmXmXxXxXxXxXxXxXxXxXBXBXBXkXkXkXkXjXCXV.W a a a r w 7 7 4 4 : ; ; ; : : ; ; ; > > > - - - - = % % % @ % % % @ @ @ @ X X @ @ % % % % % % % % % % % % % % % % % % % % % % = = = = % % % % % % % % % % = = = = = = = = = = = = = = = = = = = = = = = = = = = = = = = = = = = = = = = = = = = % % = = = % % % % = = = = @ @ @ @ @ @ @ o @ @ @ @ @ @ @ @ X o o . . X o @ = = - - - - - - - - - - : : : : - - : : : : : ; : : : : : : : : : : 4 4 4 : = o @ X X @ % - - - ; ; 4 7 7 7 4 : e 4 4 9 6 6 x 0.L L ' P x q * $ $ .   . X X .                               o @ X .       .                                     . . . . . . . . . . . . . . . . . . . . . . . . X . . . X X X X X X X X X X X X . X X X X X X . +   - y v n n v S m n n v n n n n n n n n n n n n n n n n n v v v v v v n n n v v v v v v v v v n v v n v c c v c v v v v v v v v v v v v v v v v v v v c l l l p a i i t t r r u r r r ",
"mXxXxXxXxXmXxXxXxXxXmXmXmXmXmXmXmXxXxXxXxXxXmXmXxXxXxXxXxXxXxXxXBXmXbXxXbXmXxXhXg.^ a a a 8 7 r 7 7 4 4 : ; ; : ; ; ; ; > > > > = - - = % % % % @ % % % @ @ @ @ @ @ @ @ @ @ @ @ @ @ @ @ % % @ @ @ @ % % % % % % % % % = = % % % % % % % = = - - % % % % % % % % = = = = = = = = = = = = = = = = = = = = = = = = = = = = = = = = = = = % % = = = @ @ @ @ % % % = @ @ @ @ @ @ @ @ @ @ @ @ @ @ @ @ X o o o . . o o @ = - - - - - - - - - ; : : : : - - : : : : ; ; : : : : : : : : : : 4 4 : = @ . X X + @ % - ; ; ; : 4 4 7 4 4 : g : 4 w 3 * h J P ' ' x 6 1 * $ X X . . + @ + .                             . @ o . .                                           . . . . . . . . . . . . . . . . . . . . . . . . X . . . X o X X X X X X X X X X . X X X X X X X X . - a d n n d m n n n n n A A n n n n n n n n n n n n n n n v v v v n n n v v v v v v v v v v n v v n v v v v v v v v v v v v v v v v v v v v v v v v c l l l p i i i y y u r r r 0 0 ",
"xXxXxXxXmXmXxXxXxXxXxXxXxXxXxXxXmXxXxXxXxXxXmXmXxXxXxXxXxXxXxXxXxXbXxXxXmXmXeXV.T f e e y w 7 7 4 4 4 4 4 : : : ; ; ; ; > > > > = = = = % % % % @ % = % % @ @ @ @ @ @ @ @ @ @ @ @ @ @ @ @ @ @ @ @ @ @ @ % % % % % % % % % % % % % % = = = - - - % % % % % % % % = = = = = = = = = = = = = = = = = = = = = = = = = = = = = = = = = = = % % = = = = = = = = = = = @ @ @ = @ @ @ @ @ @ @ @ @ @ @ @ o o o o o . o o @ = = - = = - - - - - ; : : : : - - - : ; ; ; ; : : : : : : : : : 4 4 : = @ o . X X @ % % - ; ; ; ; 3 4 4 4 : : > g w 4 2 1 q h I I F 9 $ $ # X @ @ @ @ @ @ @ @ .                             o @ o .                                           . . . . . . . . . . . . . . . . . . . . . . . . X . . . X X X . X X X X X X X X X X X X X X X X . X 4 f d n A n n n n n n n A A n n n n n n n n n n n n n n n d v v v v v v v v v v v v v v v v n v v n v v v v l c v v v v v v v v v v v v v v v v v v c l l l p i i t t y u r r 0 0 0 ",
"xXxXxXxXmXxXxXxXxXxXxXxXxXxXxXxXmXxXxXxXxXxXxXmXxXxXxXxXxXxXxXxXkXxXbXbXkXeX%.^ a e 7 7 y y w ; 4 4 4 4 4 : : ; ; ; ; ; > > = = = = = % % % % % @ % % % @ @ @ @ % @ @ @ @ @ @ @ @ @ @ @ @ @ @ @ @ @ @ @ @ % % % % % % % % % % % % % % % % = = = % % % % % % % % = = = = = = = = = = = = = = = = = = = = = = = = = = = = = = = = = = = % % = = = = = = = = = = = @ @ @ = = = @ @ @ @ @ = = @ @ @ @ @ @ @ o X o o @ @ = = = = - - - - - ; : : : : - - - ; ; ; : - : : : : : : : : - 4 4 : @ . . o X @ @ % % - - - - 2 3 3 3 3 3 : : g e 4 3 9 q 6 C x 0 1 $ + @ o @ % - % @ o @ @ @ .                           . @ o .                                           . . . . . . . . . . . . . . . . . . . . . . . . . . . . X X X . X X X X X X X X   X X X     X X   @ e v d d n n n n n n n n n n n n n n n n n n n n n n d d d d v v v v v v v v v v v v v v v v n v v n v v v v l l l l l v v v v v v v v v v v v v v v c l l l p i i r t t u r r r 0 9 ",
"xXxXxXxXmXxXxXxXxXxXxXxXxXxXxXxXmXxXxXxXxXxXxXmXxXxXxXxXxXxXxXxXxXbXbXjXjXZ./ 8 r 8 7 e e 4 3 7 : 4 4 4 4 : ; ; ; ; ; ; > > = % = = % % % % % % @ @ % % @ @ @ @ @ @ @ @ @ @ @ @ @ @ @ @ @ @ @ @ o @ @ @ @ @ % % % % % % % % % % % % % % % % % % = = = = - - = = - = = % % = = - = = = = = = = = = = = = = = = = % = = - - = = % = = = % % = = = = = = = = = = = @ @ @ = = = = = @ @ @ = = = @ @ @ @ @ @ o o o o @ @ = = = = - - - - - ; : : : : - - - : ; ; ; - : : : : : : : : - 4 w - o   . @ X o @ % % % - & 3 ; 3 4 3 4 4 4 w : : w 4 3 < 6 0 6 < * # + o o o = - - @ . X @ @ X .                           @ o .                                             . . . . . .   . . . . . . . . . . . . . . . . . . . . X X X . X X X X X X X X   X X       . X . % y n f a f d n n A A n n n d n n n n n n n n n n n n d d d d v v v v v v v v v v v v v v v v n v v n v v v v l l l l l v v v v v v v v v v v v v v v c l l l p i i r t t u r r r 0 0 ",
"xXxXxXxXxXxXxXxXxXxXxXxXxXxXxXxXzXxXVXmXkXkXxXmXmXBXxXkXxXxXkXlXbXmXkX1X..A e 8 7 8 8 8 7 4 7 7 : ; ; ; : : ; ; - - - = = = = = % = = = = % % % @ @ @ @ @ @ @ @ @ @ @ @ @ @ o o @ @ @ @ @ @ @ @ @ @ @ @ @ % % % = = = = = = = = % % % % % = = = - = = % % % % % = = = = = = = = = = = = = = = = = = = = = = = = = = = = = = = = = = = % % = = = = % % @ @ % = = @ @ @ @ @ @ @ @ @ @ @ @ % % % % @ @ @ @ @ o o . o @ @ % = - - ; - - - : : : : - - - - - - : : : : : : - : 4 4 : ; ; - @ . . . o @ @ @ @ % % - - ; : 4 4 4 4 4 4 w g 4 4 4 3 3 4 & % # + X . o o = - : : = @ o @ . .                               o o                                     . O X . . . . . . .   . . . . . . . . . . . . . . . . . . . o o . . . . . . . . X X X X . .       . .   X % 4 y f n A A A A n n d n n d d n A A n n d A d d d d n n d v v n n v v d c v v v n n n v v v v v v c c c c v c v v v v v v v v v v v v v v Z v v c c l l p p a t t t t u r r r r 0 ",
"xXxXxXxXxXxXxXxXxXxXxXxXxXxXxXxXxXxXzXxXxXmXxXxXkXkXkXxXBXmXxXkXjXV.[ A y e 8 8 e e 8 7 7 4 7 7 4 ; ; ; ; ; ; - - - - - - - - - % % = = % % % % @ @ @ % % % @ @ @ @ @ @ @ @ @ @ @ @ @ @ @ @ @ @ @ @ @ @ % % = = = = = = = = = = % % % % % = = = - = % % % % % % = = = = = = = = = = = = = = = = = = = = = = = = = = = = = = = = = = = % % = = = = % = @ @ % = = @ @ @ @ @ @ @ @ @ @ @ @ % % @ % @ @ @ @ @ o o . o o @ @ % = - - - - - - : : - - - - - - - : : : : : : - - 4 4 : 4 - @ X . . X o @ @ @ @ % = - - ; ; ; : : : : : 4 4 : 4 4 : : 4 - = @ X . X o o = - : ; = @ o @ . .                               X o                                     . O X . . . . . . .   . . . . . . . . . . . . . . . . . . . o o . . . . . . . . X X X X . . . . . . . . .   . @ ; w e Y A n d f d n A Y A d f f n Y T A n d d d d d d d d v v v v d d v v v v n n v v v v v v c c c c c v l v v v v v v v v v v v v v b v v v c c l p p i t t t t u r r r 0 8 ",
"xXxXxXxXxXxXxXxXxXxXxXxXxXxXxXxXmXxXxXxXmXmXmXxXkXxXBXxXkXaXaXaX..T e - 7 e e e e 8 7 4 4 7 7 7 4 ; ; ; ; ; ; - - - - - - - - - % % = = % % % % % % % % % % % @ o @ @ @ @ @ @ = @ @ = = = = = = % % % = = = = = = = = = = = = = % % % % % % % % % % % % % % = = = = = = = = = = = = = = = = = = = = = = = = = = = = = = = = = = = = = % % = = = = % % @ @ % % = @ @ @ @ @ @ @ @ @ @ @ @ @ @ @ @ @ @ @ @ @ o o o X o o @ @ = = - - - - - ; : - - - - - - - : : : : : ; - - : : : : = .   . X X X X o @ @ % = - - ; ; ; ; ; ; ; ; 4 : : 4 4 : : : : = o . . . X X = - - - = @ o o . .                               X X .                                   . O X .     . . . .   . . . . . . . . . . . . . . . . . . . o o . . . . . . . . . X X X X . . . . . . o .       . @ = e y f n A n n d d d d A A A A A A A n n d d d f d d d d d d v d v v v v n v v v v v v v c c c c c c v v v v v v v v v v v v v v b v v v v v l p p i t t t t u r r r 0 0 ",
"zXxXxXxXxXxXxXxXxXxXxXxXxXxXxXxXzXxXmXxXkXkXxXmXZXkXsXxXVXaXX.a e e e e e e e e 7 4 - - 4 7 7 4 4 ; ; ; ; ; - - - - - - = = - - % % % % % % % @ % % % % % % @ @ @ @ @ @ @ @ @ @ @ @ @ @ = = = = = = = = = = = = % % % % @ % = = % % % % % % % % % % % % % = = - = = = = = = = = = = = = = = = = = = = = = = = = = = = = = = = = = = = % % = = = = % % @ @ % % = = % % % = = = = @ @ @ @ @ @ @ @ @ @ @ @ @ @ o o o o o o @ % = - - - - - - - - - - - - - - : : : : : - - - 4 4 : = o .   . X o o X X @ @ % % - - ; ; ; ; ; ; ; ; : : ; : : ; ; : 4 - o . . . . . = = - = @ o o o . .                               . X X .                                 . O X .     . . . .   . . . . . . . . . . . . . . . . . . . X o . . . . . . . . . . . . X X X X X . . . . . . . . X X X = w a d n n n f f n A A n d f A n n n n n d d d d d d d d v d v v v v v v v v v v v v c c c c c c v v v v v v v v v v v v v v b v v v v c l p p i t t t t u r u r r r ",
"zXxXxXxXxXxXxXxXxXxXxXxXxXxXxXxXzXzXxXxXmXmXmXmXsXxXkXC.) a r u 8 e e w 7 4 7 7 ; ; ; : 7 7 4 ; 4 ; ; ; ; ; - - - - - = = = = - % % % % % % % @ @ @ @ @ @ @ @ @ @ @ @ @ @ @ @ @ @ @ @ @ @ @ % % = = = = = = = = @ @ @ % = = = = % % % % % % % % % % % % % = = - = = = = = = = = = = = = = = = = = = = = = = = = = = = = = = = = = = = % % = = = = = = @ @ % = = = = = = = = % = @ @ @ @ @ @ @ @ @ @ @ @ @ @ @ o o o o o @ @ = - - - - - - - - - - - - - - ; : : - : ; - : 4 4 :   . . . . . o @ X X o @ % % = - ; ; ; ; ; ; : : : - - : : - - : 4 - @ . . . . . @ @ @ @ @ o . .                                     X o X                                 . . X . . . . . . .   . . . . . . . . . . . . . . . . . . . X X . . . . . . . . . . . . X X X X X X X     . X X X . . X X o % ; w a n A n d d d d n A d d d d A A n d d d d d d d v v v v v v v v v v v v c c c c c c c c l v v v v v v v v v v v v v v v c c v c c l p a t t t u r r u u r r ",
"zXzXxXxXxXxXxXxXxXxXxXxXxXxXxXxXVXxXkXmXZXZXxXaX4X@.W u 8 8 e e r w 7 4 7 7 7 : 4 4 7 7 7 4 ; - ; ; ; ; ; ; ; - - - - = % % % = % % % % % % @ @ @ @ @ @ @ @ @ o = = = @ @ @ @ @ @ @ @ @ @ @ % % = = = = = = = = @ @ @ @ @ @ @ @ % % % % % % % % % % % % % % = = = = = = = = = = = = = = = = = = = = = = = = = = = = = = = = = = = = = % % = = = = = = @ @ = = = @ @ @ @ @ @ @ @ = @ @ @ @ @ % @ @ @ @ @ @ @ @ @ o o o o o @ = = - - - - - - - - - - - - - : : : - : : ; : 4 : -   . o o o X o @ @ @ @ @ % % = - ; ; ; - ; ; : 4 : - - : : - : : 4 : = o .   . . o o o o X . .                                       . o o                                 . . X . . . . . . .   . . . . . . . . . . . . . . . . . . . X X . . . X X . . . . . . . . X X X X X X X . . . . . . . . . .   . @ - 4 f f d d n A n n f f d d A A A n d d d d d d v v n v v v v v v v v c c c c c c c l l l l l v v v v v v v c c c c v v l c v v c l p a t t t u r r r r r 0 ",
"kXzXxXxXxXxXxXxXxXxXxXxXxXxXxXxXmXmXxXxXhX3X%.o.p a y y y r 8 4 w 7 4 7 w w 7 4 4 7 7 7 4 : ; ; ; - - - ; ; ; ; - - = = % % = = % % % % % % @ @ % % % % @ @ @ @ @ @ @ @ @ @ @ @ @ @ @ @ % = = = = = = = = = = = @ @ @ @ @ @ @ @ % % % % % @ @ @ = = % % % % % % = = = = = = = = = = = = = = = = = = = = = = = = = = = = = = = = = = = % % = = = = % % @ @ @ = = @ @ @ @ @ @ @ @ % % @ @ @ @ % % @ @ @ @ @ @ @ @ o X . . X @ @ = = - - - - - - - - - - - - ; : : - : : : ; - = o . . o o o o o o % % % = - - - - ; - - - - - ; : : - - : : ; ; : : : - @ .     . o X . . . .                                         . o o                                 . . X . . . . . . .   . . . . . . . . . . . . . . . . . . . o X . . . X X X . . . . . X . . . . . X X @ X X . . X X @   . X o X X . . - 4 e f d d f a d d d n A A n d v v d d d d v v v n v v v v v v v v c c c c c c l l l l l l v v v v v c c l l l v c l c v v v l p a t t t t r r r r r 0 ",
"kXzXxXxXxXxXxXxXxXxXxXxXxXxXxXxXuXkXmXaX%.( p u a r e e r r e 8 w w w 7 : ; 4 7 ; 4 4 4 ; ; ; 4 - - - - ; ; ; ; - - = % % % % = % % % % % % @ @ % % % % % @ @ @ @ @ @ @ @ = = = @ @ % = = = = - = = = = = = = @ @ @ @ @ @ @ @ @ % % % % % @ @ @ - = = % % % % % = = = = = = = = = = = = = = = = = = = = = = = = = = = = = = = = = = = % % = = = = % % @ @ @ = = @ @ @ @ @ @ @ @ % % @ @ @ @ @ % @ @ @ @ @ @ @ @ X . . . . o @ % = - - - - - - - - - - - - ; : : ; : 4 : - = o   % o . . o @ o X - - - - - - - ; - - - = - - ; ; : - - : : ; : 4 : 4 : = .     X . . . . .                                           . o o                                 . . X . . . . . . .   . . . . . . . . . . . . . . . . . . . o o . . . X X X . . . . . X . . . . . X o . . X X X X X X o o X X . X @ @   X % : w y f f d d d n A A d f A Z v d d d d v n v v v v v v n v v c c c c c c l l l l l l v v v v v c c l l l v v l l v v c l p a t t t t r r u r r r ",
"kXkXkXxXxXzXkXhXxXxXzXkXzXmXVXmXlX7X@.^ d r e e e e w w e e e w w 7 4 4 4 4 4 4 : : : ; : ; ; ; ; ; ; ; ; ; ; ; - - - = % % % % @ % % % % @ @ @ % % % % % % @ @ @ @ @ @ @ @ = = = = = = = = = = = = = = = % @ @ = = = = = = % @ % % % % % % % % % % % % % % % % = = = = = = = = = = = = = = = = = = = = = = = = = = = = = @ % % = = = = = = = = = % % @ @ % % = % % @ @ @ @ % % @ @ @ @ @ @ @ @ @ % % @ o o o o X . . . . o @ @ = - - - - - - - - : : : : - : : : - : 4 ; o   . . X o o o X X o % = - - ; ; ; : : ; ; - - - - - : : ; ; : : : : : 4 ; @ .                                                           X o X .                                 . X   . . . . . . . . . . . . . . . . . . . . . . . . . . . . X X o . X X X . . . X X X X . . . X X X X X X X X X X X X X X X o o o % @ o + % 7 e a S A n d f f f d v v d d f d v A v v v v v v v n c c c c c c p p p c v v l l l v v v v v v v l l c c v v v v c c p p i u r r r r r r 0 0 ",
"xXmXmXzXhXaXkXmXhXhXzXmXVXkXA.@.) W Z y 8 8 w e w w 7 7 w w w 7 w 7 4 4 4 4 4 4 : : ; ; : ; ; ; ; ; ; - - - - - - - - % % % % % @ % % % % @ @ @ % % % % % @ @ @ @ @ = = = = = = = = = = = = = = = = = = = % @ @ = = = = = = % @ % % % % % % % % % % % % % % % % = = = = = = = = = = = = = = = = = = = = = = = = = = = = = @ % % = = = = = = = = = % % @ @ @ % = @ % % @ @ @ @ % @ @ @ @ @ @ @ @ @ % = @ @ o o o o o X o o o @ @ = = - - - - - - - - : : - - - : - - : : = o   . . X o o o o o o % - - - ; ; : : 4 : ; - - - - - : : ; ; : : : : : : - @ .                                                           . X X .                                 . .     . . . . . . . . . . . . . . . . . . . . . . . . . . . . o o . . X X . . . X X X X X X X X X X X X X X X X X X X X X X X X o o X . . o % - ; e r f n A A d f a f d v v v v n v v v v v v v n c c c f p p p p p c v v l l l v v v v v v v v l l c v v v v c l p p i u r r r r r r r 0 ",
"zXzXxXxXxXkXkXkXhXxXVXhXS.o.D p y r e w 8 8 8 w 8 7 7 7 7 w 4 4 w 4 : : 4 4 4 : : : : : : : : : - - - - - - - - - - = % % % % % % % % % % @ @ @ @ @ @ % @ @ @ @ @ @ = = = = = = = = = = = = = = = = = = = % @ @ = = = = = % @ @ % % % % % % % % % % % % % % % % = = = = - - = = = = = = = = = = = = = = = = = = = = = = % % % % = = = = = = = = = % % @ @ @ % = @ @ @ @ @ @ % % @ @ @ @ @ @ @ @ @ % % @ @ o o @ @ @ o o o o @ @ = = = - - - - - - - : - - - - - - : : = X . . . . X o o o o o o - - - ; ; : : 4 4 4 ; ; - - - - : : : : : : : : - : - o                                                               . X X                                 . .       . . . . . . . . . . . . . . . . . . . . . . . . . . . X X X . . . X X . . . . X X X X X . X X X X X X X X . X X X X X X X o o o X o o o o + - 7 a d n d d a f d d d d d v v v c c v v v v v c f f p p p l l l v v l l l v v v v v v v c l l l v v c c l l p p i r r r r r r r r r ",
"kXkXkXzXxXxXkXhXmXkX3Xo.D i 0 9 a y y y r w 7 7 w 7 7 7 w w w 4 4 : : : : 4 : : : : : : : : : ; - - - - - - - - - - = % % % % % % % % % % % @ @ @ @ @ @ @ @ @ @ @ = - - - = = = = = = = = = = = = = = = = % @ @ % = = = = % @ @ @ @ @ @ @ @ @ @ % % % % % % % % = = = = = = = = = = = = = = = = = = = = = = = = = = = % % % @ @ = = = = = = = = = % % @ @ % % = @ @ @ @ @ @ % % @ @ @ @ @ @ @ @ @ % = @ @ o o @ @ @ @ o o o o o @ = = - - - - - - - - - - = - - - 4 : o     . . . X o o o o @ @ - - ; ; : : 4 4 4 4 : ; ; ; ; ; : : : : : : : : - : - o                                                                 X o .                               . .       . . . . . . . . . . . . . . . . . . . . . . . . . . X X X X . . . X X X . . . X X o X X . . . . . . . . . . . . X X X X X o o o + @ o o o . o % ; w y f d v v d d f a d d v c c c v v v v v c f p p p l c l l v v l l l v c c v v v v c l l v v v c l l l p p t r r r 0 r r r 0 0 ",
"kXzXxXzXkXhXkXkX6X#.D t 0 t 0 8 e e e e e w 7 7 7 w w w w w w w : : : : : 4 : ; : : : : : ; ; ; ; - - - - - - - - - = % % % % % % % % % % % @ @ @ @ @ @ @ @ @ o @ = - - - - = = = = = = = = = = = = = = = = @ @ % % = = % % @ @ @ @ @ @ @ @ @ @ % % % % @ @ % % = = = = = = = = = = = = = = = = = = = = = = = = = = = % = @ @ @ = = = = = = = = = % % @ @ % = = @ @ @ @ @ @ @ @ @ @ @ @ @ @ @ @ @ = = @ @ o @ @ @ @ o o o o o o @ @ = = - - - - - - - - = = - - - : - .     X . . X o o o o @ @ - - ; ; : : : : 4 4 : ; ; ; ; ; ; : : : : : ; ; - - - o                                                         .       X o X                               . . . . . . . . . . . . . . . . . . . . . . . X . . . . . . . o X X X . . . X X X . . . X X o X X . . . . . . . . . . . . X X X X X X X X X X X X o o X . X % : w e d d v v v d d d c c c c c v v v c c f f p p l l l l v v l l l v l l v v v c c l c v c c l l l l p a u r r r r r r 0 8 8 ",
"mXkXhXxXZXxXS.@.( Z i 8 0 t 0 9 7 7 7 7 7 7 w w 4 4 4 4 4 : 4 4 : : : : 4 4 : ; : : : : ; ; ; - ; ; ; ; ; - - - - - % % % % % % % % % % % % @ @ @ @ @ % @ @ @ @ = = - - - = = - = = = = = = = = = = = = = = @ @ % = % % % @ @ @ @ @ @ @ @ @ @ @ % % % % @ % % % = = = = = = = = = = = = = = = = = = = = = = = = = = = = @ @ @ @ % % % % % % % % = = % @ @ % = = @ @ @ @ @ @ @ @ @ @ @ % = = = = @ = = % @ o @ @ @ @ o o o o o o o @ @ = - - - - - - - - = = - : - - % .   . . X . . o o o @ @ = - - ; ; ; ; ; ; 4 : ; ; ; ; ; ; ; : : : : : ; - - - - o               . . . . .                                         . X O .                           .     . . . . . . . . . . . . . . . . X . . . . X . . . . . . . o X o X . . . X X . . . . X X X X X X . . . . . . . . . X X X X X X X @ o X X . . X X o X X X o % % % 7 e f A A A n v c d c c c c v v c c c c c c l l p l v v l l l l l l l v c c c l c c c c l l l l a i u r r r r r 8 0 8 8 ",
"kXhXaXkXkXS.[ p 0 i p i 0 9 9 8 e e w 7 7 7 7 7 : : 4 : : : : : : : : : 4 4 : ; : : : ; ; ; - - ; ; ; ; ; - - - - = % % % % % % % % % % % % % @ % % % % % % @ @ = - - - = = = - = = = = = = = = = = = = = % @ @ @ = = = % @ @ @ % % % % % % % % % % % % % % % % = = = = = = = = = = = = = = = = = = = = = = = = = = = @ @ @ @ @ % % % % % % % % = % % @ @ = = = % % @ @ @ @ @ @ @ % % = = = = = @ = = = @ @ @ @ @ @ @ @ @ @ o o o o @ = = - - - - - - - = = - : ; % o X X . . o . . o o o @ % = - - ; ; ; ; ; ; : ; ; ; ; ; ; ; ; : : : : : - - - - - o             . . . . . .                                           . X o                       . . .     . . . . . . . . . . . . . . . . X . . . o X . . . . . . . o o o . . X X . . . X . . . X X X X X X X X X X X X X X X X X X X X o @ @ + o o o o o X X @ @ + X . . % - 8 y f d v A d d f f c c c v c c v v c c c p p l l v l l l l l l l c v v v v c v c c l l l p a i u r r r r r 0 0 8 8 ",
"uXkXxX6X@.D p i t r 8 9 0 r r 8 8 7 7 7 4 4 4 4 : : g : : : : 4 : : : 4 4 4 : : : : : ; ; - - - ; ; ; - - - - - - = % % % @ % % % % % % % % % @ % % % % % % % @ = - - = = = = - = = = = = = = = = = = = = % @ @ @ = = = % @ @ @ % % % % % % % % % % % % % % % % = = = = = = = = = = = = = = = = = = = = = = = = = = = @ @ @ @ @ % % % % % % % % = = % @ @ % = = % % = @ @ @ @ @ % % % = = = = = @ = = = @ @ @ % @ @ @ @ @ @ @ @ o o @ % = - - - - - - - = - - : : @ . o @ . . o . . X o o @ = - - - - ; ; ; ; ; ; ; ; ; ; ; ; ; ; : : 4 : : - - - ; - o     .   .   . . . . . .                                             X o                       . . .     . . . . . . . . . . . . . . . . X . . . o o . . . . . . . o o o . X X X . . . X . . . . X X X o X X X X X X X X X X X X X o o o . . X o @ o X X o o @ + o X . . . o % - 7 r d A d f f f f d v v c v v n v c c p p c c c c l l c l l l c v v v v v v c l l l l p a i u r 0 0 r 0 r 0 e 8 ",
"xXxXS.( i r r 8 r r 8 7 4 7 8 w 4 7 : : : : w w w 7 : : : : : : : : : : : : : : : : : ; ; ; : : ; ; ; ; ; ; ; ; = = % % = = = = = = = % % % % % o o % % % % % = - - = = % % = = = = = = = = = = = = = = = % % % = = = @ @ @ @ @ @ @ @ % % % % @ @ @ @ @ % = = = = = = = = = = = = = = = = = = = = = = = = % % % % % % % % % % % @ @ @ @ = = % % = % % % = = = = = = = @ @ % % = % = @ @ @ % % % @ @ % @ @ @ @ @ @ @ @ @ o o o o @ o o o % - - - - : - = = ; : : o .     X @ o X X o @ @ @ @ = - - - - - : : : : - - : : ; : : : 4 : : : : - - - - - = .     .   . . . . . . . .                                   . . .   . . o .                     . . .     . . . . . . . . . . . . . . . . X X o o X X X X . . . . . . . . . . . . . . . . . X o @ @ o o o o o o o o o o o . . o @ @ @ o o o X o X o X o X o X o X o X X X . X X o @ - 7 e n n d f f f d n f c n n v c c v v v v v v v v c c l l c c c v l v v v v v l l p p p i r r r r r r r r r ",
"jXh.( y r u y r r e e 8 8 8 8 w w 7 7 : : : 7 7 7 7 : : : : : : : : : : ; ; : : : : ; ; ; ; ; : ; ; ; ; ; ; ; ; = = % % = = = = = = = % % % % % o o % % , , % = - = = = = = = = = = = = = = = = = = = = = % % % = = = % @ @ @ @ @ @ @ @ % % = = @ @ % % % % = = = = = = = = = = = = = = = = = = = = = = = % % % % % % % % % % % % @ @ @ = % % % = % % % = = = = = = = @ @ @ % = = = @ @ @ @ = % % @ % @ @ @ @ @ @ @ @ @ o o o o @ o X o @ = - - - - - = - : ; - X .     . o o o X o @ @ @ @ = - - - - - - - - - - - : : : : : : : : : : : : ; ; : : = .                                                           . . .   . . o .                       . . .   . . . . . . . . . . . . . . . . . . . . . . . . . . . . . . . . . . . . . . . . . X o o o o o o o o o o o o o o . . o @ @ @ o o o o o o o o o o o o o o o X X X o o X X o @ - ; y a d n d f a a f c c v v v v c c c c c v v v v c l c c c c l l v v v v l l l p p p i r r r r r e e r r ",
"@.D e r a u 8 8 w 8 8 w 8 8 4 4 w w 7 7 : : : : : : : : : : : : : : ; > > > ; : : ; ; > > > ; ; ; ; ; ; ; ; - - > = = = = = = = = = = = % % % % % % % o o o = = = = = = = = = % = = = = = = = = = = = = = % % % = = = % = @ @ @ % @ = = = = = = = = % % % % @ @ = = = = = = = = = = = = = = = = = = = = = % % % % % % % % % % % % % % % = = @ % = = @ @ % @ = = = % = @ @ @ % = = = = @ = = = = % % % % @ @ @ @ @ @ @ @ o o @ o o o X o @ % = = = - - - - ; = @       . . o o o . o o @ @ @ = - - - - - - - - - - - - : : : : : : : : : : : : : 4 : = .                                                         .   . .   . . o .                       . . . . . . . . . . . . . . . . . . X X . . . . . . . . . . X . . . . . . . . . . . . . . . . . . X X X o o o o o o o o . . o o @ o o o o o o o o o o o o o o o X X X X @ o X . X X X X - 4 e f d f f a n c s s c v c s v v c c v v v v c c v v c c l l v v v v l l p p p a t u r r r u 8 8 e e ",
"c u r p a 8 2 4 8 8 4 4 4 4 4 4 w w 7 : : : : : : : : : : : : : ; ; ; ; ; ; > > ; ; ; > > > > > ; ; ; - ; - - > > = = = = = = % = = = = = % % % = % % o o o = = = = = - - = = % = = = = = = = = = = = = = % % % = = = @ = @ @ @ = = = = = = = = = = % % % @ @ @ = = = = = = = = = = = = = = = = = = = = = % % % % % % % % % % % % % = = = = @ @ = = @ @ @ @ % % = % % @ @ % % = = = % % = = = = = = % % = @ @ @ @ @ @ @ @ @ @ @ o o o o o @ % = = = - - ; - @ .     . . . . o o X o o o @ @ = = - - - - - = = = - - - - - ; : : : : : : : : - - 3 - @ .                                         . . . . . .     . . . .   . . o o                       . . . . . . . . . . . . . . . . . . . X . . . . . . . . . . X X X . . . . . . . . . . X . . . . . . . X o o o o . X . . . X o o o o o o o o X X o o o o o o o X X X . . o X . . X X X . . @ - 4 e a d m v c f s f f s s c c c c c c c c v c c c c c l l v v v v l l p p a i u u u r u u 8 e 8 e ",
"r r y e 7 ; 7 e 7 7 4 4 4 4 4 4 7 7 7 : : : : : : : : : : : : : > ; : : : : > = > > > > > > > = ; ; ; > > > > = > = = = = = = % = = = = = = % % = = % o o o = = % = = - - = = = = = = = = = = = = = = = = % % % = = = = = @ @ @ % % = = = = = = = = % % % % @ @ = = = = = = = = = = = = = = = = = = = = = = % % % % % % % % % % = = = = = % @ @ = % % @ @ @ @ % = % % @ @ % = = % % = = = @ @ @ = = = % = = @ @ @ @ @ @ @ @ @ @ o o o o o @ @ % = = - - - = .       . o o o @ @ o o o o @ = = = = = = = = = = = = = = = - - - - : : : ; - - - - ; = o .                                         . . . . . . .   . . .       . o o .                   . . . . . . . . . . . . . . . X X . . . . o X X X o o o o . X X X . . X . . . . . . . X X . . . . . . . X o o o o o o o o X X o o o o o o o o o o o o o o o o o o X . . . o X X X @ @ X . . . . @ - 7 y d f c v v f f f c v v v c v v v c c c c c v c l l v l l l l l p p i t u r u r r r 8 8 e 8 ",
"8 r e 4 4 7 w 7 w 7 7 4 4 4 7 7 4 7 : : : : : : : : : : : : : : > ; : : : : ; = > > ; ; ; > > = ; ; > > > = = = > = = = = = = = = = = = = = = = = = % o o o % = % = = = = = = = = = = = = = = = = = = = = % % % = = = = = @ @ @ % % = = = = = = = = @ @ = % % = = = = = = = = = = = = = = = = = = = = = = = = % % % % % % % % % = = = = = = @ @ = = @ @ @ @ % % = % % @ @ % = = @ = = = = % @ @ = = = = = = = % @ @ @ @ @ @ @ @ o @ @ o o o @ % - = - - = o         . @ @ % @ @ @ @ o @ @ = = % @ % = % = = = = = = = = = = = = : ; - - - - = = - @ .   .     .                                 . . . . . . . . . . . .     . X @ .                   . . . . . . . X X . . . . . . X X . . . . X X o X o o o o . . . X . . X X . . . X . . X . . . . . . . . . . . . . . . . . X X X X X X o o X X X X X X . . o o o o . . . . @ @ @ @ @ o X . X X X X o % ; 4 w y f v v c v v f f f f f f c c c c c v v v v l l l l l l p p p i t u r u r r r e e e 8 ",
"7 8 7 7 w e 7 - 4 4 4 4 4 4 4 4 4 : : : : : : : : : : : : : : : : : : : : : ; ; > ; ; ; ; ; > = ; ; > > > = = = = = % % = = = = = = = = = = = = % % = % o o , % = = = = = = = - = = = = = = = = = = = = = % % % = = = = = @ @ @ @ % @ @ = % = = = @ @ @ = = = = = = = = = = = = = = = = = = = = = = = = = = = = % % % % % % % % @ @ = = = = = = % % @ @ @ @ = = = % % @ @ = = = @ @ = = % % @ @ = = = = = = % % @ @ @ @ @ @ @ @ @ @ @ @ o o @ = - - - - @     . . . X @ - - = @ = @ @ @ % = % @ % % = = @ @ @ @ = = = = = = = % = - - - - - - - = X                             . . . . . . . . . . . . . . . . . . . .     . X @ .                   . . . . . . . . . . . . . . . . X . . . . . . . . . X . . . . . . . . . . . . . X . . . . . . . o o o . . . . . . . . . . o X X X X X X X X X X X X X X X X X o . . . . . X o @ @ X X . . o o o X X X o @ % 3 e a v v c f f f f f f f f f f c c c v v v v c c l l p p p p i i t u u r r e e e e e ",
"e 8 7 7 4 4 4 4 ; ; 3 4 3 3 ; - : : : : : : : : : : : ; ; : : : : : : ; > ; ; : ; ; ; : ; ; - = ; ; > > = = = = = = % % = = = = = = = = = = = = o % = = % o o , = = % % = = - - = = = = = = = = = = = = = % % % = = = = = @ @ @ @ @ @ @ % % = = % % @ @ = = = = = = = = = = = = = = = = = = = = = = = = = % = = % % % % % % % % @ @ @ % = = = % % % @ @ % % = = = % = @ @ = = = @ @ = = % % % % = = = = = % % % @ @ @ @ @ @ @ @ @ @ @ @ o o @ = - - - - o     . . . X @ - : - = - = @ @ % = % @ = = = @ @ @ @ @ - - = = = = % % @ @ = = - - - - = .             . . . . . . . . . . . . . . . . . . . . . . . . . . . .     . . @ .                   . . . X X . . . . . . . . . . . . . . . . . . . . . . . . . . . . . . . . . . X X . . . . . . o o o o . . . . . . . . . . o o X . . . X X X X X X X X X X X X o . . . . . . . X X . . X o X X X . . X @ %   . - e f v f y f f f f f f f f p p c c v v v v l l l l p p p i i i i u u r e 8 e e e e ",
"7 7 7 7 4 4 4 4 4 4 7 4 4 4 g g ; : : : : : : : ; : w w : ; ; ; ; ; ; > > = = = : : ; ; ; - > > = = = > ; > > = = = = = = = = = = = = % % % = = = = = % % o o o @ % = - = = % % - = % @ @ @ = = = = = = = = = = % % % @ @ @ @ @ = = = % @ @ @ @ @ @ @ @ = = % % = = = = = = = = = = = = = = = = @ @ @ @ @ @ @ @ = = = = = @ @ @ = = = = = = = = = = = @ @ @ = = @ @ % = % % @ @ @ @ @ = = = = = @ = = = = % % @ = @ @ @ @ @ @ = @ @ @ o o o o o o = = o         . o @ = = - = = = = - - - = = @ = = = = @ @ @ @ = % @ o o @ @ @ - = @ @ = = = @ o .       . . . . . . .     . . . . .         . . . . . .   . . . . . . .       . o X               . . . . . . . . X . . . . . . . . . . . . . . . . . . . . . . . . . . . . . X X . . . . X X . . . . o o X . o o o X X . . . . . o o o o . . o o o o o o o o o o o o . . . . X X X X X X o o X X X X X X X X @ @ @ @ % 4 y v d f f f v n d f v v v v v c c c l l l l l p p p p i t t u u r 8 8 e e e ",
"7 7 7 7 4 4 4 4 4 4 4 4 4 4 4 g : : : : : : : : : : : : : : : : ; : ; ; > > > > > > > > > - > > = = > > ; > > = = = = = = = = = = = = = = = % % = = = % % o o o @ @ = = = = = = - = % @ @ @ = = = = = = = = = = @ % % @ @ @ @ @ = = = % @ @ @ @ % @ @ @ = % % % = = = = = = = = = = = = = = = = @ @ @ @ @ @ @ @ = = = = = @ @ @ = = = = = = = = = = % @ @ @ = = @ @ @ = % % % @ @ @ @ = = = = = @ = = = = % @ @ = @ @ @ @ @ @ = @ @ @ o o o X o = - = .     . . o o = - - - - = % = - - - - = = = = - = = @ @ % % @ @ @ @ @ @ @ = = @ @ % = % @           . . . . . . .     . . . . .       . . . . . . . . . . X . . . .       . o .               . . . X . . X . X . . . . . . . . . X . . . o o X X X X X X . . . . . . . . X . . . . X X . . . . . o o X . o o o X . . . . . X X o o X X . o o o o o o o o o o o o X . . . X X X . . . . X X X X X X X X X X X X . . @ ; w e a n n d f f d c c v v v c p p c l l l l p p p a i i t t u r 8 8 e e e ",
"7 7 7 : : : : : : : : : : : : : : : : : : : : : 7 : ; > ; : : : ; ; ; ; ; ; ; ; = = = = > > ; ; = = > > > > = = % = = = = = = = % = = = = = % o = = = % % % o o @ @ % % @ % = - - = = % % = = = = = = = = = = = % % % % @ @ @ @ = = = % @ @ @ @ % % % % = = @ % = = = = = = = = = = = = = = = = @ @ @ @ @ % % @ = = = = = % @ @ = = = = = = = = = = % % @ % % = @ @ = = = = @ @ @ @ @ = % = = = @ @ = = = % @ @ = @ @ @ @ @ @ = @ @ o o X X X X = = o     . . . o o = - - - = = % = - - : - - - - - - - = = = = @ @ @ @ @ @ @ @ = @ o @ @ @ @ o           . . .   . .         . . . .       . . . . X X . . . X X . . . .       . o o               . . X X . . X . X X . . . . . . . . X X . . o X o X X X X o X X . . . . X X X . . . . . . . . . . . X o X . o o o X . . . . o o X . . X X o o o o o o o o o o o o o X . . . X X . . . . . . X X X X X X X X + + + . . X # - - 8 a d f f f v f c n n v v c p c c l l l p p p p p i t t u r e 8 e e e ",
": : : : : : : : : : : : : : : : : : : : : : : ; : : > > ; : : : : ; ; ; ; ; : : = = > > > > > ; > > > > > = = = % % = = = = = > = = = = = = % % % % = % % % o o @ @ @ @ @ @ = - - - = = = = = - = = = = = = = = = = % % = @ @ @ = = = % % @ @ @ % % = = = = @ @ = = = = = = = = = = = = = = = = % % % @ = = = = = = = = = % @ @ % % = = @ @ % @ = = = % % % % % % @ = = = = @ @ @ @ @ = @ = = = @ @ = = = = @ @ = @ @ @ @ @ @ = @ @ o o o o . . o .               . o % = - = = = = - ; : : - - - - - - - = - - % = = = = = @ @ @ @ o o @ @ o .                   . .         . . . .     . . . . X o o . . X o o . . X .       . o o               . . o X X . o o X X o . . . . . . . X X . . . . . . . . . . X X . . . . X X . . . . . . . . . . . . X o X . o o o . . . . . o o . . . . o o o o o o o o o o o o o o o . . . X . . . . . . . X X X X X X X X X + + + X X # % @ % - 8 a d d f f s c v v v c f l c l l l p p p p a i t u u r r 8 8 e e ",
": : : : : : : : : : : : : : : : : : : : : : : ; : ; > ; : : : ; ; ; ; ; ; ; : : ; ; ; ; > > > > ; - - > > = = = % % = = = = = > = = = % % % = = % % % % % % o o @ @ @ @ @ @ = - - = = = = = - - = = = = = = = = = = = % = = @ @ = = = @ = @ @ @ = = = = = % @ @ = = = = = = = = = = = = = = = = @ @ @ @ % % % % = = = @ = % % @ = = = = @ % % % @ @ @ % % % % @ % % = = = = = % @ @ @ % % = = = @ @ @ = = @ @ @ = @ @ @ @ @ @ = @ @ o o o o X . .                   . @ = = - - - - - : : - - - - : : ; - - - - - - - - = = = = @ @ o @ @ @ o . .   . . . .     . . .       . . X . . .   . . . . o o o X . X o o . . X .       . o o .             . . o o o o o o o X o o . . X . . . . . . . . . . . . . . . . . . . . . . . . . . . . . . . . . . . X o o . o o o . o . . . o o . . . . o o o o o o o o o o o o o o o . .   . . . . . X X o X X X X X X X X . X X X X X o @ X . . % 4 e a a f f f f c f p p p l l c l l p p p a t u u r r e 8 8 8 e ",
": : : : : ; : : : : : : : : : : : : : : : : : : ; ; : : : : ; > ; ; ; ; ; ; ; ; : : ; ; ; > > > ; ; - > = = = > % = = = = = = = > = = % , % = = % % % % % % % % o @ @ @ o @ = - = = = = = - - - = = = = = = = = = = = = = = = = = = = % = @ @ @ = = = = = = @ @ % % % % % % % = = = = = = = = = = = = = = = = = = = = @ = @ @ @ @ @ @ @ @ @ @ @ @ @ @ % % % % @ % % = = = = % % @ @ @ @ % = = = @ @ @ @ @ @ @ @ = @ @ @ @ @ @ = = @ o o @ @ o . .       .           . o @ = - - - - - - - - - - - : : : - - - : - - - - - - - - = @ @ @ = % @ .       . . X . . . . . .     . . X . . . . . . . . X o o . . X o o X . o .         o @ .             . . o o o o o o o o o o o o X X . . . . . . X X X X X X X X . . . . . . . . . . . . . . . . . . . . X o X . o o o X o . . . o X X . . X X o X X X X X X X X o o o o o . .   . . . . X X o @ X X X X X X X X o o o X X X X X . X @ X X % 4 r v n n n n v c c p p l c l l p p p a u r r r r 0 8 8 e e ",
": : : ; : : : : : : : : : : : : : : : : : : : : ; ; : : ; > > > ; ; ; ; > > > > ; ; - - > > > > : ; ; > = = > > = = = = = = = = = = = = % % % % , , % % % % % % o @ @ @ o @ @ = = = = = = = = = = = = = = = = = = = = = = % = = = = = = = @ @ @ @ @ = = = = = = % % % % @ % @ @ = = = = = = = = = = = = = = = = = = = @ = @ @ @ @ @ @ @ @ @ @ @ % @ = = = = @ @ % = = = = = = = @ @ @ @ % = = = @ @ @ @ @ @ @ @ = @ @ @ @ @ @ % = @ o @ @ @ o . .               . . . . o @ = - = - - - - - - - - : : : - - : : : : - - - - - - - = = = - = @ o         . . . . . . . .     . . o . . . . . . . . X o X . . . o @ o . o .         o @ .           . . . o o o X o o o o o X o o . . . . . . . . X X X X o o X X . . X X . . . . X X . . . . . . . . . . X o X . o o o o o . . . . X X o o X X . . X X X X X X X X o o @ o . .   . . . . . X X X X X X X X X X X @ @ @ + @ @ @ o X @ % X . . % 3 u y c n S m n v p f c c c p p a p i r r r r r e e e e e ",
": : ; ; : ; : : : : : : : : : : ; : : : : : : : ; : : : = = = ; ; ; ; > > = = = = = = > > > ; ; : : ; > = = > > = = = = = = = = % = = = = = , o , , , , % % % % o @ @ @ @ @ @ @ % % = = = = = = = = = = = = = = = = = = = = = = = = = = = @ @ @ @ @ @ % = = = % % % % % @ @ @ @ = = = = = = = = = = = = = = = = = = = @ = @ @ @ @ @ @ @ @ @ @ @ % = = = = = @ @ @ = = = = = = = @ @ @ @ % = = = @ @ @ @ @ @ @ @ = @ @ @ @ @ @ % = @ @ @ % % o . .             . .       . o @ @ = = = - - - : : - : : : - - : : : : - - = - - ; - - - - - - % o .               . . . .     . . o o . . . . . . . . o o . . . X @ o X o .         o @ X           . . . o o o o o o o o o X o o . . . . . . . . . . . . . . . . . . X . . . . X X . . . . . . . . . . . X o X . o o o o o . . . . . o o o o . . X X X X X X X X X o o @ o X .   . . . . . . . . X X X X X X X X X X X X o @ @ @ @ o X X @ % @ @ % 3 r f n n v c p f c c c l p a p i r r r r e 0 e e e e ",
"7 : : : : : ; > : : ; ; : : : ; : : : : : : : : : : : : : : : : ; ; ; = = = > ; ; ; ; ; ; ; ; ; ; ; > > > = = = = = = = = = = = > = = = = = % % = = = % % % , , o o o o o o o o o % = = = > = = = = = = = = = = = = = = = = = = = = = % % @ @ @ = = = = = = % % % % % % % % % % % = = = = = = % = = = = = = = = = = = = = = = = @ @ @ = = = = = @ = = = = = = = % % @ % % % % % = = = = = % % = % % % % % % % % , , , % % % , , @ @ @ @ @ @ o o . .                         . . o @ = - - - - = : : ; ; ; ; ; ; ; ; ; ; ; ; : : ; - > : : : : > . .                       . . . . . . . . . . . . . o o . . o o o o o . . .     . X o o . .       . . o o o o @ o o o o o X X X X o o . . . . . . . . . . X o o . . . . . . . . o o o o o o X X . o o o o o o . X X o o o o X X . . . X o o o o o o o o o o o o o o o o X .                   . o o o o o o o o o X o X o o o o @ X o X o X . . @ @ , : e f d f f a a p v v p r r u t u r r e e 8 8 8 3 ",
": : : : : : : ; : : ; ; : : : ; : : : : : : : : : : : : : : : : : : ; > = = > : > > > > > > > > > > > > > = = = = = = = = = = = = = = = = = = % = = = % % % , , o o o o o o o o o % = = = = = = = = = = = = = = = = = = = = = = = = = @ % @ @ @ % % = = % = % % % % % % % % % % % = = = = = = % = = = = = = = = = = = = = = = = @ @ @ = = = = = @ = = = = = = = % % @ % % % % % = = = = @ % % % % % % % % % , % , , , % % % % % @ @ @ o o o o o . .                         . . . o @ = - - - = ; ; > > > > > ; ; ; : ; ; ; ; ; ; - > : : : ; > X .                       . . . . . . . . . . . . . o o . . o o o o X . . .     . . o o . .       . X o o o o o o o o o o X X X X X o . . . . . . . . . . . o X o o X X X . X X o o o o X X X X . o o o o o o . . X X X o o X X . . . X o o o o o o o o o o o o o o o o X . .               . . o o o o o o o o o o o o o o o o @ o o o o o X . o , o o % 4 y f f f a a p p p p a u u t u u r 8 8 8 8 8 ",
": : : : : : : ; : : ; ; : : : ; : : : : : : : : : : : : : : : : : : : ; > > ; : = = = = = = = = > > > > > = = = = = > = = = = = = = = = = = = = = = = % % % % , % o o o o o o o o o % = = = = = = = = = = = = = = = = = = = = = = = @ @ = % @ @ % % @ @ % @ @ @ % % % % % % % % % = = = = = = % = = = = = = = = = = = = = = = = @ @ % @ = = = = % % = = = = % % % % % % = = = = % % % @ @ @ @ % % % % % , , , , , , % % % % % % @ @ o o o o o o . .             . . .   . . . . . . o @ - : - - - - - - > ; ; ; ; : ; ; ; ; ; ; - - ; : : : ; > o .                       . . . . . . .   . . . . . o o . . o o X X X . . .       . . o o .     . . o o o X o o o o o o o X X X X X . . . . . . o o . . . . . . o o o o o o o o X X . . . . . . . X o o o o X . . . X X . . . . . . . o o o o o o o o o o o o o o o o o . . .               . O o o o o o o o o o o o o o o o o o o o o @ @ o o o o o O   o : w y a p p p a p p a t r u a a r 8 r 8 8 8 ",
": : ; : : : : : : : : : : : : : : : : : : : : : : : : : : : : : : : : ; > > ; : = = = = = = = = > > > > > = = = > > > = = = = = = = = = = = = = = = = % % % % , , o o o o o o o o o % % % = = = = = = = = = = = = = = = = = = = % % % @ = = = = % % @ @ @ @ @ @ % % % % % % % % % = = = = = = % = = = = = = = = = = = = = = = = % % % @ = = = = @ % = = = = % @ % % % % % = = = % % % @ @ @ @ % % % % % , , , , , % % % % % % % @ @ o o o o o o . .             . . . . . . . . @ o . o = - ; - ; : : : : : : : ; ; ; ; ; ; ; ; - ; ; : : : : ; = X       .               . . . . . . .   . . . . . o o . . o o X X X . . .         . o o .     . o o o o X X o o o o o o X X X . . . . . . . . o o o . . . . . o o o o o o o o X X . . . . . . . X X o o o X . X X X X . . . . . . . o o o o o o o o o o o o o o o o o o . . .             O X o o o o o o o o o o o o o o o o o o o o @ @ @ o   o , o O . @ - 4 e a f l p t r u r r u t a u e 8 8 8 8 ",
": : ; : : : : : : : : : : : : : ; : : : : : : : : : : : : : : : : : : : ; > ; : > > > > > > > > - ; - > > > > > > > > = = = = = = = = = = = = = = = = % % % , % , , o o o o o o o o o , % % = = = = = = = = = = = = - = = = = = % % % % = = = = = = % @ @ @ @ @ % % % % % % % % % = = = = = = = = = = = = = = = = = = = = = = = % % % @ = = = = @ @ = = = = @ @ @ % = = % @ @ @ % @ @ @ @ @ @ @ % % % , % % % % % % % % % % % % @ @ @ @ @ @ o o . . .           . . . . . . . . = o . . X @ = - > - ; : : : : ; ; ; ; ; ; ; ; ; > ; ; : : ; : : > o       .             . . . . . . . .   . . . . . o o . . o o X X X . . .         . o o o .   X o o o o X X o o o o o o X X X o o X . . . . . o o X . . . . . . . . . . . . . X X . . . . . . . X o o o o X . X X . . X o o o . . . o X o o o o o o o o o o o X o o o o X . .           . X X o o o o o o o o o o o o o o o o o o o o @ @ @ o O o , @ @ o @ @ % - 4 r a p a u y y y y u u r r 8 8 8 8 ",
": : : : : : : ; ; : : : ; ; : : ; ; ; ; : : : : : : : : : : : : ; : : : ; > > ; ; ; ; ; ; ; ; ; - ; - > > > > > = = = = = = = = = = = = = = = = = = = % % , , % o o o o o o o o o o o o , % = = = = = = = = = = = = - = = = = = @ @ % @ = = = = = = @ @ @ @ @ % % % % % % % % % % = = = = = = = = = = = = = = = = = = = = = = = = = % % = = @ @ @ @ = = = = @ @ @ = = = % @ @ @ = = @ @ % @ @ @ % % % , % % % % % % % % % % % % @ @ @ @ @ @ o o X X . .             . . . . . . @ o .     . o @ = = = > > > > = > - - - > > > > > ; : ; ; ; : : : = X                   . . . . . . . .   . . . . . o o . . o o X X X . . .         . X @ o .   X o @ o o X o o o o o o o X X . o o X . . . . . o o . . . . . . . . . . . . . . X o . . . . . X . . o o o o . . X X . . X X o o . . . o X o o o o o o o o o o o X o o o o o . .           O X o o o o o o o o o o o o o o o o o o o o o @ @ o X @ o o o o @ @ @ + + + & 7 r a a a a p a u e e e e 8 8 8 ",
": : : : : : : ; ; : : : ; ; : : ; ; ; ; ; : : : ; ; ; ; ; ; ; ; > ; : ; > > > > ; ; : : ; ; ; ; - - - > > = = = = = = = = = = = = = = = = = = % = = = % % % % % o o o o o o o o o o o o o o % = = = = = = = = = = = = = = = = = @ @ @ @ @ = = = = = = % @ % = = % % % % % % % % % = = = = = = = = = = = = = = = = = = = = = = = = = = = = @ @ @ @ @ @ = = @ @ @ @ @ = = = % @ @ = = = = % % % % % % , , % % % % % % , % % % % % @ @ @ @ @ o o o o o X . . . . .       . . . .   . o o .     X @ @ % = = > > = = > - > > > > - > > ; : ; ; > : : : > o X         .     . . . . X . . . . . . . . . . o o . . o o X X X . . .     . . . . @ @ o . . o o o o o o o o o o o o X . X o o o . . . . . . . . . . . o o X X o o o X X X o o o o X X X X . X X o o . . . X o . . X o o o . . . . X o o o o o o o o o o o X o o o o o . .           O X o o o o o o o o o o o o o o o o o @ o o o o o X . o o O O . o o @ X X X + # - 8 r y y y u r r 8 8 8 8 8 8 ",
": : : : : : ; - ; : : : ; ; : : ; ; ; ; ; : : : ; ; ; ; ; ; ; ; > ; ; ; > = = > ; ; ; ; ; ; ; ; > > - > > = = = = = = = = = = = > = = = = = % % = = = % % % , , o o o o o o o o o o o o o o % = = = = = = = = = = = = = = = = = @ @ @ @ @ = = = = = = % % % = = % % % % % % % % % = = = = = = = = = = = = = = = = = = = = = = = = = = = = @ @ @ @ @ @ % = @ @ @ @ @ = = = % % % = = = = % % = = % % , , % % % % , , % , % % % % @ @ @ o o o o o @ o o . . . . .       . . .       o @ @ o . o @ % = = > ; > > = > > - > > > - - > ; : ; > > : : : ; = o .       . . . . . . . X . . . . . . . . . . o o . . o o o o X . . .     . .   . @ @ o . . o o o o o o @ o o o o o X X X o o o . . . . . . . . . . o o o o o o o o o o o o o o o o X X X . X X o o . X . o o . . X o o o . . . . X o o o o o o o o o o o X o o o o o . .           O o o o o o o o o o o o o o o o o o o @ o o o o o . . o o @ o o o . X X # % @ X X % - e 8 8 8 r r 8 8 8 8 8 8 ",
": : ; ; : : : > : : : ; > ; : : ; ; ; ; ; ; ; ; : : : : ; > > ; : ; ; ; : : ; ; ; ; ; ; ; ; ; ; ; ; > > = = > > > > = = > > = = = = % % = = = % = = = % % % % % o o o o o o o o o o o o o o % = - - - - - = = = = = = = = = = = = = = @ @ @ @ = = = = = = = = = = = = = = = % @ % % % % @ @ @ % = = = = = = = = = = = % % = = = = = = @ @ @ @ = = @ @ = @ @ @ @ = % % @ @ @ % = % = = = = = = = o o o o o , % % o , , , , , , , @ @ @ @ @ @ @ @ X o X     .               . . . . . X o @ @ o o o o o % % = = > = = > > > > ; ; ; ; ; ; ; ; ; ; : : ; = .         . . .   . . X     . . . . . X . . . . . X o o X o o o X . .   o . . . X o o . . X o o o o X . o o o o o o o o . o o o o X . . . . . . . . o o o . . o o . . o . . . . . o o X o o X . . o o . o o o . . X o . . . X o o o X . . . . . X X X . o o o o o X X .           . X o o o o o o o o o o o o o o o o o o o o X X X o o o o o o o X X X X X X X X X X @ - ; 4 8 w 8 7 7 w w w 7 ",
": : ; ; : : : > : : : ; > > : : ; ; ; : ; ; ; ; : : : : ; > > ; : ; ; ; : : ; ; ; ; ; ; ; ; ; ; ; ; > > = = > > > > = = > > = = = = % = = = = % = = = % % % % % o o o o o o o o o o , , , % = = = = = = = = = = = = = = = = = = = = = @ @ @ @ = = = = = % % = = = = = = = = % @ % % % % @ % @ % = = = = = = = = = = = @ % = = = = = = @ @ @ @ = = @ @ = = @ @ @ = % = @ @ % % = = = = = = = = = , o o o o % % % , , , , , , , , @ @ @ @ @ @ @ @ o o o .   . .             . . . . . X o @ @ o o o o o o % % = = = = > > = = > ; ; ; ; ; ; ; ; ; : : ; = o         . . .   . . X     . . . . . . . . . . . X o o X o o o X . .   o . . . X o o . X o o o o o o X o o o o o o o o . o o o o X . . . . . . . . o o o . . o o . . o . . . . . X o o o o o . . o o . o o o . . X o . . . X o o o X . . . X . X . . . o o o o o X X X           . O o o o o o o o o o o o o o o o o o @ o o X X o o o o o o o X X X X X X X X X X X @ X + % - 4 8 w e 8 7 7 4 ",
": : ; : : : ; ; ; ; ; > > > ; : ; ; ; : ; ; ; ; : : : : ; > > ; : ; ; ; : : ; ; ; ; > ; ; > ; ; ; ; > > = = = = > = = = > > = = = = = = = = = = = = % % % % % % o o o o o o o o o o = = % % = = % % = = = = - - = = = = = = = = = = = @ @ @ @ % @ % = = % % @ @ = = = = = = % @ = = % % % % % % = = = = = = = = = = = @ % = = = = = % @ @ @ @ = = @ @ = = @ @ @ = = = @ @ % % = @ @ = = % % @ @ , , o o o % % % , , , , , , , , @ @ @ @ @ o @ @ o @ o . . . .             . . . . . X o o @ o o X o o o o % = = % = = = = = > > ; ; ; ; ; ; ; ; : ; > = % o .   . . . .     . X   . . . . . . . . . . . . X o o X o o o X . .   X . . . . o X X o o o o o o o o o o o o o o o o X o o o o . . . . . . . . . o o o . . o o . . o . . . . . o o o . o X . . o o . X o o . . o o . . . X o o o X . X X X X X . o o o o o o o o X X           . X X X X X X X X X X o o o o o o o o o o o o X o o o X X X X X X X X X X X X X X X @ X X X X @ - 3 4 4 4 4 3 ",
": : : : : : ; ; > ; ; > = = > ; ; ; : ; ; ; ; ; : : : : ; > ; ; : ; > ; : : ; ; ; ; > > > > ; ; ; ; > > = = = = > = = = > > = = > = = = > > = = % % % % % % % % % , o o o o o o o o = = = % % % @ @ @ @ = = - - = = = = = = = = = = = @ @ @ @ % @ % % = % @ @ @ = = = = = = % @ = = % % % % % % = = = = = = = = = = = @ % = = = = = % @ @ @ @ % % @ @ = = @ @ @ = = = @ @ % % = @ @ % % % % @ @ % , o o o % % % , , , , , , , % @ @ @ @ @ o @ @ @ @ @ . . X . .           . . . . . . o o @ @ o X X X X o % = = % = = = = = = > ; ; ; ; ; ; ; ; : > = > > = X   . . . .     . . . . . . . . . . . . . . . X o o . o o o X . .   . . . . . X X X o o o o o o o o o o o o o o o o X o o o o . . . . . . . . . o o o . . o o . . o . . . . . o o o . o X . . o o . X o o . . o o . . . X o o o X . o X X X X o o o o o o o o o o o .           . X O O X X X X X X o o o o o o o o o o o o o o o o X X X X X X X X X X o X X . X @ % @ X . . X @ % ; ; ; ; "
};
